<?xml version="1.0" encoding="UTF-8"?>
<map version="1.10" tiledversion="1.11.2" orientation="orthogonal" renderorder="right-down" width="30" height="20" tilewidth="70" tileheight="70" infinite="1" nextlayerid="19" nextobjectid="65">
 <tileset firstgid="1" name="Tilesheet" tilewidth="70" tileheight="70" tilecount="5041" columns="71">
  <image source="Tilesheet.png" trans="ffffff" width="5000" height="5000"/>
 </tileset>
 <layer id="8" name="BackGround" width="30" height="20">
  <data encoding="csv">
   <chunk x="0" y="-240" width="16" height="16">
17,17,16,15,16,16,16,15,16,17,15,17,17,17,15,16,
15,15,15,15,16,17,17,17,16,16,17,17,15,16,15,16,
16,16,17,16,17,16,16,17,16,15,15,17,17,17,15,16,
15,17,16,16,16,15,15,16,15,17,16,16,16,17,17,15,
16,17,16,15,17,17,17,15,17,15,17,15,16,15,16,16,
15,16,15,17,16,17,17,17,15,17,16,16,16,15,16,16,
15,15,16,15,17,17,15,17,16,17,17,17,16,17,15,15,
15,15,16,17,15,17,16,16,17,16,15,15,16,17,17,15,
17,15,15,17,15,15,17,16,15,16,15,15,16,16,15,15,
16,16,15,16,17,15,17,15,15,17,16,15,17,17,15,17,
17,15,17,16,16,17,17,17,17,16,16,16,16,17,16,16,
15,16,17,17,17,17,17,17,16,15,17,15,15,17,16,15,
17,16,17,16,17,16,15,17,15,17,16,17,15,15,16,16,
16,15,15,15,16,17,15,15,17,17,17,16,17,17,17,17,
17,16,17,16,16,15,15,17,15,17,15,17,17,16,16,17,
15,16,15,16,17,15,17,16,17,17,15,17,17,16,17,16
</chunk>
   <chunk x="16" y="-240" width="16" height="16">
15,15,15,17,17,16,17,15,16,15,17,16,15,15,16,15,
15,15,16,17,16,15,16,15,17,16,16,15,16,17,16,17,
16,17,16,15,16,17,15,17,15,17,16,17,17,17,17,17,
17,17,16,16,15,16,17,15,17,15,17,16,15,15,17,16,
16,15,17,17,15,16,17,17,16,16,16,16,17,16,15,16,
17,16,17,16,15,17,16,16,17,17,17,16,15,16,17,16,
17,15,15,16,17,16,17,17,15,16,17,17,17,17,15,16,
17,16,16,17,15,15,16,16,15,17,17,16,17,15,17,15,
15,15,15,15,17,17,17,16,17,17,15,16,17,17,17,17,
16,16,17,17,16,15,16,15,16,17,17,17,15,16,17,15,
15,17,16,17,15,16,15,17,16,17,17,17,15,16,17,17,
17,15,15,17,15,15,15,17,17,15,16,15,15,17,16,16,
17,16,17,17,15,16,17,17,15,15,15,16,15,16,17,17,
15,16,16,17,16,17,16,15,17,16,15,17,16,15,16,15,
15,17,16,15,15,16,15,15,15,17,17,15,16,16,17,17,
17,16,15,15,17,16,15,15,16,15,16,16,15,17,15,15
</chunk>
   <chunk x="32" y="-240" width="16" height="16">
16,15,16,16,15,16,16,16,15,17,15,17,15,15,17,16,
17,17,15,17,16,15,15,17,15,15,17,15,17,15,17,16,
15,17,17,16,15,15,17,16,17,15,15,15,15,17,16,16,
17,16,16,16,17,15,17,17,17,17,15,16,16,17,17,17,
16,15,16,16,16,16,17,15,16,16,16,16,15,17,15,17,
15,16,17,17,17,15,16,16,15,17,15,15,16,16,16,15,
16,16,16,16,15,17,17,15,15,17,17,16,15,16,17,15,
16,17,17,15,17,15,15,17,16,15,15,17,17,16,17,16,
16,15,15,15,17,17,17,17,17,17,16,15,16,17,17,16,
17,17,16,15,15,17,17,17,16,17,16,17,17,17,16,15,
15,15,16,16,16,15,17,17,17,16,17,15,15,16,16,17,
16,17,17,15,16,15,16,17,17,16,17,16,17,17,16,16,
16,16,15,16,16,17,15,17,17,16,17,15,17,15,15,17,
16,16,17,16,15,16,16,17,16,16,17,17,15,15,16,17,
17,15,16,15,15,17,17,16,15,15,15,15,15,16,17,15,
16,15,17,15,17,17,16,16,15,15,16,15,17,15,16,17
</chunk>
   <chunk x="48" y="-240" width="16" height="16">
16,17,16,17,16,16,15,16,15,15,17,15,15,16,15,15,
15,15,16,16,15,17,16,17,17,17,17,16,16,15,17,17,
15,15,15,15,16,16,16,17,16,16,17,15,17,15,15,16,
15,16,15,15,17,16,15,17,15,15,16,16,16,15,17,17,
15,16,15,15,15,15,15,16,17,17,15,15,17,15,16,16,
17,15,16,16,17,17,16,17,17,15,17,15,15,16,15,17,
17,17,16,16,16,15,17,16,16,17,17,17,17,16,17,15,
17,16,17,17,15,15,16,16,15,17,15,16,16,16,16,16,
17,15,16,15,17,17,17,15,15,15,16,16,17,15,16,16,
16,17,15,15,15,17,16,17,15,17,17,15,15,16,16,15,
16,15,17,17,15,16,17,17,16,17,15,17,16,15,15,16,
15,15,17,16,15,16,15,15,15,17,15,16,15,16,17,15,
16,15,16,15,16,16,16,17,15,15,17,15,16,17,15,16,
16,15,16,16,16,17,16,17,16,16,17,15,15,17,15,16,
17,15,17,17,16,17,17,16,16,15,15,15,16,15,16,16,
15,17,16,16,17,17,15,15,15,17,17,15,17,15,16,16
</chunk>
   <chunk x="64" y="-240" width="16" height="16">
15,15,16,16,16,16,17,15,15,16,15,15,15,17,16,17,
16,15,17,16,16,15,15,16,16,17,17,16,16,17,15,16,
15,17,15,15,15,17,15,16,17,17,17,16,16,16,15,16,
16,15,17,15,17,15,16,16,17,15,16,16,15,16,17,15,
17,16,16,16,16,16,17,15,15,15,17,17,15,16,17,15,
15,15,16,16,16,16,17,15,15,16,16,15,15,15,15,17,
16,16,17,16,17,15,15,16,16,15,17,15,16,16,17,17,
17,17,17,17,17,15,15,15,15,17,16,15,17,16,15,15,
15,16,16,16,17,17,16,15,15,15,16,16,15,16,16,15,
17,16,17,17,17,16,17,15,17,15,15,17,16,16,15,17,
15,15,15,15,15,16,17,16,15,15,17,17,15,16,16,15,
17,16,15,15,16,17,16,16,15,17,17,15,17,16,15,17,
16,15,17,15,15,17,15,17,15,17,16,15,16,16,16,16,
17,16,15,17,16,15,16,17,17,17,15,15,17,15,17,16,
17,17,15,16,16,16,15,16,17,15,16,15,16,15,16,17,
17,17,17,17,15,15,15,16,16,16,16,15,15,15,17,15
</chunk>
   <chunk x="80" y="-240" width="16" height="16">
17,16,17,16,17,17,15,15,16,15,15,16,15,15,17,17,
17,16,15,17,16,17,17,16,15,15,16,15,17,17,16,16,
17,17,15,17,16,16,16,16,17,15,16,16,15,17,17,15,
15,16,17,15,16,16,17,16,16,15,15,17,17,15,15,17,
16,15,16,15,16,17,17,15,16,16,17,15,15,16,15,17,
15,16,16,16,16,17,16,16,16,17,15,16,16,17,15,15,
16,15,17,17,17,15,15,17,16,17,17,16,15,17,17,17,
15,16,17,16,16,15,15,16,16,17,17,17,17,17,15,16,
16,15,17,16,15,16,17,15,16,15,16,17,17,16,16,17,
16,16,17,15,16,16,16,17,17,16,17,15,15,17,16,16,
15,16,16,15,15,15,15,16,15,16,17,16,15,15,17,17,
15,17,17,15,17,16,16,16,15,15,15,15,17,15,15,16,
17,15,17,15,17,17,16,17,17,16,15,15,16,17,15,16,
17,16,16,15,16,15,15,17,15,15,15,15,15,16,16,16,
16,17,16,16,16,16,17,17,16,15,16,16,16,16,17,15,
15,15,16,16,16,16,17,16,16,16,15,16,17,15,16,15
</chunk>
   <chunk x="96" y="-240" width="16" height="16">
16,15,16,17,16,17,16,17,16,16,15,17,15,16,17,17,
17,16,16,16,16,15,16,15,17,17,15,16,15,17,15,17,
15,16,17,16,17,16,17,17,15,15,15,16,17,15,15,16,
16,15,16,16,17,17,15,15,17,15,15,17,16,17,17,17,
15,16,16,17,15,17,16,17,15,16,16,17,17,16,17,17,
17,15,16,15,17,15,15,17,16,15,17,17,16,16,16,17,
16,17,15,16,15,15,16,15,16,17,15,16,17,15,16,16,
17,17,17,16,16,16,17,16,16,16,17,17,16,16,16,16,
17,15,15,16,17,15,17,16,16,15,17,17,16,15,16,15,
17,16,15,17,15,16,17,17,15,17,17,16,17,16,17,17,
17,16,16,16,16,16,17,15,17,17,17,15,15,17,16,17,
17,15,15,15,16,16,17,17,17,17,17,17,16,15,16,16,
16,15,15,17,16,17,17,16,15,15,16,17,15,15,15,15,
16,16,17,17,16,15,15,17,15,17,16,17,15,17,17,15,
17,16,17,15,16,16,16,15,16,17,16,15,16,16,16,16,
16,17,17,15,15,17,16,17,15,15,17,16,16,15,16,16
</chunk>
   <chunk x="112" y="-240" width="16" height="16">
17,16,16,16,17,15,15,15,16,16,15,15,16,16,17,15,
16,15,16,16,17,15,16,17,15,16,16,15,16,17,16,15,
16,15,15,17,17,16,16,15,17,16,16,17,17,17,17,16,
17,17,16,16,17,15,16,15,17,16,15,15,15,15,17,15,
17,17,16,15,17,15,16,17,16,15,17,16,16,16,16,15,
15,16,16,17,15,16,15,16,17,15,15,16,17,16,17,17,
17,15,16,16,17,16,16,15,16,16,17,17,17,17,15,16,
15,17,15,16,17,17,16,15,15,16,17,17,17,17,17,15,
15,15,16,17,16,17,16,15,17,17,15,17,17,16,17,16,
15,15,17,16,16,15,15,16,17,16,17,17,17,17,16,17,
15,16,16,15,17,15,15,15,15,16,17,17,15,16,16,16,
17,16,16,15,17,17,15,15,16,16,17,16,16,17,15,15,
16,16,17,17,15,17,17,17,16,17,16,15,15,17,17,17,
17,16,15,17,17,17,17,16,17,17,17,16,17,15,15,17,
17,16,15,16,15,15,16,16,15,17,15,15,16,17,15,15,
15,15,17,16,17,17,17,17,16,17,17,17,15,16,15,17
</chunk>
   <chunk x="128" y="-240" width="16" height="16">
15,15,15,17,16,16,17,15,16,17,16,16,17,16,17,16,
15,17,15,15,15,15,16,17,17,17,16,16,17,16,17,17,
17,17,16,17,16,17,17,16,16,17,17,16,15,15,17,15,
16,17,16,17,16,15,17,16,17,16,15,17,16,16,17,17,
16,17,17,15,15,15,17,17,15,16,15,17,16,17,15,16,
17,16,15,15,15,16,15,17,16,15,15,16,17,15,15,15,
17,17,16,17,15,15,16,17,16,15,16,17,17,15,17,15,
17,17,17,15,15,15,17,16,17,15,17,17,16,17,15,15,
16,17,15,17,15,17,15,17,17,17,15,16,16,17,17,15,
17,17,17,16,16,17,17,16,16,16,17,15,16,17,16,16,
16,17,16,15,16,16,17,17,15,16,16,17,17,16,15,15,
17,16,15,15,17,15,16,17,17,15,15,17,17,17,17,16,
15,17,15,17,17,15,15,15,16,15,17,17,15,15,16,17,
15,16,15,17,15,16,17,15,17,16,17,15,16,15,17,16,
17,16,17,15,15,17,17,17,16,17,16,16,17,17,15,17,
16,15,15,16,17,16,16,15,17,17,17,15,16,15,15,16
</chunk>
   <chunk x="144" y="-240" width="16" height="16">
17,17,15,16,15,15,15,15,17,17,17,15,16,15,17,15,
15,16,15,15,16,16,15,15,15,15,15,17,17,16,17,17,
16,17,16,15,16,16,15,15,16,15,17,17,15,15,17,15,
17,15,16,17,17,16,15,15,16,15,16,17,15,17,16,15,
16,17,15,15,17,17,15,17,15,15,16,15,15,17,16,15,
17,17,17,16,15,17,15,15,15,16,16,17,15,16,15,15,
17,17,16,15,15,17,17,16,17,16,17,15,17,17,17,15,
17,15,17,16,16,17,16,17,15,17,16,17,16,17,17,15,
15,15,15,17,16,16,16,15,15,15,16,17,16,16,16,16,
16,15,17,17,15,16,15,15,15,16,15,15,15,16,16,15,
16,16,16,17,15,17,17,16,17,16,17,16,16,15,16,17,
15,17,16,15,17,15,16,15,15,17,17,15,15,17,15,15,
17,16,17,16,15,15,17,17,16,17,15,16,17,15,15,16,
17,15,15,17,15,16,16,15,17,15,17,17,15,15,16,17,
16,15,16,17,17,17,15,17,17,17,17,16,17,15,16,17,
15,16,16,16,16,16,15,16,16,17,15,15,17,15,16,15
</chunk>
   <chunk x="160" y="-240" width="16" height="16">
17,15,16,16,15,17,16,17,16,15,16,15,17,17,16,16,
16,15,16,17,17,17,16,17,16,15,16,15,17,15,16,17,
16,15,16,16,17,15,16,17,17,15,17,16,17,17,16,16,
15,17,17,16,15,15,16,15,16,15,15,16,15,15,16,17,
17,15,15,16,16,16,17,17,16,17,15,15,16,16,15,15,
15,16,17,16,15,16,16,17,16,17,15,17,17,16,15,17,
16,17,16,15,17,16,15,15,15,16,17,15,16,17,17,16,
17,17,16,16,17,15,15,16,16,15,17,17,17,16,16,15,
17,15,16,17,15,15,17,15,17,16,17,16,15,15,16,17,
16,15,15,16,15,15,17,16,15,17,17,16,15,15,15,16,
16,17,15,17,16,16,16,17,17,17,17,16,17,15,15,17,
16,15,16,17,17,17,15,15,15,16,15,15,16,17,16,15,
16,16,17,16,15,17,15,15,16,17,17,15,17,17,15,16,
17,17,17,16,16,15,16,17,16,15,17,15,16,15,15,17,
17,17,17,16,15,15,16,15,15,15,15,17,17,16,17,15,
16,15,17,16,16,16,15,0,0,0,864,864,864,864,0,0
</chunk>
   <chunk x="0" y="-224" width="16" height="16">
16,16,17,17,16,16,15,16,16,15,17,16,15,16,16,16,
16,15,16,17,16,15,15,15,15,15,16,16,16,15,17,15,
15,17,17,16,17,17,17,17,15,16,15,16,15,17,17,16,
16,17,15,17,17,15,15,17,15,16,17,16,15,16,17,15,
16,15,16,17,15,16,16,16,15,15,15,17,16,17,15,15,
17,17,17,16,16,16,16,17,17,15,17,17,17,17,15,16,
15,16,17,15,15,16,16,17,15,15,17,15,15,16,15,16,
17,15,16,17,17,16,16,15,17,15,15,16,15,16,17,16,
17,17,15,17,16,16,16,17,15,16,15,17,16,16,17,17,
15,17,17,15,15,15,15,16,17,16,16,16,17,15,17,16,
17,16,17,15,16,15,17,16,15,15,17,17,17,15,15,15,
16,16,16,15,16,16,15,17,16,16,17,15,15,17,17,16,
16,17,15,17,17,15,16,17,17,17,15,16,17,15,16,15,
16,15,17,16,15,15,16,17,15,16,17,17,16,17,17,15,
16,17,15,16,15,16,17,16,17,15,15,15,16,16,17,17,
15,16,17,16,17,16,15,15,15,15,17,15,17,15,17,17
</chunk>
   <chunk x="16" y="-224" width="16" height="16">
15,15,17,15,15,17,15,17,17,16,15,15,17,17,15,16,
17,16,16,15,16,17,16,17,17,16,17,15,16,17,17,16,
16,15,15,15,15,15,15,17,15,15,16,16,17,16,16,15,
15,16,16,16,15,15,15,17,16,17,15,15,17,15,17,15,
15,17,15,15,15,15,17,17,15,17,16,16,17,15,17,15,
16,15,17,17,15,15,17,16,15,16,15,17,16,17,16,17,
16,16,16,15,17,16,15,16,16,16,15,15,15,17,17,15,
17,15,16,15,15,17,15,15,17,15,17,16,15,15,16,15,
17,15,16,15,16,15,15,17,15,15,15,17,17,17,15,17,
17,17,15,16,15,16,15,15,17,17,16,16,15,16,16,17,
17,16,16,16,16,15,16,16,15,16,16,16,17,16,15,17,
15,16,17,17,15,15,16,17,17,17,16,17,16,15,16,15,
15,16,15,16,15,17,15,16,17,17,16,17,15,15,15,15,
16,15,17,17,17,16,15,16,15,17,16,16,16,16,15,15,
16,15,15,15,15,15,17,15,17,16,15,15,16,15,17,17,
17,15,15,15,17,17,17,17,16,17,16,16,17,16,17,16
</chunk>
   <chunk x="32" y="-224" width="16" height="16">
15,17,15,16,17,15,15,17,15,15,17,15,17,16,15,16,
15,16,16,17,16,15,17,17,16,17,15,16,16,15,16,15,
17,17,16,17,16,16,16,16,17,17,16,17,16,17,17,15,
16,16,17,15,17,16,17,15,15,17,15,16,15,16,15,16,
16,17,16,17,16,16,17,17,17,17,15,16,16,17,16,15,
16,15,17,15,16,16,16,15,15,16,16,15,17,17,15,17,
16,16,17,17,15,16,17,16,16,15,15,16,15,15,17,15,
16,17,16,15,16,16,17,16,15,15,16,15,16,17,15,15,
15,15,16,17,15,17,17,16,15,15,16,17,17,15,16,15,
16,16,16,15,17,16,15,17,16,17,15,16,17,16,17,17,
17,16,16,16,16,16,15,17,17,17,16,17,17,15,16,17,
16,16,17,16,16,17,16,15,15,16,16,16,17,17,16,16,
17,17,17,16,17,17,16,15,15,16,15,17,17,15,17,15,
17,17,15,17,16,16,16,16,17,16,17,15,17,17,15,16,
15,16,17,15,15,15,17,16,16,16,15,17,16,17,16,15,
17,16,15,17,15,15,16,15,15,17,15,15,15,15,16,16
</chunk>
   <chunk x="48" y="-224" width="16" height="16">
15,17,17,16,15,17,15,17,16,15,15,15,16,16,16,17,
15,17,17,15,15,17,16,17,17,16,15,15,15,15,17,16,
15,17,17,15,15,16,15,17,15,17,17,15,16,15,16,17,
16,15,16,16,15,17,15,15,17,17,17,17,17,17,17,15,
17,16,15,17,17,16,15,16,17,16,16,17,15,15,15,16,
15,15,16,15,15,15,16,16,15,17,16,16,16,16,17,17,
17,15,17,17,15,17,17,16,16,17,17,15,15,17,17,15,
17,16,17,16,17,16,15,16,16,17,16,15,15,15,16,15,
17,16,17,16,16,16,16,15,15,15,15,16,16,15,16,17,
16,17,16,17,16,16,16,15,16,16,16,17,17,16,17,17,
16,17,15,15,16,17,16,15,15,16,16,15,15,15,17,15,
16,16,15,17,17,16,17,16,15,16,16,16,15,17,16,16,
16,16,17,15,16,17,16,15,16,17,15,15,17,16,17,17,
16,16,17,17,16,17,15,16,17,16,15,17,17,16,16,16,
16,16,17,17,17,17,15,16,16,15,16,17,17,16,17,16,
16,15,17,15,17,15,17,17,15,16,17,17,15,16,17,15
</chunk>
   <chunk x="64" y="-224" width="16" height="16">
17,15,17,16,17,17,17,15,17,17,17,16,15,16,16,15,
16,15,17,15,17,17,17,15,17,17,15,15,17,15,17,17,
15,15,17,17,16,16,17,17,15,16,17,17,15,15,17,15,
16,15,17,16,16,16,16,17,17,16,16,16,16,16,16,15,
16,15,15,15,16,16,17,16,15,16,15,15,16,16,15,17,
15,17,16,16,16,15,17,15,15,15,16,15,16,16,15,15,
17,17,15,15,15,15,17,16,17,17,17,15,15,17,15,16,
15,15,15,15,15,17,17,17,15,17,15,16,15,15,16,17,
16,16,15,15,17,16,17,15,15,17,15,16,15,16,16,15,
15,15,16,17,16,15,15,15,16,16,17,16,15,15,15,15,
16,15,17,15,16,16,15,15,17,17,17,17,17,15,16,17,
16,17,17,16,17,16,17,17,17,16,16,15,16,16,16,16,
16,17,16,16,15,17,16,15,16,17,15,17,17,16,17,16,
16,15,17,15,15,15,15,17,16,17,17,15,16,16,17,17,
16,16,15,15,15,17,17,15,16,17,17,15,15,17,17,15,
16,15,17,16,16,15,15,16,16,15,17,15,15,17,15,15
</chunk>
   <chunk x="80" y="-224" width="16" height="16">
15,17,16,17,17,16,16,17,16,15,16,16,17,17,17,15,
15,15,17,15,16,17,17,17,17,16,15,17,17,16,15,16,
17,15,17,16,16,17,16,16,16,17,16,17,17,17,16,16,
16,17,15,16,16,15,17,17,17,17,16,15,17,16,17,15,
15,16,17,16,17,15,16,16,17,17,15,16,17,16,17,17,
16,16,17,16,16,16,17,16,17,17,16,17,15,15,17,15,
15,15,15,15,15,17,15,17,17,16,15,16,17,15,16,16,
15,15,16,15,16,15,16,17,15,15,16,17,17,16,17,17,
17,17,17,17,16,17,15,15,16,15,15,17,16,15,17,17,
17,16,17,16,15,15,16,15,16,17,15,15,17,15,16,15,
17,17,17,16,17,16,17,17,17,15,15,16,17,16,15,16,
17,17,16,17,15,15,15,15,17,17,15,16,17,16,17,16,
17,17,16,15,16,17,15,17,15,16,17,15,15,15,17,16,
17,15,17,15,15,15,15,17,17,16,17,15,16,17,17,16,
16,17,16,15,17,15,17,16,15,17,16,17,15,17,17,17,
17,16,17,16,17,16,17,17,17,15,15,17,17,17,17,17
</chunk>
   <chunk x="96" y="-224" width="16" height="16">
17,15,16,16,16,16,17,16,15,16,17,15,17,16,17,17,
15,15,15,16,16,15,16,17,16,16,17,15,17,17,16,17,
17,16,16,17,16,17,17,16,16,15,17,17,16,17,15,15,
16,15,15,16,17,17,17,15,17,16,16,17,15,17,17,16,
17,16,15,15,17,15,15,17,15,15,15,17,17,15,15,15,
17,16,15,15,16,15,16,15,16,16,17,16,17,17,16,16,
15,15,16,15,17,15,15,16,17,16,17,17,17,16,17,16,
15,17,16,16,16,15,16,17,17,16,16,16,16,15,16,15,
16,15,15,16,17,15,15,17,17,16,16,16,15,17,16,17,
16,15,16,16,17,17,17,17,17,17,16,17,15,16,17,17,
17,17,17,15,17,16,15,17,15,15,17,17,17,15,17,17,
16,16,16,16,17,16,17,16,17,16,17,16,15,15,17,16,
16,17,15,15,17,17,15,15,17,16,16,15,17,16,16,17,
16,17,17,16,17,16,15,17,17,16,17,16,17,15,17,15,
16,16,16,15,15,16,15,16,15,16,16,15,17,16,15,16,
15,15,17,17,15,15,15,15,16,17,15,17,15,15,16,17
</chunk>
   <chunk x="112" y="-224" width="16" height="16">
15,17,16,17,16,15,15,17,15,17,15,17,16,17,17,15,
16,15,16,16,17,16,16,16,17,16,16,17,17,15,15,15,
16,15,16,15,17,15,17,16,16,16,17,15,17,16,15,15,
16,16,15,16,17,15,17,17,16,16,16,17,15,17,17,16,
15,15,15,16,15,17,16,15,16,17,17,15,16,15,17,17,
16,16,17,16,16,16,16,15,15,15,17,16,17,15,16,17,
17,17,17,15,17,17,17,16,17,16,15,16,15,15,15,15,
15,16,16,17,16,17,16,15,17,15,17,15,17,15,16,16,
15,17,17,15,16,16,15,16,16,17,16,17,16,16,17,15,
15,17,15,17,17,17,15,16,15,17,16,15,17,15,16,15,
15,17,17,16,16,16,17,16,17,17,16,15,15,15,17,15,
17,17,15,15,16,15,17,17,17,15,15,16,15,17,16,15,
16,15,16,17,16,15,15,15,17,17,15,15,15,16,15,15,
17,16,15,16,17,15,15,17,17,15,15,15,15,15,15,15,
15,17,15,15,15,17,16,17,16,17,17,16,17,17,15,16,
17,17,15,16,17,17,17,15,15,17,15,16,17,16,16,17
</chunk>
   <chunk x="128" y="-224" width="16" height="16">
17,16,16,16,17,16,15,17,17,15,15,16,15,15,16,17,
17,17,15,17,15,16,17,16,17,17,17,16,15,15,15,16,
15,17,17,15,16,15,17,16,15,15,15,17,16,16,17,16,
17,15,16,17,17,16,15,17,17,15,17,17,15,17,15,15,
15,15,15,17,16,17,15,16,17,16,17,16,17,17,16,15,
17,16,15,15,16,17,16,15,17,17,15,16,17,16,15,16,
17,16,15,17,16,16,15,17,16,16,17,15,17,16,17,17,
16,16,17,17,17,17,15,15,17,16,17,16,15,15,17,17,
17,17,17,15,16,15,15,16,15,17,15,17,15,15,15,17,
16,15,16,16,15,16,15,15,15,16,16,15,16,16,17,17,
16,15,16,15,16,15,15,17,17,16,15,15,15,17,16,15,
15,15,16,15,15,16,15,17,17,16,15,15,17,17,15,16,
17,15,16,15,17,17,15,16,16,17,17,15,17,17,15,15,
17,17,16,16,15,15,15,15,17,15,17,17,16,16,17,15,
15,16,16,15,17,17,17,17,16,17,15,15,16,15,17,16,
16,16,15,15,17,16,15,15,15,17,16,16,16,17,15,17
</chunk>
   <chunk x="144" y="-224" width="16" height="16">
16,16,17,16,17,16,17,17,17,16,16,16,15,16,15,16,
16,17,16,15,16,17,15,17,16,15,16,16,17,15,17,15,
15,16,15,16,16,16,17,15,15,16,15,15,15,16,17,16,
17,16,16,15,16,17,15,17,16,15,16,16,17,15,16,16,
16,16,16,16,16,15,17,17,17,17,16,17,17,15,16,16,
15,16,17,15,17,16,16,17,17,16,15,15,16,17,17,15,
17,17,16,15,15,15,16,17,17,17,16,17,17,17,16,16,
16,16,15,17,17,15,17,17,15,15,15,16,16,15,17,15,
16,17,16,16,17,15,15,16,16,15,17,17,17,17,16,15,
17,15,15,15,16,17,17,15,16,15,15,17,17,16,15,17,
16,16,15,15,17,15,15,15,15,16,15,17,15,17,17,16,
17,17,15,15,17,17,17,16,17,16,15,17,16,17,15,17,
17,16,16,15,17,16,16,16,15,15,15,15,15,16,15,15,
17,15,16,17,15,16,17,16,15,16,15,16,15,17,15,17,
15,15,15,17,16,16,15,17,15,16,15,16,15,17,15,16,
17,17,16,16,16,16,17,16,15,17,16,15,16,15,17,16
</chunk>
   <chunk x="160" y="-224" width="16" height="16">
15,15,16,17,16,16,17,0,0,0,861,861,861,861,0,0,
17,15,17,15,15,15,15,0,0,0,861,861,861,0,0,0,
15,15,16,16,16,15,16,0,0,861,861,861,861,0,0,0,
17,16,15,15,17,15,16,0,861,861,861,861,861,0,0,0,
16,17,15,16,0,0,0,0,861,861,861,861,861,0,0,0,
15,17,17,16,0,0,0,0,861,861,861,861,861,0,0,0,
17,16,16,16,0,0,0,0,861,861,861,861,861,0,0,0,
16,16,16,15,0,0,0,0,861,861,861,861,861,0,0,0,
16,17,16,16,0,0,0,0,861,861,861,861,861,0,0,0,
16,17,16,15,0,0,0,0,861,861,861,861,861,0,0,0,
16,15,17,15,0,0,0,0,861,861,861,861,861,0,0,0,
17,17,15,16,0,0,0,0,861,861,861,861,861,0,0,0,
15,15,15,15,0,0,0,0,861,861,861,861,861,0,0,0,
16,17,15,16,0,0,0,0,861,861,861,861,861,0,0,0,
16,17,16,16,0,0,0,0,861,861,861,861,861,0,0,0,
15,16,17,17,0,0,0,0,861,861,861,861,861,0,0,0
</chunk>
   <chunk x="0" y="-208" width="16" height="16">
17,16,15,17,17,16,17,16,15,17,16,15,15,17,16,17,
17,16,15,16,15,15,15,15,16,16,16,16,17,17,15,15,
15,17,15,15,17,16,16,17,16,17,15,17,16,15,15,15,
17,17,15,15,15,15,16,15,16,16,16,15,15,17,17,17,
16,15,17,15,17,16,17,15,15,16,17,16,16,16,15,15,
17,15,16,17,17,15,16,17,17,17,17,15,16,17,16,17,
16,15,16,17,16,15,15,17,16,16,15,17,17,15,15,17,
16,17,17,16,15,16,16,16,16,16,16,15,16,17,15,16,
17,17,16,15,17,17,15,15,15,15,17,16,15,17,16,16,
15,16,16,16,15,15,15,15,17,17,16,15,15,15,15,16,
16,17,17,15,15,17,17,17,15,15,17,16,16,15,15,15,
16,17,17,16,16,17,16,15,16,15,15,15,15,15,17,15,
15,16,16,17,17,15,16,16,17,17,16,16,17,17,16,17,
16,17,17,15,15,16,16,15,15,15,16,16,15,15,15,15,
15,16,16,16,15,17,17,16,16,16,16,17,17,17,17,17,
17,15,16,17,16,16,15,16,15,16,15,16,16,16,16,17
</chunk>
   <chunk x="16" y="-208" width="16" height="16">
17,16,16,17,16,17,16,15,17,16,15,17,16,17,17,16,
16,16,16,16,17,17,15,15,15,17,17,16,16,17,17,17,
17,17,16,15,15,15,16,17,15,16,15,17,17,15,15,15,
16,15,16,16,16,15,17,16,17,16,16,17,16,16,15,17,
16,16,16,16,15,17,16,16,15,15,15,16,15,16,15,17,
15,17,17,15,16,16,16,15,17,16,15,16,16,15,16,17,
16,16,16,17,17,16,17,16,15,15,15,15,17,15,17,16,
17,15,16,17,17,17,15,17,16,16,16,17,16,15,17,17,
16,16,15,15,17,15,15,16,17,15,16,15,15,16,16,15,
16,15,17,16,16,17,15,15,15,15,16,16,15,16,15,16,
17,17,16,15,16,17,16,16,16,17,17,16,17,16,16,16,
17,16,17,17,16,17,17,16,16,16,17,17,15,17,15,15,
17,17,16,15,15,17,15,17,17,15,17,16,17,17,15,15,
17,17,15,17,17,15,16,15,15,16,15,16,17,16,16,15,
16,16,17,15,16,17,17,17,15,16,16,15,16,17,16,15,
17,17,17,16,16,17,17,15,16,16,15,17,15,16,17,17
</chunk>
   <chunk x="32" y="-208" width="16" height="16">
17,16,17,17,16,16,17,15,16,17,16,17,15,17,16,16,
16,17,15,16,16,17,15,17,15,15,15,15,15,16,15,17,
17,15,16,17,17,15,16,15,15,17,15,17,15,16,15,16,
16,15,16,16,15,17,15,17,16,17,15,16,16,17,15,16,
16,15,16,17,15,15,17,16,17,15,17,17,15,16,16,16,
15,16,16,15,15,15,15,17,16,16,15,16,16,17,16,16,
15,16,17,15,17,15,17,17,17,17,15,15,16,15,15,17,
16,15,17,17,16,15,15,15,17,16,16,16,17,15,17,15,
17,17,17,15,15,16,15,15,17,15,17,17,17,16,17,17,
15,17,16,16,16,16,17,16,16,16,15,15,15,17,15,17,
15,15,16,17,17,15,16,17,17,15,17,16,16,16,16,15,
15,15,17,17,15,15,17,16,15,15,16,15,16,15,15,17,
16,17,16,16,16,16,17,16,16,15,16,15,17,17,16,16,
16,15,15,16,17,17,17,17,16,16,17,15,15,15,17,15,
17,15,15,16,16,17,17,15,16,17,17,15,15,17,16,16,
17,17,15,15,17,16,15,15,16,17,16,15,17,17,15,15
</chunk>
   <chunk x="48" y="-208" width="16" height="16">
17,15,15,15,15,16,15,15,16,17,15,17,15,16,16,17,
15,16,15,17,16,15,15,15,15,15,17,17,16,17,17,16,
16,17,17,16,16,17,17,17,16,17,17,15,15,17,16,15,
15,15,16,16,15,16,15,16,16,16,15,17,17,17,16,16,
16,16,16,16,17,17,17,16,17,16,17,17,17,17,17,16,
15,16,17,17,15,17,16,16,15,16,16,17,15,15,15,16,
17,16,15,17,17,17,17,17,17,17,17,15,17,16,15,16,
17,15,15,17,17,15,15,17,15,17,15,15,17,17,16,17,
15,17,17,16,16,17,17,15,17,15,17,16,17,17,17,15,
15,15,16,15,16,16,16,17,17,17,15,17,15,16,15,15,
15,16,17,16,15,15,16,16,15,17,17,15,17,16,17,17,
17,15,16,17,16,15,17,16,17,15,17,15,17,15,15,17,
15,15,16,15,15,16,17,17,16,16,15,15,16,17,16,15,
17,17,16,17,16,15,17,15,15,15,16,15,15,17,15,17,
15,17,15,17,16,17,15,16,15,17,15,16,15,15,16,15,
16,17,17,15,17,16,15,16,16,15,17,17,17,17,15,15
</chunk>
   <chunk x="64" y="-208" width="16" height="16">
16,15,17,17,16,16,16,17,16,17,15,16,16,15,15,17,
17,15,15,17,15,17,16,15,16,17,17,15,15,17,17,17,
16,16,15,15,16,17,17,15,16,16,15,17,16,16,15,15,
17,16,16,17,15,15,16,17,15,17,16,17,15,16,15,16,
15,15,17,17,16,15,17,16,15,17,16,17,17,17,16,16,
16,16,16,16,17,17,16,16,17,16,15,15,15,15,16,17,
15,16,15,17,16,15,15,17,17,17,16,16,15,16,16,17,
16,15,16,15,17,16,15,15,16,17,15,16,17,16,16,16,
15,16,17,17,15,15,15,15,17,16,16,16,17,17,16,16,
16,17,17,17,16,15,15,16,15,17,16,15,15,15,17,15,
17,17,16,17,15,17,15,15,17,16,17,15,16,16,17,17,
17,16,16,17,15,17,17,16,17,17,15,15,15,16,17,17,
16,16,15,17,16,16,16,16,17,15,17,16,15,17,16,15,
16,16,17,16,16,16,15,16,16,17,16,16,15,17,16,17,
17,17,16,15,15,16,16,15,15,15,15,16,17,16,15,15,
15,16,17,15,16,16,17,15,17,16,15,16,16,17,16,17
</chunk>
   <chunk x="80" y="-208" width="16" height="16">
15,15,17,15,16,16,16,17,16,15,16,16,16,16,16,16,
15,16,15,16,16,17,17,16,16,15,15,15,16,17,17,17,
17,16,15,16,15,17,15,17,16,16,16,16,17,15,17,16,
15,15,15,16,17,15,15,17,17,15,15,17,16,15,17,17,
17,15,17,17,17,17,15,17,16,17,16,17,15,17,16,17,
16,16,17,17,17,17,15,15,17,16,17,17,15,16,15,15,
17,16,17,16,17,15,15,17,15,17,17,17,15,17,16,15,
16,17,17,17,15,17,15,15,17,15,17,15,17,16,16,16,
16,15,17,17,15,16,15,15,17,15,16,17,17,17,16,17,
16,15,16,17,17,15,17,16,15,17,17,17,15,17,16,15,
16,16,17,16,15,17,16,15,17,16,17,15,17,16,16,17,
17,17,17,16,17,16,16,15,17,17,17,16,15,16,15,17,
17,17,16,16,17,17,17,17,15,15,17,17,17,15,16,16,
16,16,16,17,15,17,16,17,16,16,15,16,17,16,17,16,
16,16,17,17,15,17,17,16,15,15,16,17,17,16,15,15,
15,16,17,16,17,16,16,15,17,16,16,15,15,17,16,16
</chunk>
   <chunk x="96" y="-208" width="16" height="16">
17,16,16,16,17,17,15,17,16,15,17,15,17,15,15,15,
17,15,16,15,16,15,15,16,15,15,17,15,15,17,17,15,
15,16,15,15,17,16,16,17,17,16,16,16,17,15,15,17,
17,16,16,15,16,15,17,15,16,15,16,17,16,15,16,17,
15,15,15,17,15,15,15,15,15,15,15,16,16,16,15,17,
16,17,16,16,17,16,16,15,15,17,15,17,16,16,16,15,
16,16,16,16,17,16,17,16,16,15,15,17,16,17,15,15,
17,15,17,17,16,15,16,16,17,16,17,15,16,16,17,17,
15,15,15,16,16,17,15,17,16,17,16,15,17,16,17,17,
17,16,15,15,16,16,16,16,15,17,15,15,17,16,15,16,
17,15,16,17,16,17,15,15,17,15,16,17,15,15,15,17,
16,15,16,15,16,16,17,15,17,16,15,15,16,16,17,16,
16,15,16,17,15,16,16,16,17,15,16,17,17,15,15,17,
16,17,17,16,16,15,15,17,15,17,16,15,15,17,16,16,
15,16,16,16,17,15,16,15,17,16,15,16,17,16,15,15,
17,15,16,17,15,17,16,15,16,16,16,16,17,15,16,17
</chunk>
   <chunk x="112" y="-208" width="16" height="16">
15,17,17,17,16,15,15,16,15,16,17,15,17,15,17,16,
15,17,16,17,16,17,17,16,16,16,17,15,15,17,15,16,
15,15,16,15,16,16,17,16,16,17,17,15,15,17,15,16,
15,15,17,17,17,16,15,15,15,15,16,17,15,15,16,17,
15,17,16,16,15,16,17,16,16,16,17,15,15,15,16,15,
16,15,16,15,17,15,15,15,15,15,16,16,15,16,15,17,
16,16,15,15,17,16,15,16,15,16,17,16,15,16,17,15,
16,17,15,17,15,15,17,15,17,15,17,17,15,17,17,16,
15,17,15,17,15,17,17,17,16,17,17,17,17,15,16,15,
16,17,16,17,16,17,17,16,16,15,15,15,16,17,15,17,
15,15,15,16,15,15,15,15,15,15,15,15,16,17,16,17,
17,17,17,16,15,15,17,15,15,17,16,15,17,17,17,15,
17,16,16,15,16,15,16,15,17,16,15,16,17,17,16,15,
16,17,16,16,17,15,15,16,16,15,15,15,17,16,15,15,
16,15,17,17,15,15,16,16,15,16,17,15,16,16,15,15,
16,17,15,16,17,16,16,16,16,15,15,15,16,16,16,15
</chunk>
   <chunk x="128" y="-208" width="16" height="16">
16,15,17,15,17,15,17,17,17,17,15,15,15,17,16,16,
16,17,16,17,16,17,16,16,15,17,17,17,17,17,15,15,
15,16,15,17,17,17,15,17,17,17,15,16,15,15,16,15,
16,15,16,17,16,16,15,17,16,17,16,16,17,15,16,16,
16,17,17,17,16,15,16,17,16,16,15,16,16,16,16,16,
16,16,15,17,17,15,17,16,16,17,15,16,16,15,17,17,
17,16,17,15,15,16,16,17,16,15,15,16,16,15,15,16,
17,15,16,17,15,17,17,15,17,15,15,15,17,16,16,15,
17,17,15,15,17,16,15,15,17,16,17,16,15,16,16,16,
15,16,17,17,17,15,16,16,15,17,15,15,15,17,16,16,
15,16,17,15,17,15,15,15,16,15,16,16,17,15,15,17,
17,17,15,17,16,15,16,17,15,16,16,16,15,17,17,15,
17,15,17,15,16,15,16,16,17,16,16,16,16,17,15,17,
16,17,15,15,16,15,15,15,15,16,17,16,16,17,15,16,
15,16,17,16,16,16,15,17,17,17,15,17,17,16,17,15,
16,16,16,17,17,15,17,16,16,16,17,17,16,15,17,16
</chunk>
   <chunk x="144" y="-208" width="16" height="16">
16,17,15,15,17,17,17,17,17,17,15,17,15,16,15,15,
15,15,16,17,15,16,16,16,16,17,17,16,17,17,16,16,
16,17,15,16,15,17,17,16,16,15,17,15,16,17,17,17,
17,17,15,17,15,15,15,16,15,16,16,16,0,0,0,0,
15,17,15,17,17,16,17,16,17,17,17,15,0,0,0,0,
16,15,15,15,17,17,17,16,15,16,15,17,861,861,861,861,
17,16,16,17,15,16,15,16,15,16,15,15,861,861,861,861,
15,15,15,15,17,16,15,17,15,15,0,0,861,861,861,861,
15,17,17,16,16,17,17,15,16,16,0,0,861,861,861,861,
16,17,16,17,17,15,15,16,17,16,0,0,0,861,0,0,
15,15,16,16,15,16,15,16,15,16,0,0,0,861,0,0,
17,16,17,15,15,17,17,15,17,16,0,0,0,861,861,861,
15,15,16,17,15,15,15,15,17,17,0,0,0,861,861,861,
16,17,17,17,17,17,17,16,16,15,0,0,0,861,861,861,
16,15,15,16,16,16,16,17,17,17,861,861,861,861,861,861,
17,16,17,17,16,15,17,15,15,16,861,861,861,861,861,861
</chunk>
   <chunk x="160" y="-208" width="16" height="16">
16,17,15,16,0,0,0,0,861,861,861,861,861,0,0,0,
17,17,17,15,0,0,0,0,861,861,861,861,861,0,0,0,
15,17,15,15,0,0,0,0,861,861,861,861,861,0,0,0,
0,0,0,0,0,0,0,0,861,861,861,861,861,0,0,0,
0,0,0,0,0,0,0,0,861,861,861,861,861,0,0,0,
861,861,861,861,861,861,861,861,861,861,861,861,861,0,0,0,
861,861,861,861,861,861,861,861,861,861,861,861,861,0,0,0,
861,861,861,861,861,861,861,861,861,861,861,861,861,0,0,0,
861,861,861,861,861,861,861,861,861,861,861,861,861,861,861,0,
0,861,861,861,861,861,861,861,861,861,861,861,861,861,861,0,
0,861,861,861,861,861,861,861,861,861,861,861,861,861,861,0,
861,861,861,861,861,861,861,861,861,861,861,861,861,861,861,0,
861,861,861,861,861,861,861,861,861,861,861,861,861,861,861,0,
861,861,861,861,861,861,861,861,861,861,861,861,861,861,861,0,
861,861,861,861,861,861,861,861,861,861,861,861,861,861,861,0,
861,861,861,861,861,861,861,861,861,861,861,861,861,861,861,0
</chunk>
   <chunk x="0" y="-192" width="16" height="16">
15,15,15,15,15,15,15,15,16,15,16,16,16,15,16,15,
15,15,15,15,15,15,15,15,16,15,16,16,16,17,17,17,
15,15,15,15,15,15,15,16,16,15,16,17,17,16,15,17,
15,15,15,15,15,15,15,16,16,16,17,17,15,16,15,15,
15,15,15,15,15,15,15,16,15,17,16,16,15,16,16,15,
15,15,15,15,15,15,15,16,17,16,15,16,15,15,15,15,
15,15,15,15,15,15,15,17,17,16,15,16,15,15,15,15,
15,15,15,15,15,15,15,17,17,15,16,15,15,15,15,15,
15,15,15,15,15,16,16,15,15,17,15,15,15,15,15,15,
15,15,15,15,15,15,15,15,15,16,15,15,15,15,15,15,
15,15,15,15,15,15,15,15,15,15,15,15,15,15,15,15,
15,15,15,15,15,15,15,15,15,15,15,15,15,15,15,15,
15,15,15,15,15,15,15,15,15,15,15,15,15,15,15,15,
15,15,15,15,15,15,15,16,17,16,15,15,15,15,15,15,
15,15,15,15,15,15,15,17,17,16,15,15,15,15,15,15,
15,15,15,15,15,15,15,17,17,15,15,15,15,15,15,15
</chunk>
   <chunk x="16" y="-192" width="16" height="16">
17,16,16,16,16,16,16,16,17,15,15,17,16,16,16,16,
17,15,15,15,16,16,16,16,17,15,15,17,16,16,16,16,
17,17,15,15,16,15,16,16,17,17,15,17,16,15,16,16,
17,17,15,16,15,16,15,17,17,15,15,17,15,16,15,17,
16,17,16,16,16,17,17,17,15,15,15,16,16,17,17,17,
15,15,15,15,15,16,15,16,16,16,15,16,15,17,16,16,
15,15,15,15,16,15,16,16,16,15,16,15,17,16,16,16,
15,15,15,16,15,16,16,16,15,16,15,17,16,16,16,16,
15,15,16,15,16,16,16,15,16,15,17,16,16,16,16,16,
15,15,15,16,15,16,16,16,15,16,15,17,16,16,16,16,
15,15,15,16,15,16,16,16,17,17,17,17,15,15,15,16,
15,15,16,16,15,16,17,17,16,15,17,17,17,15,15,16,
15,15,16,16,16,17,17,15,16,15,15,17,17,15,16,15,
15,15,16,15,17,16,16,15,16,16,15,16,17,16,16,16,
15,15,16,17,16,15,16,15,15,16,16,16,16,17,17,17,
15,15,17,17,16,15,16,16,15,16,16,16,16,17,17,15
</chunk>
   <chunk x="32" y="-192" width="16" height="16">
17,15,15,17,16,15,15,15,15,15,15,15,15,16,15,16,
17,15,15,17,17,15,15,15,15,15,15,15,15,16,15,16,
17,17,15,17,17,15,15,15,15,15,15,15,16,16,15,16,
17,15,15,17,17,15,15,15,15,15,15,15,16,16,16,17,
15,15,15,16,17,15,15,15,15,15,15,15,16,15,17,16,
16,16,16,16,16,15,15,15,15,15,15,15,16,17,16,15,
16,16,16,16,17,15,15,15,15,15,15,15,17,17,16,15,
16,16,16,17,15,15,15,15,15,15,15,15,17,17,15,16,
16,16,17,15,15,15,15,15,15,15,16,16,15,15,17,15,
16,16,16,17,15,15,15,15,15,15,15,15,15,15,16,15,
16,16,16,17,15,15,15,15,15,15,15,15,15,15,15,15,
15,16,16,17,17,15,15,15,15,15,15,15,15,15,15,15,
16,15,17,17,15,15,15,15,15,15,15,15,15,15,15,15,
17,17,17,15,15,15,15,15,15,15,15,15,16,17,16,15,
17,17,17,15,16,15,15,15,15,15,15,15,17,17,16,15,
16,17,17,16,16,15,15,15,15,15,15,15,17,17,15,15
</chunk>
   <chunk x="48" y="-192" width="16" height="16">
16,16,15,16,15,17,16,16,16,16,16,16,16,17,15,15,
16,16,17,17,17,17,15,15,15,16,16,16,16,17,15,15,
17,17,16,15,17,17,17,15,15,16,15,16,16,17,17,15,
17,15,16,15,15,17,17,15,16,15,16,15,17,17,15,15,
16,15,16,16,15,16,17,16,16,16,17,17,17,15,15,15,
16,15,15,15,15,15,15,15,15,15,16,15,16,16,16,15,
16,15,15,15,15,15,15,15,15,16,15,16,16,16,15,16,
15,15,15,15,15,15,15,15,16,15,16,16,16,15,16,15,
15,15,15,15,15,15,15,16,15,16,16,16,15,16,15,17,
15,15,15,15,15,15,15,15,16,15,16,16,16,15,16,15,
15,15,15,15,15,15,15,15,16,15,16,16,16,17,17,17,
15,15,15,15,15,15,15,16,16,15,16,17,17,16,15,17,
15,15,15,15,15,15,15,16,16,16,17,17,15,16,15,15,
15,15,15,15,15,15,15,16,15,17,16,16,15,16,16,15,
15,15,15,15,15,15,15,16,17,16,15,16,15,15,16,16,
15,15,15,15,15,15,15,17,17,16,15,16,16,15,16,16
</chunk>
   <chunk x="64" y="-192" width="16" height="16">
17,16,16,16,16,17,15,15,17,16,16,15,16,16,15,16,
17,16,16,16,16,17,15,15,17,17,16,15,16,15,15,16,
17,16,15,16,16,17,17,15,17,17,16,15,16,17,15,16,
17,15,16,15,17,17,15,15,17,17,16,15,15,16,15,15,
16,16,17,17,17,15,15,15,16,17,15,16,15,15,17,15,
16,15,17,16,16,16,16,16,16,16,17,16,15,17,15,15,
15,17,16,16,16,16,16,16,16,17,15,17,15,16,17,16,
17,16,16,16,16,16,16,16,17,15,16,16,15,16,16,16,
16,16,16,16,16,16,16,17,15,15,15,15,16,15,16,16,
17,16,16,16,16,16,16,16,17,15,17,15,15,16,15,15,
17,15,15,15,16,16,16,16,17,15,15,16,16,17,16,15,
17,17,15,15,16,15,16,16,17,17,15,15,15,17,17,17,
17,17,15,16,15,16,15,17,17,15,15,15,16,15,15,16,
16,17,16,16,16,17,17,17,15,15,15,17,15,16,16,15,
16,16,17,17,17,17,17,17,15,16,17,15,15,15,15,15,
16,16,17,17,15,16,17,17,16,16,15,15,15,15,15,15
</chunk>
   <chunk x="80" y="-192" width="16" height="16">
15,15,15,17,16,16,16,16,15,15,15,17,17,15,17,15,
15,16,15,15,15,16,15,15,17,17,15,15,15,15,15,15,
15,15,16,17,15,16,16,16,17,15,16,16,15,15,17,15,
16,15,15,15,15,17,15,15,16,16,17,15,15,16,16,15,
15,16,15,15,16,16,17,16,15,15,17,15,15,17,15,16,
17,15,16,15,15,16,16,16,15,15,15,17,16,15,17,16,
15,16,16,15,15,17,16,15,16,16,15,15,15,15,15,15,
17,15,16,15,15,17,15,16,17,16,15,15,17,15,15,15,
16,16,16,16,16,16,15,17,17,15,17,15,16,15,16,16,
16,15,17,15,15,15,15,15,16,16,15,15,15,16,17,17,
15,16,15,17,16,17,17,15,16,16,15,16,15,16,15,16,
16,16,15,15,16,16,15,15,16,16,15,16,15,17,15,16,
15,15,15,16,16,15,15,17,16,15,15,17,15,15,15,15,
15,15,16,15,15,15,15,16,16,15,15,16,17,15,15,16,
15,16,16,15,15,16,16,15,17,16,15,16,17,15,17,15,
15,15,17,15,15,17,16,16,15,16,15,15,16,15,15,15
</chunk>
   <chunk x="96" y="-192" width="16" height="16">
15,17,17,16,16,17,15,16,16,16,15,16,16,17,15,15,
15,15,16,16,16,15,17,15,15,15,15,15,15,15,16,16,
16,16,15,17,17,17,17,15,16,16,15,16,15,15,15,16,
15,15,16,17,16,17,15,15,17,15,17,17,15,16,17,17,
15,15,17,15,16,16,17,15,15,16,16,15,17,15,15,15,
16,15,15,17,16,16,17,15,16,16,17,17,16,16,15,16,
17,15,15,15,15,16,16,16,15,15,15,15,15,16,15,15,
16,17,16,15,16,17,17,15,15,15,16,15,17,15,15,16,
16,16,16,15,15,17,15,16,16,16,16,15,15,15,16,15,
15,17,16,15,15,15,16,15,15,15,15,15,16,16,17,15,
16,15,15,16,16,17,16,15,16,15,15,15,16,16,15,16,
15,16,16,15,15,15,15,17,17,15,17,15,17,16,15,15,
15,15,15,15,16,15,16,16,16,15,15,15,16,15,15,17,
17,15,16,15,16,15,16,15,15,16,15,15,16,16,15,15,
15,16,15,15,16,15,15,15,17,17,15,15,16,15,15,15,
16,17,15,15,17,16,16,16,15,15,15,17,16,16,15,15
</chunk>
   <chunk x="112" y="-192" width="16" height="16">
16,15,16,17,15,16,15,17,17,16,15,16,15,17,15,17,
17,15,15,15,17,15,17,17,16,15,15,15,17,16,17,16,
16,17,16,16,17,15,17,16,15,15,16,15,16,15,16,15,
17,16,15,16,16,16,17,15,15,16,15,15,17,15,16,17,
16,15,17,16,16,15,15,15,16,17,15,15,16,15,15,16,
15,15,16,16,15,16,16,15,15,15,15,15,15,15,15,16,
16,15,17,15,16,15,15,16,16,15,15,15,15,17,17,16,
15,16,15,15,15,15,15,15,17,15,16,15,15,16,15,15,
15,15,15,16,15,16,16,15,15,17,17,16,17,17,16,16,
15,15,15,15,16,15,17,15,16,15,15,16,15,15,15,15,
15,15,15,15,15,17,15,16,17,15,16,16,16,15,17,15,
16,16,17,15,15,15,16,15,15,16,15,15,17,17,16,16,
15,15,15,15,16,15,15,15,16,16,15,16,16,17,15,15,
16,15,15,15,15,17,15,15,17,16,15,15,16,16,16,15,
17,15,15,16,15,16,17,15,15,15,15,15,17,16,15,15,
15,15,15,16,16,15,17,15,16,15,16,16,15,15,15,15
</chunk>
   <chunk x="128" y="-192" width="16" height="16">
15,17,16,15,15,16,16,15,15,16,15,15,16,15,15,16,
15,16,15,15,16,15,17,15,15,15,15,16,16,15,15,15,
17,15,15,15,15,17,15,15,17,16,16,15,15,17,17,15,
17,15,16,15,15,15,16,15,15,15,15,15,15,15,15,15,
15,16,15,15,15,15,17,15,16,16,17,17,15,17,16,15,
15,17,15,16,15,15,15,15,16,15,16,16,16,17,17,15,
16,15,15,16,15,16,15,15,15,17,17,16,15,15,16,16,
15,16,17,16,16,16,16,15,16,17,17,17,15,15,17,16,
16,15,15,15,17,15,17,16,16,16,17,17,15,15,16,16,
15,16,15,16,17,16,16,16,16,15,17,15,16,17,15,15,
15,15,16,17,15,16,15,17,16,15,16,17,15,17,16,16,
15,15,16,15,16,15,15,15,15,15,15,17,15,15,17,15,
15,15,17,15,16,15,15,15,17,17,15,16,15,16,16,15,
16,17,16,15,15,16,16,15,15,15,15,15,15,15,15,15,
15,15,15,15,16,15,16,15,15,16,15,15,16,15,15,15,
15,15,16,15,17,16,15,16,16,15,17,15,16,17,16,15
</chunk>
   <chunk x="144" y="-192" width="16" height="16">
15,15,15,16,15,15,15,16,16,15,15,15,16,861,861,861,
17,16,15,15,17,16,15,15,16,15,16,15,16,0,861,861,
16,15,17,15,17,15,16,15,15,15,16,15,15,0,861,861,
15,17,17,16,16,17,16,15,15,16,15,17,15,0,861,861,
15,16,16,15,16,15,17,17,15,15,15,16,15,0,861,861,
16,16,16,15,15,16,15,17,15,16,15,16,17,0,861,861,
15,17,16,15,15,15,16,17,15,16,17,17,15,0,861,861,
15,15,16,17,15,16,16,16,17,16,16,15,17,0,861,861,
15,15,15,15,16,16,15,15,15,16,15,15,15,0,861,861,
15,17,15,15,16,15,16,16,15,16,16,16,15,0,861,861,
15,16,17,16,15,15,15,15,16,16,16,16,16,0,861,861,
16,16,15,17,17,17,16,15,15,17,15,16,16,0,861,861,
15,15,17,16,15,15,15,15,17,17,17,16,16,0,861,861,
15,16,16,16,15,15,16,15,15,15,17,16,16,0,861,861,
15,16,16,17,17,17,15,15,16,15,17,15,16,0,861,861,
16,16,17,15,16,15,16,15,17,15,15,15,15,0,861,861
</chunk>
   <chunk x="160" y="-192" width="16" height="16">
861,861,861,861,861,861,861,861,861,861,861,861,861,861,861,0,
861,861,861,861,861,861,861,861,861,861,861,861,861,861,861,0,
861,861,861,861,861,861,861,861,861,861,861,861,861,861,861,0,
861,861,861,861,861,861,861,861,861,861,861,861,861,861,861,0,
861,861,861,861,861,861,861,861,861,861,861,861,861,861,861,0,
861,861,861,861,861,861,861,861,861,861,861,861,861,861,861,0,
861,861,861,861,861,861,861,861,861,861,861,861,861,861,861,0,
861,861,861,861,861,861,861,861,861,861,861,861,861,861,861,0,
861,861,861,861,861,861,861,861,861,861,861,861,861,861,861,0,
861,861,861,861,861,861,861,861,861,861,861,861,861,861,861,0,
861,861,861,861,861,861,861,861,861,861,861,861,861,861,861,0,
861,861,861,861,861,861,861,861,861,861,861,861,861,861,861,0,
861,861,861,861,861,861,861,861,861,861,861,861,861,861,861,0,
861,861,861,861,861,861,861,861,861,861,861,861,861,861,861,0,
861,861,861,861,861,861,861,861,861,861,861,861,861,861,861,0,
861,861,861,861,861,861,861,861,861,861,861,861,861,861,861,0
</chunk>
   <chunk x="0" y="-176" width="16" height="16">
15,15,15,15,15,16,16,15,15,17,15,15,15,15,15,15,
15,15,15,15,15,15,15,15,15,15,15,15,15,15,15,15,
15,15,15,15,15,15,15,15,15,15,15,15,15,15,15,15,
15,15,15,15,15,15,15,15,16,15,16,16,16,17,17,17,
15,15,15,15,15,15,15,16,16,15,16,17,17,16,15,17,
15,15,15,15,15,15,15,16,16,16,17,17,15,16,15,15,
15,15,15,15,15,15,15,16,15,17,16,16,15,16,16,15,
15,15,15,15,15,15,15,16,17,16,15,16,15,15,15,15,
15,15,15,15,15,15,15,17,17,16,15,16,15,15,15,15,
15,15,15,15,15,15,15,17,17,15,16,15,15,15,15,15,
15,15,15,15,15,16,16,15,15,17,15,15,15,15,15,15,
15,15,15,15,15,15,15,15,15,16,15,15,15,15,15,15,
15,15,15,15,15,15,15,15,15,15,15,15,15,15,15,15,
15,15,15,15,15,15,15,15,15,15,15,15,15,15,15,15,
15,15,15,15,15,15,15,15,15,15,15,15,15,15,15,15,
15,15,15,15,15,15,15,16,17,16,15,15,15,15,15,15
</chunk>
   <chunk x="16" y="-176" width="16" height="16">
15,15,17,17,15,16,16,16,16,16,16,16,17,17,17,15,
16,16,15,15,17,17,17,17,16,16,15,15,15,16,17,17,
15,15,15,15,16,16,15,16,17,17,17,17,17,17,15,17,
17,15,15,15,16,16,16,16,17,15,15,17,16,16,16,16,
17,17,15,15,16,15,16,16,17,17,15,17,16,15,16,16,
17,17,15,16,15,16,15,17,17,15,15,17,15,16,15,17,
16,17,16,16,16,17,17,17,15,15,15,16,16,17,17,17,
15,15,15,15,15,16,15,16,16,16,15,16,15,17,16,16,
15,15,15,15,16,15,16,16,16,15,16,15,17,16,16,16,
15,15,15,16,15,16,16,16,15,16,15,17,16,16,16,16,
15,15,16,15,16,16,16,15,16,15,17,16,16,16,16,16,
15,15,15,16,15,16,16,16,15,16,15,17,16,16,16,16,
15,15,15,16,15,16,16,16,17,17,17,17,15,15,15,16,
15,15,16,16,15,16,17,17,16,15,17,17,17,15,15,16,
15,15,16,16,16,17,17,15,16,15,15,17,17,15,16,15,
15,15,16,15,17,16,16,15,16,16,15,16,17,16,16,16
</chunk>
   <chunk x="32" y="-176" width="16" height="16">
15,17,15,17,17,15,15,15,15,15,16,16,15,15,17,15,
17,15,15,15,17,15,15,15,15,15,15,15,15,15,15,15,
17,15,15,15,15,15,15,15,15,15,15,15,15,15,15,15,
17,15,15,17,17,15,15,17,15,17,15,17,17,15,15,15,
17,17,15,17,17,15,15,16,15,16,15,17,16,15,15,15,
17,15,15,17,17,15,15,16,16,16,15,17,16,15,17,15,
15,15,15,16,17,15,16,15,15,17,15,15,16,15,16,17,
16,16,16,16,16,15,16,17,15,16,15,16,16,16,16,15,
16,16,16,16,17,15,15,15,15,15,15,16,15,15,16,17,
16,16,16,17,15,16,16,15,15,16,15,15,15,16,17,17,
16,16,17,15,15,16,15,15,15,15,16,16,15,15,16,17,
16,16,16,17,15,15,16,17,15,15,15,15,15,16,15,17,
16,16,16,17,15,17,15,15,16,15,16,15,15,17,16,15,
15,16,16,17,17,16,15,16,16,15,15,16,17,15,16,16,
16,15,17,17,15,15,15,16,15,16,17,17,15,17,17,17,
17,17,17,15,15,15,15,15,15,15,15,16,17,15,15,17
</chunk>
   <chunk x="48" y="-176" width="16" height="16">
15,15,15,15,15,15,15,17,17,15,16,16,16,16,16,16,
15,15,15,15,15,16,16,15,15,17,17,17,17,16,16,15,
15,15,15,15,15,15,15,15,15,16,16,15,16,17,17,17,
15,17,16,16,17,17,17,15,15,17,15,17,16,15,15,15,
15,16,16,15,15,15,17,17,15,15,16,15,15,16,16,15,
15,15,16,16,15,17,17,16,16,17,16,15,15,17,15,16,
15,15,16,16,16,15,15,16,15,16,15,15,15,15,15,15,
17,16,15,16,15,15,16,15,17,17,17,15,16,15,15,17,
17,15,16,15,15,16,15,15,15,15,16,17,16,15,15,16,
17,15,15,15,15,15,16,15,17,15,16,15,17,17,15,15,
16,15,16,15,17,16,15,16,15,16,15,15,16,16,15,15,
15,15,15,15,15,15,15,15,15,15,16,17,16,15,16,17,
15,16,15,15,15,17,15,15,15,15,16,17,15,17,17,16,
15,16,15,16,16,15,17,15,15,17,15,15,16,15,16,15,
16,17,16,15,15,17,17,15,15,15,15,17,15,15,17,16,
15,16,15,17,17,16,16,17,16,15,16,16,15,15,17,16
</chunk>
   <chunk x="64" y="-176" width="16" height="16">
16,17,17,17,15,15,17,15,17,17,15,15,15,15,16,17,
15,15,16,17,17,17,15,15,15,17,16,16,15,15,15,15,
17,17,17,15,17,17,15,15,15,15,15,17,15,16,16,15,
17,16,16,17,15,15,15,16,17,15,15,15,15,17,15,17,
15,16,15,15,15,15,15,15,15,15,17,16,15,15,15,15,
16,15,17,16,17,17,15,16,15,15,15,15,15,15,15,16,
15,15,17,15,15,15,15,17,17,16,17,17,17,17,15,16,
15,16,16,15,15,17,16,16,17,15,15,15,15,17,15,16,
17,15,15,16,16,15,16,15,15,15,15,17,16,15,17,15,
15,16,17,16,17,17,15,16,15,15,15,16,15,16,15,16,
15,16,17,15,15,15,16,15,15,15,15,15,16,16,15,15,
16,16,15,17,16,15,15,15,17,16,16,15,16,16,15,16,
15,16,15,15,16,15,17,17,16,17,15,15,15,15,15,15,
15,15,16,16,15,15,17,15,16,15,15,17,15,15,16,17,
15,16,16,17,16,17,15,17,16,15,17,17,16,17,15,16,
15,15,15,15,15,15,17,15,16,15,15,17,15,15,17,15
</chunk>
   <chunk x="80" y="-176" width="16" height="16">
15,16,15,15,17,15,15,16,15,15,15,17,15,17,15,15,
15,15,15,16,17,16,17,15,15,16,17,16,16,15,15,15,
15,16,16,17,15,17,17,16,15,16,16,15,15,16,15,15,
17,15,17,16,16,16,16,15,17,15,15,16,15,16,15,15,
16,15,15,16,16,16,15,17,16,15,15,15,16,15,15,16,
16,16,17,15,16,16,17,15,15,16,15,15,16,17,16,16,
15,15,15,15,15,15,16,15,16,16,17,15,17,15,16,15,
15,15,16,15,15,17,17,15,17,15,15,17,15,15,17,15,
15,17,16,15,15,15,17,15,17,15,15,15,17,17,16,17,
15,15,16,15,15,17,17,15,15,17,15,15,15,15,16,16,
15,15,15,16,15,16,15,15,15,15,16,15,16,15,15,15,
16,15,15,17,15,17,17,15,15,15,15,15,15,16,15,15,
17,15,15,15,15,17,15,15,15,15,15,15,16,16,15,15,
17,15,17,15,16,15,15,15,15,15,16,15,15,15,15,15,
15,15,16,15,15,16,15,15,15,16,16,15,15,17,17,15,
15,15,15,15,15,15,15,15,15,15,17,15,15,17,15,16
</chunk>
   <chunk x="96" y="-176" width="16" height="16">
15,15,17,17,17,16,15,17,17,15,17,16,16,15,16,15,
15,15,15,15,16,15,15,15,16,16,15,15,15,17,15,15,
15,16,16,15,17,16,15,15,16,15,15,15,16,15,15,15,
16,15,15,16,16,17,15,17,15,15,15,15,16,15,15,15,
17,17,15,15,15,15,17,15,16,17,15,15,15,15,16,15,
15,16,16,16,16,15,15,17,15,15,16,16,17,15,16,17,
15,15,17,15,15,15,15,16,15,17,15,15,16,16,16,15,
15,15,16,15,16,15,15,15,15,15,15,15,17,16,15,15,
16,15,16,15,15,16,15,15,16,16,15,16,15,16,16,17,
15,15,15,15,15,17,15,16,16,16,16,15,15,16,16,15,
15,16,15,15,16,17,16,16,16,17,15,15,16,16,16,17,
15,15,15,15,15,17,16,15,15,16,16,17,15,15,15,16,
16,15,15,16,17,16,15,15,16,16,17,15,16,15,17,15,
15,15,15,15,16,15,17,16,15,16,16,17,15,16,17,17,
15,17,15,15,15,16,15,15,16,15,17,15,16,16,16,16,
15,16,16,15,15,16,15,16,17,15,15,16,15,17,15,15
</chunk>
   <chunk x="112" y="-176" width="16" height="16">
15,15,15,17,15,16,17,15,15,17,15,16,16,15,15,15,
17,15,15,17,15,15,17,15,15,15,15,15,15,16,16,15,
16,15,17,15,16,15,15,16,15,15,15,15,16,15,17,15,
15,16,17,15,16,15,15,15,17,17,15,17,15,16,17,15,
15,15,15,15,16,16,15,17,15,17,16,16,17,16,15,16,
15,15,17,16,15,16,15,15,16,17,17,16,17,15,15,15,
15,15,15,15,15,15,15,15,15,17,16,15,17,16,15,15,
16,15,15,15,15,15,15,15,16,16,17,15,16,17,15,17,
15,17,15,16,16,15,15,15,17,15,15,16,17,17,15,15,
15,15,16,17,15,15,17,15,15,15,15,15,15,15,15,16,
15,16,15,17,16,16,16,16,15,17,15,16,16,15,15,15,
17,16,16,15,17,15,15,15,16,16,17,16,15,17,15,17,
15,15,15,15,16,15,17,15,15,16,16,15,15,15,17,15,
16,15,17,16,15,16,17,16,17,17,15,17,17,15,15,15,
15,15,15,16,17,17,15,15,16,16,15,16,15,16,15,15,
17,15,15,15,17,17,16,15,15,16,17,15,15,15,15,17
</chunk>
   <chunk x="128" y="-176" width="16" height="16">
15,15,16,15,16,16,15,15,15,16,15,15,16,15,16,16,
15,15,15,15,16,15,15,16,15,16,16,16,15,17,17,16,
15,17,15,16,17,16,15,15,15,17,15,16,15,17,17,16,
15,15,16,16,15,15,15,15,15,15,17,15,15,15,15,15,
16,15,16,16,15,15,16,15,16,15,15,16,17,16,17,15,
15,15,16,16,15,16,15,15,15,15,15,17,15,17,15,15,
15,16,15,16,15,16,15,15,17,16,15,16,15,15,15,15,
15,15,16,15,17,15,15,17,15,17,17,15,16,15,16,15,
16,16,15,16,16,17,15,16,16,16,15,16,16,17,15,15,
17,15,15,15,17,16,16,17,16,15,16,16,15,17,17,15,
16,15,15,16,17,15,15,15,17,16,15,17,16,15,15,16,
15,16,15,15,15,17,16,16,15,15,15,17,17,15,15,15,
15,15,15,17,15,16,15,15,15,15,16,15,16,16,17,16,
15,16,15,16,16,15,17,15,15,16,17,15,15,15,16,16,
16,15,15,15,15,15,16,15,15,15,15,15,15,17,15,15,
15,15,16,16,15,17,15,15,15,16,16,16,16,16,15,15
</chunk>
   <chunk x="144" y="-176" width="16" height="16">
15,15,16,15,17,15,15,17,15,15,15,15,17,15,861,861,
16,16,15,17,15,15,15,15,16,15,15,16,15,15,861,861,
16,16,15,15,16,15,16,16,17,17,15,17,16,15,861,861,
15,15,15,15,16,16,17,15,17,15,15,17,15,15,861,861,
15,15,16,16,15,15,15,15,15,16,17,15,16,0,0,0,
15,15,15,17,17,15,15,16,15,16,15,17,15,0,0,0,
15,16,15,15,15,16,15,15,15,17,17,15,17,0,0,0,
15,16,15,15,16,15,16,17,15,16,15,15,16,0,0,0,
15,16,17,15,15,17,16,15,15,15,15,15,15,0,0,0,
15,16,16,15,16,15,15,15,15,15,15,15,15,0,0,0,
16,15,15,15,17,15,15,16,16,15,15,15,17,0,0,0,
15,16,17,15,15,17,15,16,15,17,15,16,16,0,0,0,
15,16,15,0,0,0,0,0,0,0,0,0,0,0,0,0,
15,17,15,0,0,0,0,0,0,0,0,0,0,0,0,0,
15,16,15,0,0,0,0,0,0,0,0,0,0,0,0,0,
15,16,17,0,0,0,0,0,0,0,0,0,0,0,0,0
</chunk>
   <chunk x="160" y="-176" width="16" height="16">
861,861,861,861,861,861,861,861,861,861,861,861,861,861,861,0,
861,861,861,861,861,861,861,861,861,861,861,861,861,861,861,0,
861,861,861,861,861,861,861,861,861,861,861,861,861,861,861,0,
861,861,861,861,861,861,861,861,861,861,861,861,861,861,861,0,
0,0,860,0,0,0,0,0,0,0,0,0,0,0,0,0,
0,0,0,0,0,0,0,0,0,0,0,0,0,0,0,0,
0,0,0,0,0,0,0,0,0,0,0,0,0,0,0,0,
0,0,0,0,0,0,0,0,0,0,0,0,0,0,0,0,
0,0,0,0,0,0,0,0,0,0,0,0,0,0,0,0,
0,0,0,0,0,0,0,0,0,0,0,0,0,0,0,0,
0,0,0,0,0,0,0,0,0,0,0,0,0,0,0,0,
0,0,0,0,0,0,0,0,0,0,0,0,0,0,0,0,
0,0,0,0,0,0,0,0,0,0,0,0,0,0,0,0,
0,0,0,0,0,0,0,0,0,0,0,0,0,0,0,0,
0,0,0,0,0,0,0,0,0,0,0,0,0,0,0,0,
0,0,0,0,0,0,0,0,0,0,0,0,0,0,0,0
</chunk>
   <chunk x="0" y="-160" width="16" height="16">
15,15,15,15,15,15,15,17,17,16,15,15,15,15,15,15,
15,15,15,15,15,15,15,17,17,15,15,15,15,15,15,15,
15,15,15,15,15,16,16,15,15,17,15,15,15,15,15,15,
15,15,15,15,15,15,15,15,15,15,15,15,15,15,15,15,
15,15,15,15,15,15,15,15,15,15,15,15,15,15,15,15,
15,15,15,15,15,15,15,15,16,15,16,16,16,15,16,15,
15,15,15,15,15,15,15,15,16,15,16,16,16,17,17,17,
15,15,15,15,15,15,15,16,16,15,16,17,17,16,15,17,
15,15,15,15,15,15,15,16,16,16,17,17,15,16,15,15,
15,15,15,15,15,15,15,16,15,17,16,16,15,16,16,15,
15,15,15,15,15,15,15,16,17,16,15,16,15,15,15,15,
15,15,15,15,15,15,15,17,17,16,15,16,15,15,15,15,
15,15,15,15,15,15,15,17,17,15,16,15,15,15,15,15,
15,15,15,15,15,16,16,15,15,17,15,15,15,15,15,15,
15,15,15,15,15,15,15,15,15,16,15,15,15,15,15,15,
15,15,15,15,15,15,15,15,15,15,15,15,15,15,15,15
</chunk>
   <chunk x="16" y="-160" width="16" height="16">
15,15,16,17,16,15,16,15,15,16,16,16,16,17,17,17,
15,15,17,17,16,15,16,16,15,16,16,16,16,17,17,15,
15,15,17,17,15,16,16,16,16,16,16,16,17,17,17,15,
16,16,15,15,17,17,17,17,16,16,15,15,15,16,17,17,
15,15,15,15,16,16,15,16,17,17,17,17,17,17,15,17,
17,16,16,16,16,16,16,16,17,15,15,17,16,16,16,16,
17,15,15,15,16,16,16,16,17,15,15,17,16,16,16,16,
17,17,15,15,16,15,16,16,17,17,15,17,16,15,16,16,
17,17,15,16,15,16,15,17,17,15,15,17,15,16,15,17,
16,17,16,16,16,17,17,17,15,15,15,16,16,17,17,17,
15,15,15,15,15,16,15,16,16,16,15,16,15,17,16,16,
15,15,15,15,16,15,16,16,16,15,16,15,17,16,16,16,
15,15,15,16,15,16,16,16,15,16,15,17,16,16,16,16,
15,15,16,15,16,16,16,15,16,15,17,16,16,16,16,16,
15,15,15,16,15,16,16,16,15,16,15,17,16,16,16,16,
15,15,15,16,15,16,16,16,17,17,17,17,15,15,15,16
</chunk>
   <chunk x="32" y="-160" width="16" height="16">
17,17,17,15,16,15,15,17,15,15,15,15,15,15,17,17,
16,17,17,16,16,15,16,15,15,16,16,15,15,17,16,15,
15,17,15,17,17,15,15,16,17,15,15,15,17,16,15,15,
17,15,15,15,17,15,15,15,15,15,15,15,16,15,17,15,
17,15,15,15,15,15,17,16,15,15,16,15,15,16,16,15,
17,15,15,17,16,16,15,16,15,15,16,15,15,16,16,15,
17,15,15,17,17,15,15,15,15,15,15,15,15,15,15,16,
17,17,15,17,17,16,15,15,16,15,17,15,16,16,17,15,
17,15,15,17,17,15,15,17,17,15,17,15,15,16,15,15,
15,15,15,16,17,15,17,16,15,15,16,17,16,15,17,15,
16,16,16,16,16,17,15,15,15,15,17,16,16,16,15,17,
16,16,16,16,17,15,16,17,15,17,15,17,17,15,15,16,
16,16,16,17,15,16,15,15,15,16,15,15,16,15,15,17,
16,16,17,15,15,16,15,15,15,15,15,15,15,16,17,15,
16,16,16,17,15,16,15,15,16,15,15,15,16,17,15,15,
16,16,16,17,15,15,16,16,15,15,15,17,15,15,16,17
</chunk>
   <chunk x="48" y="-160" width="16" height="16">
16,15,17,15,17,15,16,15,15,15,15,17,17,16,15,15,
17,17,17,17,15,16,15,17,15,16,15,15,16,17,16,17,
17,16,16,16,15,15,15,17,17,15,15,16,16,15,15,17,
15,17,15,15,15,15,16,15,15,17,16,17,15,17,16,15,
16,15,16,15,16,15,16,17,16,16,17,15,17,15,15,15,
15,16,15,16,15,15,17,16,17,16,16,15,16,15,17,15,
16,16,17,17,15,15,15,15,16,17,17,16,15,17,17,15,
15,15,15,17,15,15,15,17,15,15,16,17,17,15,16,15,
15,16,16,16,16,15,16,17,16,15,15,15,16,15,15,15,
16,15,15,16,15,15,15,16,17,15,15,15,15,15,15,16,
17,16,15,17,15,15,15,15,15,15,16,16,16,15,16,15,
15,17,15,15,15,16,15,16,15,17,17,15,16,15,15,15,
16,16,15,16,16,15,15,15,16,16,16,15,16,15,16,15,
15,15,16,15,17,16,16,17,15,16,15,17,15,16,17,15,
16,15,16,17,15,16,15,15,16,15,16,16,15,17,15,15,
15,16,17,17,17,16,17,15,16,15,15,15,17,15,15,15
</chunk>
   <chunk x="64" y="-160" width="16" height="16">
15,15,16,17,15,16,16,16,15,17,15,15,17,15,17,15,
15,17,17,15,15,15,15,16,15,15,15,15,16,16,15,17,
15,16,16,15,15,16,15,17,15,15,16,15,16,15,16,17,
16,16,16,17,15,15,17,17,17,15,15,16,16,17,15,15,
16,16,17,15,15,15,16,15,15,15,15,16,15,16,15,15,
15,15,17,16,17,16,15,16,17,15,17,17,17,16,15,17,
15,17,15,16,15,17,16,15,15,15,15,15,15,15,15,16,
16,15,16,15,16,16,16,16,17,17,15,15,17,15,15,17,
15,15,17,15,16,15,16,17,15,15,15,16,16,16,15,15,
16,15,15,16,16,15,15,15,15,16,15,17,15,15,17,15,
16,17,15,15,17,15,16,15,16,16,17,15,16,15,16,16,
15,15,17,17,15,16,15,15,15,17,15,17,16,15,16,16,
17,15,17,17,15,16,17,15,16,16,16,17,17,15,15,15,
15,15,15,15,17,17,15,15,15,15,15,17,16,15,15,17,
15,17,16,15,16,15,15,16,15,16,15,15,17,15,15,15,
16,15,16,15,15,17,17,15,16,15,17,16,15,17,15,16
</chunk>
   <chunk x="80" y="-160" width="16" height="16">
16,16,15,16,15,15,15,15,15,17,15,15,17,15,16,15,
15,17,16,16,15,17,15,16,15,16,17,15,15,16,15,16,
15,15,16,16,15,16,17,15,15,15,15,15,15,15,15,16,
16,15,15,16,17,15,16,16,15,15,16,17,17,15,17,17,
17,15,17,16,15,15,17,15,16,17,15,15,15,17,16,17,
15,16,15,16,15,15,15,16,15,15,15,15,16,15,16,15,
15,15,17,15,15,15,15,15,15,16,15,15,16,15,17,16,
15,17,16,15,15,15,17,15,15,15,15,16,15,15,16,16,
15,17,16,17,15,15,16,15,16,15,16,17,15,16,17,16,
15,15,17,15,16,15,17,17,16,15,16,15,15,16,16,17,
16,15,17,15,16,17,17,15,16,15,15,15,15,17,15,15,
16,17,16,15,16,15,15,15,15,15,16,15,15,17,15,16,
15,17,15,16,15,15,15,17,15,15,15,15,17,17,15,15,
15,16,15,17,15,17,17,16,16,15,16,15,15,16,15,15,
15,15,15,17,15,16,16,15,16,15,15,15,16,15,16,15,
15,15,15,15,15,16,17,15,15,16,15,15,15,15,17,15
</chunk>
   <chunk x="96" y="-160" width="16" height="16">
15,17,15,15,16,15,15,15,17,15,16,15,15,17,17,15,
17,16,16,15,16,15,15,16,15,15,15,15,15,17,15,17,
16,15,15,16,15,15,15,16,17,16,15,15,16,16,16,17,
16,15,15,17,15,15,16,15,15,16,15,15,15,17,17,16,
15,15,15,15,16,17,17,16,15,15,16,15,15,17,15,15,
16,16,17,15,17,15,15,15,15,15,15,16,15,15,16,15,
16,15,16,16,17,15,15,16,16,15,15,15,16,16,15,15,
15,15,16,17,17,15,15,15,15,17,17,16,15,17,15,15,
15,16,17,16,16,15,17,15,17,15,17,15,17,15,16,17,
15,15,15,16,15,15,16,16,15,17,15,16,15,17,15,16,
15,16,16,16,17,15,16,16,16,17,15,17,16,15,15,17,
15,16,16,15,15,16,15,16,15,15,15,15,17,15,17,15,
16,15,15,15,15,16,15,15,17,15,16,16,16,16,15,15,
15,16,16,15,15,15,15,16,17,15,15,17,16,15,15,17,
15,15,15,16,16,16,15,16,16,17,16,15,17,17,15,15,
16,15,15,16,16,15,15,16,15,15,16,15,15,15,16,17
</chunk>
   <chunk x="112" y="-160" width="16" height="16">
15,16,15,15,15,15,16,16,15,15,17,17,17,15,16,17,
15,15,16,15,15,16,17,15,15,17,15,17,15,16,15,16,
17,16,15,15,17,16,15,15,15,15,15,17,17,15,17,15,
15,15,17,15,15,15,16,17,17,16,15,16,15,15,16,15,
16,16,15,17,15,16,17,15,16,15,16,15,16,15,15,17,
17,16,15,15,15,15,15,16,15,17,15,16,17,15,16,15,
17,15,16,15,15,16,17,17,15,15,15,17,16,16,15,16,
17,15,15,17,16,15,16,15,15,15,15,17,16,15,16,15,
15,17,16,16,16,16,16,15,15,15,15,16,16,15,17,15,
17,17,15,16,15,16,16,15,17,16,17,17,15,17,16,17,
15,15,17,15,16,16,15,17,15,17,17,17,15,17,17,15,
16,15,15,15,17,17,16,17,16,15,16,16,16,15,15,17,
15,15,15,16,17,15,15,15,16,15,16,15,15,15,15,16,
15,16,15,15,16,15,16,15,15,15,16,15,16,16,15,15,
15,17,17,17,15,15,17,15,15,17,16,15,17,16,15,17,
17,15,16,17,15,17,17,16,15,15,16,15,16,17,15,15
</chunk>
   <chunk x="128" y="-160" width="16" height="16">
16,16,15,17,17,15,16,15,16,15,15,15,16,17,15,17,
15,15,16,16,17,16,15,17,15,16,16,17,15,15,15,16,
16,15,15,15,15,16,15,17,15,16,16,15,15,16,16,15,
16,16,15,15,15,16,15,15,15,15,16,15,17,17,16,15,
16,16,17,15,15,15,17,17,15,15,15,15,15,15,15,15,
15,16,17,16,16,16,15,15,15,17,15,15,15,15,17,15,
15,15,15,17,16,15,15,15,17,17,17,15,15,15,15,15,
15,15,15,15,15,15,16,17,15,16,15,15,17,15,15,15,
15,17,15,17,16,15,15,16,16,16,17,15,15,15,16,16,
15,15,15,15,16,16,17,15,15,17,15,16,15,17,15,15,
15,15,15,15,16,16,15,15,16,15,15,17,15,17,15,15,
15,15,15,15,15,16,15,16,15,15,16,16,15,17,16,17,
15,16,16,16,15,16,16,15,17,15,15,16,15,17,15,15,
17,15,15,15,15,16,15,17,17,15,15,15,17,15,15,16,
17,16,15,15,15,16,15,16,15,15,15,15,15,16,15,15,
17,15,15,16,15,17,16,17,16,17,16,15,15,15,16,15
</chunk>
   <chunk x="144" y="-160" width="16" height="16">
15,15,15,0,0,0,0,0,0,0,0,0,0,0,0,0,
15,15,15,0,0,0,0,0,0,0,0,0,0,0,0,0,
15,15,17,0,0,0,0,0,0,0,0,0,0,0,0,0,
15,17,16,0,0,0,0,0,0,0,0,0,0,0,0,0,
15,15,17,0,0,0,0,0,0,0,0,0,0,0,0,0,
15,17,15,0,0,0,0,0,0,0,0,0,0,0,0,0,
16,17,15,0,0,0,0,0,0,0,0,0,0,0,0,0,
16,16,16,0,0,0,0,0,0,0,0,0,0,0,0,0,
15,15,16,0,0,0,0,0,0,0,0,0,0,0,0,0,
15,17,16,0,0,0,0,0,0,0,0,0,0,0,0,0,
16,17,15,0,0,0,0,0,0,0,0,0,0,0,0,0,
17,15,15,0,0,0,0,0,0,0,0,0,0,0,0,0,
16,15,15,0,0,0,0,0,0,0,0,0,0,0,0,0,
16,16,17,0,0,0,0,0,0,0,0,0,0,0,0,0,
15,16,15,0,0,0,0,0,0,0,0,0,0,0,0,0,
15,17,15,0,0,0,0,0,0,0,0,0,0,0,0,0
</chunk>
   <chunk x="0" y="-144" width="16" height="16">
15,15,15,15,15,15,15,15,15,15,15,15,15,15,15,15,
15,15,15,15,15,15,15,15,15,15,15,15,15,15,15,15,
15,15,15,15,15,15,15,16,17,16,15,15,15,15,15,15,
15,15,15,15,15,15,15,17,17,16,15,15,15,15,15,15,
15,15,15,15,15,15,15,17,17,15,15,15,15,15,15,15,
15,15,15,15,15,16,16,15,15,17,15,15,15,15,15,15,
15,15,15,15,15,15,15,15,15,15,15,15,15,15,15,15,
15,15,15,15,15,15,15,15,15,15,15,15,15,15,15,15,
15,15,15,15,15,15,15,15,16,15,16,16,16,15,16,15,
15,15,15,15,15,15,15,15,16,15,16,16,16,17,17,17,
15,15,15,15,15,15,15,16,16,15,16,17,17,16,15,17,
15,15,15,15,15,15,15,16,16,16,17,17,15,16,15,15,
15,15,15,15,15,15,15,16,15,17,16,16,15,16,16,15,
15,15,15,15,15,15,15,16,17,16,15,16,15,15,15,15,
15,15,15,15,15,15,15,17,17,16,15,16,15,15,15,15,
15,15,15,15,15,15,15,17,17,15,16,15,15,15,15,15
</chunk>
   <chunk x="16" y="-144" width="16" height="16">
15,15,16,16,15,16,17,17,16,15,17,17,17,15,15,16,
15,15,16,16,16,17,17,15,16,15,15,17,17,15,16,15,
15,15,16,15,17,16,16,15,16,16,15,16,17,16,16,16,
15,15,16,17,16,15,16,15,15,16,16,16,16,17,17,17,
15,15,17,17,16,15,16,16,15,16,16,16,16,17,17,15,
15,15,17,17,15,16,16,16,16,16,16,16,17,17,17,15,
16,16,15,15,17,17,17,17,16,16,15,15,15,16,17,17,
15,15,15,15,16,16,15,16,17,17,17,17,17,17,15,17,
17,16,16,16,16,16,16,16,17,15,15,17,16,16,16,16,
17,15,15,15,16,16,16,16,17,15,15,17,16,16,16,16,
17,17,15,15,16,15,16,16,17,17,15,17,16,15,16,16,
17,17,15,16,15,16,15,17,17,15,15,17,15,16,15,17,
16,17,16,16,16,17,17,17,15,15,15,16,16,17,17,17,
15,15,15,15,15,16,15,16,16,16,15,16,15,17,16,16,
15,15,15,15,16,15,16,16,16,15,16,15,17,16,16,16,
15,15,15,16,15,16,16,16,15,16,15,17,16,16,16,16
</chunk>
   <chunk x="32" y="-144" width="16" height="16">
15,16,16,17,17,15,17,17,15,17,15,15,15,16,17,17,
16,15,17,17,15,15,15,15,17,16,15,15,15,15,15,17,
17,17,17,15,15,15,17,16,15,15,17,15,16,15,15,15,
17,17,17,15,16,16,16,15,17,17,15,16,17,15,15,15,
16,17,17,16,16,15,15,15,17,17,15,15,15,16,16,16,
15,17,15,17,17,15,17,17,15,15,16,15,15,16,17,16,
17,15,15,15,17,16,15,15,16,15,16,16,16,15,15,15,
17,15,15,15,15,15,16,15,15,16,15,16,15,17,15,15,
17,15,15,17,16,15,15,17,15,15,15,15,17,15,17,17,
17,15,15,17,17,16,16,16,16,16,16,17,15,15,17,15,
17,17,15,17,17,15,15,16,16,16,16,17,15,15,17,15,
17,15,15,17,17,15,15,16,15,16,16,17,17,15,17,16,
15,15,15,16,17,15,16,15,16,15,17,17,15,15,17,16,
16,16,16,16,16,17,15,15,17,17,17,15,15,15,16,17,
16,16,16,16,17,15,15,17,17,17,17,15,16,15,16,17,
16,16,16,17,15,15,17,17,17,17,17,16,16,15,16,17
</chunk>
   <chunk x="48" y="-144" width="16" height="16">
15,15,16,15,16,16,16,15,16,15,16,17,15,16,17,16,
15,17,15,15,17,15,16,15,15,16,15,15,15,17,15,15,
15,16,16,15,15,15,17,15,16,16,16,16,15,16,17,15,
15,16,15,17,17,15,16,16,16,15,16,17,15,16,15,15,
15,16,15,15,15,15,15,15,16,17,16,15,15,15,15,16,
17,17,15,16,15,16,15,16,15,15,16,15,15,16,17,16,
17,17,15,15,15,15,16,16,17,17,15,16,15,15,15,16,
15,15,15,16,16,15,17,16,16,15,15,15,17,16,15,17,
16,15,15,15,15,15,15,15,15,16,15,16,16,15,15,16,
16,16,16,16,17,15,15,17,17,15,15,15,15,16,15,16,
16,15,16,16,17,17,15,17,17,15,15,15,16,16,15,16,
15,16,15,17,17,15,15,17,17,15,15,15,16,16,16,17,
16,17,17,17,15,15,15,16,16,15,15,15,16,15,17,16,
17,17,17,17,15,16,15,16,16,15,15,15,16,17,16,15,
15,16,17,17,16,16,15,16,16,15,15,15,17,17,16,15,
15,15,17,15,17,17,15,15,15,15,15,15,17,17,15,16
</chunk>
   <chunk x="64" y="-144" width="16" height="16">
17,15,16,15,15,15,15,16,15,16,17,15,17,15,16,16,
15,15,16,15,17,15,15,15,16,15,17,16,15,16,15,17,
15,15,16,15,16,15,16,17,15,15,16,16,16,17,16,16,
15,15,16,16,15,16,17,15,17,15,15,16,15,15,16,17,
16,16,16,16,15,16,16,15,15,15,16,16,16,15,16,17,
15,15,17,16,15,15,15,16,16,15,17,15,16,15,15,15,
15,15,15,16,15,15,15,16,15,17,15,15,17,15,16,16,
15,16,17,15,15,17,16,15,16,15,15,16,16,17,15,16,
16,15,15,16,15,17,17,17,16,15,16,15,15,15,17,16,
16,16,17,17,17,17,15,15,15,16,16,16,16,17,15,15,
17,17,16,15,17,17,17,15,15,16,15,16,16,17,17,15,
17,15,16,15,15,17,17,15,16,15,16,15,17,17,15,15,
16,15,16,16,15,16,17,16,16,16,17,17,17,15,15,15,
16,15,15,16,16,16,16,17,17,17,17,17,17,15,16,15,
16,16,15,16,16,16,16,17,17,15,16,17,17,16,16,15,
16,16,16,16,16,16,17,17,17,15,15,17,15,17,17,15
</chunk>
   <chunk x="80" y="-144" width="16" height="16">
16,16,16,17,16,17,17,15,17,15,15,16,15,15,16,15,
17,15,16,15,16,17,15,15,17,15,15,17,15,15,16,15,
15,15,15,17,15,16,15,16,15,15,15,16,16,15,15,15,
17,17,15,17,15,16,15,15,15,16,15,16,15,16,15,16,
16,15,15,16,15,16,16,17,15,15,15,16,17,16,15,15,
15,16,15,16,15,17,16,17,16,16,17,16,15,15,16,17,
15,15,15,16,15,15,17,17,16,16,17,15,16,15,15,17,
15,15,17,15,15,15,16,16,15,15,17,16,15,17,17,15,
16,15,15,15,16,15,15,16,15,16,17,16,15,15,16,15,
17,15,15,15,15,15,15,16,15,16,16,16,17,17,17,17,
17,15,15,15,15,15,16,16,15,16,17,17,16,15,17,17,
17,15,15,15,15,15,16,16,16,17,17,15,16,15,15,17,
16,15,15,15,15,15,16,15,17,16,16,15,16,16,15,16,
16,15,15,15,15,15,16,17,16,15,16,15,15,16,16,16,
16,15,15,15,15,15,17,17,16,15,16,16,15,16,16,16,
15,15,15,15,15,15,17,17,15,16,16,16,16,16,16,16
</chunk>
   <chunk x="96" y="-144" width="16" height="16">
15,17,16,16,15,17,15,17,16,15,15,15,15,15,16,16,
16,15,16,16,15,15,15,15,17,15,17,16,17,15,16,17,
15,16,15,16,17,17,16,15,16,17,16,16,15,17,17,16,
15,16,16,16,15,16,15,15,16,15,17,16,15,17,15,15,
16,16,15,15,15,16,15,15,16,15,15,15,15,15,17,15,
15,15,16,15,15,15,15,16,15,17,16,16,17,15,15,15,
16,15,15,16,16,17,17,16,17,15,15,16,15,16,16,15,
15,15,15,16,16,16,16,15,15,15,15,15,15,15,16,17,
16,15,15,15,16,17,16,17,15,15,16,17,17,15,15,17,
15,15,15,16,16,16,16,17,15,15,17,15,17,17,17,17,
17,15,15,16,15,16,16,17,17,15,17,15,17,15,17,17,
17,15,16,15,16,15,17,17,15,15,17,15,17,15,15,17,
17,16,16,16,17,17,17,15,15,15,16,15,17,16,15,16,
16,17,17,17,17,17,17,15,16,15,16,15,16,16,16,16,
16,17,17,15,16,17,17,16,16,15,16,15,16,16,16,16,
17,17,17,15,15,17,15,17,17,15,15,15,16,16,16,16
</chunk>
   <chunk x="112" y="-144" width="16" height="16">
15,15,16,16,16,16,15,15,16,17,16,15,15,15,15,16,
15,16,16,15,15,17,15,15,15,17,15,16,16,15,17,15,
16,15,15,15,15,16,17,15,16,17,15,16,16,15,15,15,
15,16,17,16,15,17,15,16,15,15,17,15,15,16,15,15,
15,15,16,15,15,16,16,15,16,16,15,15,16,16,15,15,
16,15,15,15,15,15,17,16,17,15,15,15,15,15,15,16,
17,17,16,15,16,15,16,15,15,16,17,17,15,16,15,15,
16,15,15,15,15,16,17,15,16,15,15,15,15,15,17,15,
15,15,15,15,15,17,16,17,15,15,15,16,15,16,15,17,
15,15,15,16,16,16,16,17,15,15,17,15,15,15,16,15,
17,15,15,16,15,16,16,17,17,15,17,15,15,16,16,15,
17,15,16,15,16,15,17,17,15,15,17,15,15,16,16,16,
17,16,16,16,17,17,17,15,15,15,16,15,15,16,15,17,
16,17,17,17,17,17,17,15,16,15,16,15,15,16,17,16,
16,17,17,15,16,17,17,16,16,15,16,15,15,17,17,16,
17,17,17,15,15,17,15,17,17,15,15,15,15,17,17,15
</chunk>
   <chunk x="128" y="-144" width="16" height="16">
16,15,15,15,15,16,16,17,15,16,16,17,15,15,15,17,
15,16,16,16,16,16,16,17,15,15,15,15,15,15,16,17,
16,15,17,16,15,16,15,16,15,16,15,17,17,17,16,15,
15,15,15,15,16,15,15,16,16,16,15,15,15,17,15,15,
15,15,16,15,15,15,16,15,15,15,16,17,15,17,16,16,
16,17,17,15,15,16,16,16,15,15,15,16,17,15,17,17,
15,16,15,16,17,15,16,15,17,16,16,15,16,15,15,15,
15,16,17,15,15,16,15,16,15,15,15,15,17,15,16,15,
16,16,15,17,17,16,15,15,17,16,17,15,17,17,16,15,
16,16,16,17,17,17,17,17,15,17,15,15,17,17,16,17,
16,17,17,16,15,17,17,15,15,17,15,17,15,17,16,16,
17,17,15,16,15,15,17,15,16,15,16,15,16,15,17,15,
16,16,15,16,16,15,16,16,17,16,17,15,17,17,15,15,
15,16,15,15,16,16,16,17,15,15,15,15,15,15,15,16,
15,16,16,15,16,16,16,15,15,16,15,17,15,16,16,15,
16,16,16,16,16,16,16,15,17,16,15,15,15,15,17,15
</chunk>
   <chunk x="144" y="-144" width="16" height="16">
15,15,16,0,0,0,0,0,0,0,0,0,0,0,0,0,
15,15,16,0,0,0,0,0,0,0,0,0,0,0,0,0,
17,16,15,0,0,0,0,0,0,0,0,0,0,0,0,0,
15,15,15,0,0,0,0,0,0,0,0,0,0,0,0,0,
16,16,15,0,0,0,0,0,0,0,0,0,0,0,0,0,
16,16,17,0,0,0,0,0,0,0,0,0,0,0,0,0,
15,17,15,0,0,0,0,0,0,0,0,0,0,0,0,0,
15,17,16,0,0,0,0,0,0,0,0,0,0,0,0,0,
17,15,15,0,0,0,0,0,0,0,0,0,0,0,0,0,
0,0,0,0,0,0,0,0,0,0,0,0,0,0,0,0,
0,0,0,0,0,0,0,0,0,0,0,0,0,0,0,0,
0,0,0,0,0,0,0,0,0,0,0,0,0,0,0,0,
0,0,0,0,0,0,0,0,0,0,0,0,0,0,0,0,
0,0,0,0,0,0,0,0,0,0,0,0,0,0,0,0,
0,0,0,0,0,0,0,0,0,0,0,0,0,0,0,0,
0,0,0,0,0,0,0,0,0,0,0,0,0,0,0,0
</chunk>
   <chunk x="0" y="-128" width="16" height="16">
15,15,15,15,15,16,16,15,15,17,15,15,15,15,15,15,
15,15,15,15,15,15,15,15,15,16,15,15,15,15,15,15,
15,15,15,15,15,15,15,15,15,15,15,15,15,15,15,15,
15,15,15,15,15,15,15,15,15,15,15,15,15,15,15,15,
15,15,15,15,15,15,15,15,15,15,15,15,15,15,15,15,
15,15,15,15,15,15,15,16,17,16,15,15,15,15,15,15,
15,15,15,15,15,15,15,17,17,16,15,15,15,15,15,15,
15,15,15,15,15,15,15,17,17,15,15,15,15,15,15,15,
15,15,15,15,15,16,16,15,15,17,15,15,15,15,15,15,
15,15,15,15,15,15,15,15,15,15,15,15,15,15,15,15,
15,15,15,15,15,15,15,15,15,15,15,15,15,15,15,15,
15,15,15,15,15,15,15,16,15,15,15,15,15,15,15,15,
15,15,15,15,15,15,15,16,15,15,15,15,15,15,15,16,
15,15,15,15,15,15,15,16,15,15,15,15,15,15,15,16,
15,15,15,15,15,15,15,17,15,15,15,15,15,15,15,16,
15,15,15,15,15,15,15,17,15,15,15,15,15,15,15,17
</chunk>
   <chunk x="16" y="-128" width="16" height="16">
15,15,16,15,16,16,16,15,16,15,17,16,16,16,16,16,
15,15,15,16,15,16,16,16,15,16,15,17,16,16,16,16,
15,15,15,16,15,16,16,16,17,17,17,17,15,15,15,16,
15,15,16,16,15,16,17,17,16,15,17,17,17,15,15,16,
15,15,16,16,16,17,17,15,16,15,15,17,17,15,16,15,
15,15,16,15,17,16,16,15,16,16,15,16,17,16,16,16,
15,15,16,17,16,15,16,15,15,16,16,16,16,17,17,17,
15,15,17,17,16,15,16,16,15,16,16,16,16,17,17,15,
15,15,17,17,15,16,16,16,16,16,16,16,17,17,17,15,
16,16,15,15,17,17,17,17,16,16,15,15,15,16,17,17,
15,15,15,15,16,16,15,16,17,17,17,17,17,17,15,17,
15,15,15,15,15,15,15,15,15,15,16,16,16,15,17,17,
16,16,17,17,15,16,15,15,15,15,15,15,15,15,15,15,
15,17,16,16,15,16,16,15,15,15,15,15,15,15,15,15,
17,16,15,16,15,15,16,16,16,15,15,15,15,15,15,15,
17,16,15,16,16,15,16,16,16,15,15,15,15,15,15,15
</chunk>
   <chunk x="32" y="-128" width="16" height="16">
16,16,17,15,15,17,17,17,17,16,16,16,17,15,15,17,
16,16,16,17,15,15,17,17,17,16,16,16,17,15,15,17,
16,16,16,17,15,15,17,16,16,15,16,16,17,17,15,17,
15,16,16,17,17,15,17,16,16,16,15,17,17,15,15,17,
16,15,17,17,15,15,17,16,16,17,17,17,15,15,15,16,
17,17,17,15,15,15,16,15,15,17,17,17,15,16,15,16,
17,17,17,15,16,15,16,17,17,16,17,17,16,16,15,16,
16,17,17,16,16,15,16,15,15,15,17,15,17,17,15,15,
15,17,15,17,17,15,15,15,15,17,15,15,15,17,15,17,
17,15,15,15,17,15,17,15,17,17,15,15,15,15,17,15,
17,15,15,15,15,17,15,17,17,17,17,17,17,17,17,15,
17,17,17,17,17,17,15,15,17,17,17,17,17,17,17,17,
15,15,15,15,15,16,16,16,15,17,17,17,17,17,17,17,
15,15,15,15,15,15,16,16,16,15,17,17,17,17,17,17,
15,15,15,15,15,15,15,15,16,16,16,15,17,17,17,17,
15,15,15,15,15,15,15,15,16,16,16,15,17,17,17,17
</chunk>
   <chunk x="48" y="-128" width="16" height="16">
17,17,15,15,15,17,15,17,17,15,16,16,15,15,17,17,
17,17,15,15,15,15,17,15,15,15,15,15,15,15,16,16,
17,17,17,17,17,17,17,15,15,15,15,15,15,15,15,15,
17,17,17,17,15,15,15,15,16,16,16,15,17,17,17,17,
17,17,17,17,17,15,15,15,15,15,15,15,16,15,16,16,
16,17,17,17,17,17,17,15,15,15,15,15,16,15,16,16,
16,16,17,17,17,17,17,17,17,17,15,15,16,15,16,16,
16,16,16,16,17,17,17,17,17,17,17,17,17,16,15,16,
15,16,16,16,16,17,17,17,17,17,17,17,17,16,15,16,
17,15,16,16,16,16,16,17,17,17,17,17,17,15,16,15,
15,17,15,15,16,16,16,16,16,16,17,17,17,15,15,16,
15,15,17,17,15,16,16,16,16,16,16,16,16,15,15,16,
17,15,15,15,17,15,15,16,16,16,16,16,16,15,15,16,
17,17,15,15,15,17,17,15,15,15,16,16,16,15,16,16,
17,17,17,17,15,15,15,17,17,17,15,15,15,15,16,16,
17,17,17,17,15,15,15,15,15,15,17,17,17,15,16,15
</chunk>
   <chunk x="64" y="-128" width="16" height="16">
17,17,16,16,15,15,15,16,17,17,17,15,15,15,17,15,
15,16,17,17,17,17,17,17,15,17,17,15,15,15,15,17,
15,15,15,15,16,16,16,15,17,17,17,17,17,17,17,17,
17,17,17,17,15,16,15,17,17,17,15,15,16,15,16,16,
16,15,16,15,17,16,16,16,16,16,16,16,17,15,15,17,
16,15,16,15,17,16,16,16,16,16,16,16,17,15,15,17,
16,15,16,15,17,16,16,16,16,16,16,15,15,15,15,15,
16,16,15,16,15,17,16,16,16,16,16,15,15,15,15,15,
16,16,15,16,15,17,16,16,16,16,16,15,15,15,15,15,
16,16,16,15,16,15,17,16,16,16,16,15,15,15,15,15,
15,16,16,16,15,16,15,17,16,16,16,15,15,15,15,15,
15,16,16,16,15,16,15,17,16,16,16,15,15,15,15,15,
15,16,16,16,17,17,17,17,15,15,15,15,15,15,15,15,
15,16,17,17,16,15,17,17,17,15,15,15,15,15,15,15,
16,17,17,15,16,15,15,17,17,15,16,15,15,15,15,15,
17,16,16,15,16,16,15,16,17,16,16,15,15,15,15,15
</chunk>
   <chunk x="80" y="-128" width="16" height="16">
17,15,15,15,16,16,15,15,17,17,17,17,16,16,15,15,
15,15,15,15,15,15,15,15,16,16,15,16,17,17,17,17,
15,15,15,15,15,15,15,15,15,15,15,15,15,15,16,16,
17,15,15,15,15,15,15,15,15,15,15,15,15,15,15,15,
17,15,15,17,15,15,17,17,15,16,15,16,15,17,17,15,
15,15,15,16,16,15,16,17,16,16,16,17,17,17,15,15,
15,15,15,16,15,16,16,16,15,16,15,17,16,16,16,16,
15,15,15,16,15,16,16,16,17,17,17,17,15,15,15,16,
15,15,16,16,15,16,17,17,16,15,17,17,17,15,15,16,
15,15,16,16,16,17,17,15,16,15,15,17,17,15,16,15,
15,15,16,15,17,16,16,15,16,16,15,16,17,16,16,16,
15,15,16,17,16,15,16,15,15,16,16,16,16,17,17,17,
15,15,17,17,16,15,16,16,15,16,16,16,16,17,17,15,
15,15,17,17,15,16,16,16,16,16,16,16,17,17,17,15,
16,16,15,15,17,17,17,17,16,16,15,15,15,16,17,17,
15,15,15,15,16,16,15,16,17,17,17,17,17,17,15,17
</chunk>
   <chunk x="96" y="-128" width="16" height="16">
15,16,17,17,17,15,15,15,17,15,17,15,15,16,15,15,
17,17,15,17,17,15,15,15,15,17,15,15,17,17,17,17,
16,15,17,17,17,17,17,17,17,17,15,17,15,15,16,16,
16,16,16,15,17,17,17,17,17,17,17,17,15,17,15,17,
15,17,17,17,15,16,15,16,15,17,17,15,15,17,15,15,
15,16,16,17,16,16,16,17,17,17,15,15,15,16,15,15,
16,16,16,17,15,15,17,15,15,16,15,16,16,16,15,15,
16,16,16,17,15,15,17,15,15,16,15,16,16,16,15,15,
15,16,16,17,17,15,17,15,16,16,15,16,17,17,15,15,
16,15,17,17,15,15,17,15,16,16,16,17,17,15,15,15,
17,17,17,15,15,15,16,15,16,15,17,16,16,15,15,15,
17,17,17,15,16,15,16,15,16,17,16,15,16,15,15,15,
16,17,17,16,16,15,16,15,17,17,16,15,16,16,15,15,
15,17,15,17,17,15,15,15,17,17,15,16,16,16,15,15,
17,15,15,15,17,15,17,16,15,15,17,17,17,17,15,15,
17,15,15,15,15,17,15,15,15,15,16,16,15,16,15,15
</chunk>
   <chunk x="112" y="-128" width="16" height="16">
15,16,17,17,17,15,15,15,17,15,17,16,16,15,15,17,
17,17,15,17,17,15,15,15,15,17,15,15,15,15,15,16,
16,15,17,17,17,17,17,17,17,17,15,15,15,15,15,15,
17,17,15,15,16,15,16,16,17,17,15,17,15,15,17,17,
17,17,15,16,15,16,15,17,17,15,15,17,16,15,16,17,
15,15,15,15,15,15,16,15,15,15,15,15,15,15,15,16,
15,15,15,15,15,15,16,15,15,15,15,15,15,15,15,16,
15,15,15,15,15,16,16,15,15,15,15,15,15,15,16,16,
15,15,15,15,15,16,16,15,15,15,15,15,15,15,16,16,
15,15,15,15,15,16,15,15,15,15,15,15,15,15,16,15,
15,15,15,15,15,16,17,15,15,15,15,15,15,15,16,17,
15,15,15,15,15,17,17,15,15,15,15,15,15,15,17,17,
15,15,15,15,15,17,17,15,15,15,15,15,15,15,17,17,
15,15,15,16,16,15,15,15,15,15,15,15,16,16,15,15,
15,15,15,15,15,15,15,15,15,15,15,15,15,15,15,15,
15,15,15,15,15,15,15,15,15,15,15,15,15,15,15,15
</chunk>
   <chunk x="128" y="-128" width="16" height="16">
17,17,17,16,16,15,15,17,17,15,15,17,17,17,15,16,
16,15,16,17,17,17,17,17,15,15,15,16,16,17,15,15,
15,15,15,15,15,16,16,16,15,15,17,15,15,17,16,15,
15,16,15,16,15,17,17,15,15,15,15,15,17,17,16,15,
16,16,16,17,17,17,15,15,15,16,0,0,0,0,0,0,
15,16,16,16,15,16,15,17,16,16,16,16,16,16,16,17,
15,16,16,16,17,17,17,17,15,15,15,16,16,16,16,17,
15,16,17,17,16,15,17,17,17,15,15,16,15,16,16,17,
16,17,17,15,16,15,15,17,17,15,16,15,16,15,17,17,
17,16,16,15,16,16,15,16,17,16,16,16,17,17,17,15,
16,15,16,15,15,16,16,16,16,17,17,17,17,17,17,15,
16,15,16,16,15,16,16,16,16,17,17,15,16,17,17,16,
15,16,16,16,16,16,16,16,17,17,17,15,15,17,15,17,
17,17,17,17,16,16,15,15,15,16,17,17,17,15,15,15,
16,16,15,16,17,17,17,17,17,17,15,17,17,15,15,15,
15,15,15,15,15,15,16,16,16,15,17,17,17,17,17,17
</chunk>
   <chunk x="144" y="-128" width="16" height="16">
0,0,0,0,0,0,0,0,0,0,0,0,0,0,0,0,
0,0,0,0,0,0,0,0,0,0,0,0,0,0,0,0,
0,0,0,0,0,0,0,0,0,0,0,0,0,0,0,0,
0,0,0,0,0,0,0,0,0,0,0,0,0,0,0,0,
0,0,0,0,0,0,0,0,0,0,0,0,0,0,0,0,
15,15,17,0,0,0,0,0,0,0,0,0,0,0,0,0,
15,15,17,0,0,0,0,0,0,0,0,0,0,0,0,0,
17,15,17,0,0,0,0,0,0,0,0,0,0,0,0,0,
15,15,17,0,0,0,0,0,0,0,0,0,0,0,0,0,
15,15,16,0,0,0,0,0,0,0,0,0,0,0,0,0,
16,15,16,0,0,0,0,0,0,0,0,0,0,0,0,0,
16,15,16,0,0,0,0,0,0,0,0,0,0,0,0,0,
17,15,15,0,0,0,0,0,0,0,0,0,0,0,0,0,
17,15,17,0,0,0,0,0,0,0,0,0,0,0,0,0,
15,17,15,0,0,0,0,0,0,0,0,0,0,0,0,0,
17,17,15,0,0,0,0,0,0,0,0,0,0,0,0,0
</chunk>
   <chunk x="0" y="-112" width="16" height="16">
15,15,15,15,15,16,16,15,15,15,15,15,15,15,15,17,
15,15,15,15,15,15,15,15,15,15,15,15,15,16,16,15,
15,15,15,15,15,15,15,15,15,15,15,15,15,15,15,15,
15,15,15,15,15,15,15,15,15,15,15,15,15,15,15,15,
15,15,15,15,15,15,15,15,15,16,15,16,16,16,17,17,
15,15,15,15,15,15,15,15,16,16,15,16,17,17,16,15,
15,15,15,15,15,15,15,15,16,16,16,17,17,15,16,15,
15,15,15,15,15,15,15,15,16,15,17,16,16,15,16,16,
15,15,15,15,15,15,15,15,16,17,16,15,16,15,15,16,
15,15,15,15,15,15,15,15,17,17,16,15,16,16,15,16,
15,15,15,15,15,15,15,15,17,17,15,16,16,16,16,16,
15,15,15,15,15,15,16,16,15,15,17,17,17,17,16,16,
15,15,15,15,15,15,15,15,15,15,16,16,15,16,17,17,
15,15,15,15,15,15,15,15,15,15,15,15,15,15,15,15,
15,15,15,15,15,15,15,15,15,15,15,15,15,15,15,16,
15,15,15,15,15,15,15,15,15,15,15,15,15,15,15,16
</chunk>
   <chunk x="16" y="-112" width="16" height="16">
17,15,16,16,16,16,16,16,16,17,17,17,15,15,15,15,
15,17,17,17,17,16,16,15,15,15,16,17,15,15,15,15,
15,16,16,15,16,17,17,17,17,17,17,15,17,17,15,15,
15,15,15,15,15,15,15,16,16,16,15,17,17,17,17,15,
17,17,15,15,15,15,15,15,15,15,16,17,16,15,16,15,
17,17,17,15,15,15,15,15,15,15,17,17,16,15,16,15,
15,17,17,15,15,15,15,15,15,15,17,17,15,16,16,15,
15,16,17,15,15,15,15,15,16,16,15,15,17,17,17,15,
16,16,16,15,15,15,15,15,15,15,15,15,16,16,15,15,
16,16,16,15,15,15,15,15,15,15,15,15,15,15,15,15,
16,16,17,17,17,15,15,17,15,17,17,15,15,15,15,15,
15,15,15,16,17,17,17,15,15,15,17,15,15,15,15,15,
17,17,17,17,15,17,17,15,15,15,15,15,15,15,15,15,
16,16,16,15,17,17,17,17,17,17,17,15,15,15,15,15,
16,16,15,17,17,17,17,17,17,17,17,15,15,15,15,15,
16,16,15,17,17,17,17,17,17,17,17,15,15,15,15,15
</chunk>
   <chunk x="32" y="-112" width="16" height="16">
15,15,15,15,15,15,15,16,15,16,16,16,15,16,15,17,
15,15,15,15,15,15,15,16,15,16,16,16,15,16,15,17,
15,15,15,15,15,15,15,15,15,15,16,15,16,16,16,15,
15,15,15,15,15,15,15,15,15,15,16,15,16,16,16,17,
15,15,15,15,15,15,15,15,15,16,16,15,16,17,17,16,
15,15,15,15,15,15,15,15,15,16,16,16,17,17,15,16,
15,15,15,15,15,15,15,15,15,16,15,17,16,16,15,16,
15,15,15,15,15,15,15,15,15,16,17,16,15,16,15,15,
15,15,15,15,15,15,15,15,15,17,17,16,15,16,16,15,
15,15,15,15,15,15,15,15,15,17,17,15,16,16,16,16,
15,15,15,15,15,15,15,16,16,15,15,17,17,17,17,16,
15,15,15,15,15,15,15,15,15,15,15,16,16,15,16,17,
15,15,15,15,15,15,15,15,15,15,15,15,15,15,15,15,
15,15,17,17,15,15,15,15,15,15,15,15,15,15,15,15,
16,16,15,15,17,15,15,15,15,15,15,15,15,15,15,15,
15,15,15,15,16,16,15,15,15,15,15,15,15,17,17,15
</chunk>
   <chunk x="48" y="-112" width="16" height="16">
16,16,16,16,16,16,16,17,15,15,17,15,15,15,16,17,
16,16,16,16,16,16,16,17,15,15,17,15,15,15,17,17,
16,15,17,16,16,16,16,16,16,16,17,15,15,17,15,15,
17,17,17,15,15,15,16,16,16,16,17,15,15,17,15,15,
15,17,17,17,15,15,16,15,16,16,17,17,15,17,15,15,
15,15,17,17,15,16,15,16,15,17,17,15,15,17,15,15,
16,15,16,17,16,16,16,17,17,17,15,15,15,16,15,15,
16,16,16,16,17,17,17,17,17,17,15,16,15,16,15,15,
16,16,16,16,17,17,15,16,17,17,16,16,15,16,15,15,
16,16,16,17,17,17,15,15,17,15,17,17,15,15,15,15,
16,15,15,15,16,17,17,17,15,15,15,17,15,17,15,15,
17,17,17,17,17,15,17,17,15,15,15,15,17,15,15,15,
15,16,16,16,15,17,17,17,17,17,17,17,17,15,15,15,
15,15,15,15,15,16,16,16,15,17,15,15,15,15,15,15,
15,15,15,15,16,16,16,15,17,17,17,17,17,17,17,17,
16,16,16,16,16,16,16,17,17,17,15,15,17,15,17,17
</chunk>
   <chunk x="64" y="-112" width="16" height="16">
16,15,16,15,15,16,16,16,16,17,17,15,15,15,15,15,
16,15,16,16,15,16,16,16,16,17,17,15,16,17,17,16,
15,15,15,15,16,15,16,16,16,15,16,15,17,16,16,16,
15,15,15,15,16,15,16,16,16,17,17,17,17,15,15,15,
15,15,15,16,16,15,16,17,17,16,15,17,17,17,15,15,
15,15,15,16,16,16,17,17,15,16,15,15,17,17,15,16,
15,15,15,16,15,17,16,16,15,16,16,15,16,17,16,16,
15,15,15,16,17,16,15,16,15,15,16,16,16,16,17,17,
15,15,15,17,17,16,15,16,16,15,16,16,16,16,17,17,
15,15,15,17,17,15,16,16,16,16,16,16,16,17,17,17,
15,16,16,15,15,17,17,17,17,16,16,15,15,15,16,17,
15,15,15,15,15,16,16,15,16,17,17,17,17,17,17,15,
15,15,15,15,15,15,15,15,15,15,15,16,16,16,15,17,
15,15,15,15,15,15,15,15,15,15,16,16,16,15,17,17,
15,16,16,16,16,15,16,16,16,16,17,17,15,15,15,15,
15,15,15,16,16,16,16,16,16,17,17,17,15,15,15,15
</chunk>
   <chunk x="80" y="-112" width="16" height="16">
15,15,15,15,15,15,15,15,15,15,16,16,16,15,17,17,
16,15,16,15,15,15,15,15,15,15,15,15,15,15,15,15,
16,16,16,16,17,15,15,17,16,15,15,15,15,15,15,15,
16,16,16,16,17,15,15,17,16,16,17,15,15,15,15,15,
16,15,16,16,17,17,15,17,17,17,17,15,15,15,15,15,
15,16,15,17,17,15,15,17,17,15,16,15,15,15,15,15,
16,17,17,17,15,15,15,16,17,15,15,15,15,15,15,15,
17,17,17,17,15,16,15,16,17,17,17,15,15,15,15,15,
15,16,17,17,16,16,15,16,15,17,17,15,15,15,15,15,
15,15,17,15,17,17,15,15,16,15,16,15,15,15,15,15,
17,17,15,15,15,17,15,17,16,17,17,15,15,15,15,15,
17,17,15,15,15,15,17,15,17,16,15,15,15,15,15,15,
17,17,17,17,17,17,17,15,15,16,15,15,15,15,15,15,
17,17,17,17,17,17,15,16,15,16,15,15,15,15,15,15,
15,15,15,16,17,16,15,16,15,15,15,15,15,15,15,15,
15,15,15,17,17,16,15,16,16,15,15,15,15,15,15,15
</chunk>
   <chunk x="96" y="-112" width="16" height="16">
17,17,17,17,17,17,15,15,15,15,15,15,15,15,15,15,
15,15,15,15,15,15,15,15,16,16,15,16,17,17,17,17,
15,15,15,15,15,15,15,15,15,15,15,15,15,15,16,16,
15,15,15,15,16,15,16,16,16,15,16,15,17,16,16,16,
15,15,15,15,16,15,16,16,16,17,17,17,17,15,15,15,
15,15,15,16,16,15,16,17,17,16,15,17,17,17,15,15,
15,15,15,16,16,16,17,17,15,16,15,15,17,17,15,16,
15,15,15,16,15,17,16,16,15,16,16,15,16,17,16,16,
15,15,15,16,17,16,15,16,15,15,16,16,16,16,17,17,
15,15,15,17,17,16,15,16,16,15,16,16,16,16,17,17,
15,15,15,17,17,15,16,16,16,16,16,16,16,17,17,17,
15,15,16,15,16,16,16,15,16,15,17,16,16,16,16,16,
15,15,16,15,16,16,16,17,17,17,17,15,15,15,16,16,
15,16,16,15,16,17,17,16,15,17,17,17,15,15,16,15,
15,16,16,16,17,17,15,16,15,15,17,17,15,16,15,16,
15,16,15,17,16,16,15,16,16,15,16,17,16,16,16,17
</chunk>
   <chunk x="112" y="-112" width="16" height="16">
16,16,16,15,17,17,17,17,17,17,17,17,15,864,0,0,
17,17,15,17,17,15,15,15,15,17,15,0,864,861,0,0,
16,15,17,17,17,17,17,17,17,17,15,0,861,861,0,0,
16,16,16,16,17,15,15,17,0,0,0,0,861,861,0,0,
16,16,16,16,17,15,15,17,0,0,0,0,861,861,0,0,
16,15,16,16,17,17,15,17,0,0,861,861,861,861,861,861,
15,16,15,17,17,15,15,17,0,0,861,861,861,861,861,861,
16,17,17,17,15,15,15,16,0,0,861,861,861,861,861,861,
17,17,17,17,15,16,15,16,0,0,861,861,861,861,861,861,
15,16,17,17,16,16,15,16,0,0,0,861,861,861,861,861,
15,15,17,15,17,17,15,15,0,0,0,0,0,0,0,0,
16,16,17,15,15,17,15,17,0,0,0,0,0,0,0,0,
16,16,17,15,15,17,17,15,0,0,0,0,0,0,0,0,
16,16,17,17,15,17,17,15,0,0,0,0,0,0,0,0,
15,17,17,15,15,17,0,0,0,0,0,0,0,0,0,0,
17,17,15,15,15,16,0,0,0,0,0,0,0,0,0,0
</chunk>
   <chunk x="128" y="-112" width="16" height="16">
0,0,0,0,0,0,0,0,0,0,864,864,864,0,0,0,
0,0,0,0,0,0,0,0,0,0,861,861,861,861,0,0,
0,0,0,0,0,0,0,0,0,0,861,861,861,861,0,0,
0,0,0,0,0,0,0,0,0,0,861,861,861,861,0,0,
0,0,0,0,0,0,0,0,0,861,861,861,861,861,0,0,
861,861,861,861,861,861,861,861,861,861,861,861,861,861,0,0,
861,861,861,861,861,861,861,861,861,861,861,861,861,861,0,0,
861,861,861,861,861,861,861,861,861,861,861,861,861,861,0,0,
861,861,861,861,861,861,861,861,861,861,861,861,861,861,0,0,
861,861,861,861,861,861,861,861,861,861,861,861,861,0,0,0,
0,0,0,0,0,0,0,0,0,0,0,0,0,0,0,0,
0,0,0,0,0,0,0,0,0,0,0,0,0,0,0,0,
0,0,0,0,0,0,0,0,0,0,0,0,0,0,0,0,
0,0,0,0,0,0,0,0,0,0,0,0,0,0,0,0,
0,0,0,0,0,0,0,0,0,0,0,0,0,0,0,0,
0,0,0,0,0,0,0,0,0,0,0,0,0,0,0,0
</chunk>
   <chunk x="0" y="-96" width="16" height="16">
15,15,15,15,15,15,15,15,15,15,15,15,15,15,15,15,
15,15,15,15,15,15,15,15,15,15,15,15,15,15,15,16,
15,15,15,15,15,15,15,15,15,15,15,15,15,15,15,16,
15,15,15,15,15,15,15,15,15,15,15,15,15,15,16,16,
15,15,15,15,15,15,15,15,15,15,15,15,15,15,16,16,
15,15,15,15,15,15,15,15,15,15,15,15,15,15,16,15,
15,15,15,15,15,15,15,15,15,15,15,15,15,15,16,17,
15,15,15,15,15,15,15,15,15,15,15,15,15,15,17,17,
15,15,15,15,15,15,15,15,15,15,15,15,15,15,17,17,
15,15,15,15,15,15,15,15,15,15,15,15,16,16,15,15,
15,15,15,15,15,15,15,15,15,15,15,15,15,15,15,15,
15,15,15,15,15,15,15,15,15,15,15,15,15,15,15,15,
15,15,15,15,15,15,15,15,16,15,16,16,16,15,16,15,
15,15,15,15,15,15,15,15,16,15,16,16,16,17,17,17,
15,15,15,15,15,15,15,16,16,15,16,17,17,16,15,17,
15,15,15,15,15,15,15,16,16,16,17,17,15,16,15,15
</chunk>
   <chunk x="16" y="-96" width="16" height="16">
15,15,15,15,15,15,15,15,15,15,15,15,15,15,15,15,
15,16,16,16,15,16,15,17,16,16,16,16,16,16,16,17,
15,16,16,16,17,17,17,17,15,15,15,16,16,16,16,17,
15,16,17,17,16,15,17,17,17,15,15,16,15,16,16,17,
16,17,17,15,16,15,15,17,17,15,16,15,16,15,17,17,
17,16,16,15,16,16,15,16,17,16,16,16,17,17,17,15,
16,15,16,15,15,16,16,16,16,17,17,17,17,17,17,15,
16,15,16,16,15,16,16,16,16,17,17,15,16,17,17,16,
15,16,16,16,16,16,16,16,17,17,17,15,15,17,15,17,
17,17,17,17,16,16,15,15,15,16,17,17,17,15,15,15,
16,16,15,16,17,17,17,17,17,17,15,17,17,15,15,15,
15,15,15,15,15,15,16,16,16,15,17,17,17,17,17,17,
17,16,16,16,16,16,16,16,17,15,15,17,17,16,16,16,
17,15,15,15,16,16,16,16,17,15,15,17,17,16,16,16,
17,17,15,15,16,15,16,16,17,17,15,17,17,16,15,16,
17,17,15,16,15,16,15,17,17,15,15,17,17,15,16,15
</chunk>
   <chunk x="32" y="-96" width="16" height="16">
15,15,15,15,15,15,15,15,15,15,15,16,16,15,15,17,
15,15,17,15,15,15,15,15,15,15,15,15,15,15,15,16,
15,15,17,15,15,15,15,15,15,15,15,15,15,15,15,15,
17,15,17,15,15,15,15,15,15,15,15,15,15,15,15,15,
15,15,17,15,15,15,15,15,15,15,15,15,15,15,15,15,
15,15,16,15,15,15,15,15,15,15,15,15,15,15,15,15,
16,15,16,15,15,15,15,15,15,15,15,15,15,15,15,15,
16,15,16,15,15,15,15,15,15,15,15,15,15,15,15,15,
17,15,15,15,15,15,15,15,15,15,15,15,15,15,15,15,
17,15,17,15,15,15,15,15,15,15,15,15,15,15,15,15,
15,17,15,15,16,15,17,16,16,16,16,16,16,16,17,15,
17,17,15,16,16,16,17,15,15,17,16,16,16,16,17,15,
16,17,15,15,17,16,17,15,15,17,16,15,16,16,17,17,
16,17,15,15,17,16,17,17,15,17,15,16,15,17,17,15,
16,17,17,15,17,17,17,15,15,17,16,17,17,17,15,15,
17,17,15,15,17,17,15,15,15,16,17,17,17,17,15,16
</chunk>
   <chunk x="48" y="-96" width="16" height="16">
17,17,17,16,16,15,15,15,16,17,17,17,15,15,15,17,
16,15,16,17,17,17,17,17,17,15,17,17,15,15,15,15,
15,15,15,15,15,16,16,16,15,17,17,17,17,17,17,17,
15,15,15,15,15,15,15,15,15,15,15,15,15,15,15,15,
15,15,15,15,15,15,15,15,15,15,15,15,15,15,15,15,
15,15,15,15,15,15,15,15,15,15,15,15,15,15,15,15,
15,15,15,15,15,15,15,15,15,15,15,15,15,15,15,15,
15,15,15,15,15,15,15,15,15,15,15,15,15,15,15,15,
15,15,15,15,15,15,15,15,15,15,15,15,15,15,15,15,
15,15,15,15,15,15,15,15,15,15,15,15,15,15,15,15,
15,17,17,15,15,15,15,15,15,15,15,15,15,15,15,15,
15,17,17,15,15,15,15,15,15,15,15,15,15,15,15,15,
15,17,17,16,15,16,15,17,16,16,16,16,16,16,16,17,
15,17,17,16,17,17,17,17,15,15,15,16,16,16,16,17,
15,16,16,17,16,15,17,17,17,15,15,16,15,16,16,17,
15,16,16,15,16,15,15,17,17,15,16,15,16,15,17,17
</chunk>
   <chunk x="64" y="-96" width="16" height="16">
15,17,17,17,17,16,16,15,15,15,16,17,15,15,15,15,
17,15,15,15,16,17,17,17,17,17,17,15,15,15,15,15,
17,15,15,15,15,15,15,16,16,16,15,17,15,15,15,15,
15,15,15,15,15,15,15,15,15,15,15,15,15,15,15,15,
15,15,15,15,15,15,15,15,15,15,15,15,15,15,15,15,
15,15,15,15,15,15,15,15,15,15,15,15,15,15,15,15,
15,15,15,15,15,15,15,15,15,15,15,15,15,15,15,15,
15,15,15,15,15,15,15,15,15,15,15,15,15,15,15,15,
15,15,15,15,15,15,15,15,15,15,15,15,15,15,15,15,
15,15,15,15,15,15,15,15,15,15,15,15,15,15,15,15,
15,15,15,15,15,15,15,15,15,15,15,15,15,15,15,15,
15,15,15,15,15,15,15,15,15,15,15,15,15,15,15,15,
15,15,17,15,15,15,15,15,15,15,15,15,15,15,15,15,
15,15,17,15,15,15,15,15,15,15,15,15,15,15,15,15,
17,15,17,15,15,15,15,15,15,15,15,15,15,15,15,15,
15,15,17,15,15,15,15,15,15,15,15,15,15,15,15,15
</chunk>
   <chunk x="80" y="-96" width="16" height="16">
15,15,15,17,17,15,16,16,16,16,15,15,15,15,15,15,
15,16,16,15,15,17,17,17,17,16,15,15,15,15,15,15,
15,15,15,15,15,16,16,15,16,17,15,15,15,15,15,15,
15,15,15,15,15,15,15,15,15,15,15,15,15,15,15,16,
15,15,15,15,15,16,16,17,17,17,15,15,15,15,15,15,
15,15,15,15,16,15,16,16,16,15,15,15,15,15,15,15,
15,15,15,15,16,15,16,16,16,17,17,17,17,15,15,15,
15,15,15,16,16,15,16,17,17,16,15,17,17,17,15,15,
15,15,15,16,16,16,17,17,15,16,15,15,17,17,15,15,
15,15,15,16,15,17,16,16,15,16,16,15,16,17,16,15,
15,15,15,16,17,16,15,16,15,15,16,16,16,16,17,15,
15,15,15,17,17,16,15,16,16,15,16,16,16,16,17,15,
15,15,15,17,17,15,16,16,16,16,16,16,16,17,17,15,
15,16,16,15,15,17,17,17,17,16,16,15,15,15,16,15,
15,15,15,15,15,16,16,15,16,17,17,17,17,17,17,15,
15,15,15,15,15,15,15,15,15,15,15,16,16,16,15,17
</chunk>
   <chunk x="96" y="-96" width="16" height="16">
15,16,17,16,15,16,15,15,16,16,16,16,17,17,17,17,
15,17,17,16,15,16,16,15,16,16,16,16,17,17,15,16,
15,17,17,15,16,16,16,16,16,16,16,17,17,17,15,15,
16,15,15,17,17,17,17,16,16,15,15,15,16,17,17,17,
15,15,15,15,15,15,15,16,15,16,16,16,15,16,15,17,
15,15,15,15,15,15,15,16,15,16,16,16,17,17,17,17,
15,15,15,15,15,15,16,16,15,16,17,17,16,15,17,17,
15,15,15,15,15,15,15,15,15,15,15,15,16,15,16,16,
15,15,15,15,15,15,15,15,15,15,15,15,16,15,16,16,
15,15,15,15,15,15,15,15,15,15,15,16,16,15,16,17,
15,15,15,15,15,15,15,15,15,15,15,16,16,16,17,17,
15,15,15,15,15,15,15,15,15,15,15,16,15,17,16,16,
15,15,15,15,15,15,15,15,15,15,15,16,17,16,15,16,
15,15,15,15,15,15,15,15,15,15,15,17,17,16,15,16,
15,15,15,15,15,15,15,15,15,15,15,17,17,15,16,16,
17,17,17,17,15,15,15,15,15,16,16,15,15,17,17,17
</chunk>
   <chunk x="112" y="-96" width="16" height="16">
17,17,15,16,15,16,0,0,0,0,0,0,0,0,0,0,
17,17,16,16,15,16,0,0,0,0,0,0,0,0,0,0,
17,15,17,17,15,15,0,0,0,0,0,0,0,0,0,0,
15,15,15,17,15,17,0,0,0,0,0,0,0,0,0,0,
16,16,16,16,16,16,16,17,15,15,17,0,0,0,0,0,
15,15,15,16,16,16,16,17,15,15,17,0,0,0,0,0,
17,15,15,16,15,16,16,17,17,15,17,0,0,0,0,0,
16,15,16,15,17,16,16,16,16,16,16,16,17,15,15,17,
16,17,17,17,17,15,15,15,16,16,16,16,17,15,15,17,
17,16,15,17,17,17,15,15,16,15,16,16,17,17,15,17,
15,16,15,15,17,17,15,16,15,16,15,17,17,15,15,17,
15,16,16,15,16,17,16,16,16,17,17,17,15,15,15,16,
15,15,16,16,16,16,17,17,17,17,17,17,15,16,15,16,
16,15,16,16,16,16,17,17,15,16,17,17,16,16,15,16,
16,16,16,16,16,17,17,17,15,15,17,15,17,17,15,15,
17,16,16,15,15,15,16,17,17,17,15,15,15,17,15,17
</chunk>
   <chunk x="0" y="-80" width="16" height="16">
15,15,15,15,15,15,15,16,15,17,16,16,15,16,16,15,
15,15,15,15,15,15,15,16,17,16,15,16,15,15,16,16,
15,15,15,15,15,15,15,17,17,16,15,16,16,15,16,16,
15,15,15,15,15,15,15,17,17,15,16,16,16,16,16,16,
15,15,15,15,15,16,16,15,15,17,17,17,17,16,16,15,
15,15,15,15,15,15,15,15,15,16,16,15,16,17,17,17,
15,15,15,15,15,15,15,15,15,15,15,15,15,15,15,16,
722,722,722,722,722,722,722,722,722,722,722,722,722,722,722,722,
722,722,722,722,722,722,722,722,722,722,722,722,722,722,722,722,
722,80,80,80,80,80,80,722,722,722,722,722,722,722,722,722,
722,80,718,719,720,721,722,722,722,722,722,722,722,722,722,722,
722,80,789,790,791,792,793,722,722,722,722,723,724,725,726,727,
722,80,80,80,80,80,80,722,722,722,722,794,795,796,797,798,
722,722,722,722,722,722,722,722,722,722,722,80,80,80,80,80,
722,722,722,722,722,722,722,722,722,722,722,722,722,722,722,722,
722,722,722,722,722,722,722,722,722,722,722,722,722,722,722,722
</chunk>
   <chunk x="16" y="-80" width="16" height="16">
16,17,16,16,16,17,17,17,15,15,15,16,16,16,17,17,
16,16,17,17,17,17,17,17,15,16,15,16,16,17,17,17,
16,16,17,17,15,16,17,17,16,16,15,16,16,15,16,17,
16,17,17,17,15,15,17,15,17,17,15,15,15,15,15,17,
15,15,16,17,17,17,15,15,15,17,15,17,17,17,17,15,
17,17,17,15,17,17,15,15,15,15,17,15,15,17,17,15,
16,16,15,17,17,17,17,17,17,17,17,15,15,17,17,17,
722,722,722,722,722,722,722,722,722,722,722,722,722,722,722,722,
722,722,722,722,722,722,722,722,722,722,722,722,722,722,722,722,
722,722,722,722,722,722,723,724,725,726,727,80,722,722,722,722,
722,722,722,722,722,722,794,795,796,797,798,80,722,722,722,722,
80,722,722,722,722,722,80,80,80,80,80,80,722,722,722,722,
80,722,722,722,722,722,722,722,722,722,722,722,722,722,722,722,
80,722,722,722,722,722,722,722,722,722,722,722,722,722,722,722,
722,722,722,722,722,722,722,722,722,722,722,722,722,722,722,722,
722,722,722,722,722,722,722,722,722,722,722,722,722,722,722,722
</chunk>
   <chunk x="32" y="-80" width="16" height="16">
17,15,15,15,16,17,15,16,15,16,15,16,17,17,16,16,
17,15,16,15,16,17,16,16,15,16,15,15,17,15,17,17,
17,16,16,15,16,15,17,17,15,15,17,17,15,15,15,17,
15,17,17,15,15,15,15,17,15,17,17,17,15,15,15,15,
15,15,17,15,17,15,15,15,17,15,17,17,17,17,17,17,
15,15,15,17,15,17,17,17,17,15,15,15,15,15,15,15,
17,17,17,17,15,15,15,15,15,15,15,15,15,15,15,15,
722,722,722,722,722,722,722,722,722,722,722,722,722,722,722,722,
722,722,722,722,722,722,722,722,722,722,722,722,722,722,722,722,
722,722,722,722,722,722,722,80,80,80,80,80,80,722,722,722,
722,722,722,722,722,722,722,80,718,719,720,721,722,722,722,722,
722,722,722,722,722,722,722,80,789,790,791,792,793,722,722,722,
80,723,724,725,726,727,80,80,80,80,80,80,80,80,80,80,
722,794,795,796,797,798,80,80,80,80,80,80,80,80,80,718,
722,80,80,80,80,80,80,80,80,80,80,80,80,80,80,789,
722,722,722,80,80,80,80,80,80,80,80,80,80,80,80,80
</chunk>
   <chunk x="48" y="-80" width="16" height="16">
15,16,16,15,16,16,15,16,17,16,16,16,17,17,17,15,
15,15,15,15,15,16,16,16,16,17,17,17,17,17,17,15,
15,17,17,16,15,16,16,16,16,17,17,15,16,17,17,16,
17,15,15,16,16,16,16,16,17,17,17,15,15,17,15,17,
17,15,15,17,16,16,15,15,15,16,17,17,17,15,15,15,
16,16,15,16,17,17,17,17,17,17,15,17,17,15,15,15,
15,15,15,15,15,15,16,16,16,15,17,17,17,17,17,17,
722,722,722,722,722,722,722,722,722,722,722,722,722,722,722,722,
722,722,722,722,722,722,722,722,722,722,722,722,722,722,722,722,
722,722,722,722,80,80,80,80,80,80,722,722,722,722,722,722,
722,722,722,722,80,718,719,720,721,722,722,722,722,722,722,722,
722,722,722,722,80,789,790,791,792,793,722,722,722,722,722,722,
80,80,80,80,80,80,80,80,80,80,80,80,723,724,725,726,
719,720,721,722,80,80,80,80,80,80,80,80,794,795,796,797,
790,791,792,793,80,80,80,80,80,80,80,80,80,80,80,80,
80,80,80,80,80,505,292,293,80,80,80,80,80,80,80,80
</chunk>
   <chunk x="64" y="-80" width="16" height="16">
15,15,16,15,15,15,15,15,15,15,15,722,0,0,0,0,
16,15,16,15,15,15,15,15,15,15,15,722,0,0,0,0,
16,15,16,15,15,15,15,15,15,15,15,722,0,0,0,0,
17,15,15,15,15,15,15,15,15,15,15,0,0,0,0,0,
17,15,17,0,0,0,0,0,0,0,0,0,0,0,0,0,
15,17,15,0,0,0,0,0,0,0,0,0,0,0,0,0,
17,17,15,0,0,0,0,0,0,0,0,0,0,0,0,0,
722,722,0,0,0,0,0,0,861,861,861,0,0,0,0,0,
722,722,0,0,0,0,0,0,861,861,861,861,0,0,0,0,
722,722,0,0,0,0,0,0,861,861,861,861,861,0,0,0,
722,722,0,0,0,0,0,0,861,861,861,861,861,861,861,861,
722,722,0,0,0,0,0,0,861,861,861,861,861,861,861,861,
727,80,0,0,0,0,0,0,861,861,861,861,861,861,861,861,
798,80,0,0,0,0,0,0,861,861,861,861,0,0,0,0,
80,80,0,0,0,0,0,0,861,861,861,861,0,0,0,0,
80,80,0,0,0,0,0,0,861,861,861,861,0,0,0,0
</chunk>
   <chunk x="80" y="-80" width="16" height="16">
0,0,0,0,0,0,0,861,861,861,861,0,0,0,0,0,
0,0,0,0,0,0,0,861,861,861,861,0,0,0,0,0,
0,0,0,0,0,0,0,861,861,861,861,0,0,0,0,0,
0,0,0,0,0,0,0,861,861,861,861,0,0,0,0,0,
0,0,0,0,0,0,0,861,861,861,861,0,0,0,0,0,
0,0,0,0,0,0,0,861,861,861,861,0,0,0,0,0,
0,0,0,0,0,0,0,861,861,861,861,0,0,0,0,0,
0,0,0,0,0,0,0,861,861,861,861,0,0,0,0,0,
0,0,0,0,0,0,0,861,861,861,861,0,0,0,0,0,
0,0,0,0,0,0,0,861,861,861,861,0,0,0,0,0,
861,861,861,861,0,0,0,861,861,861,861,0,0,0,0,0,
861,861,861,861,0,0,0,861,861,861,861,0,0,0,0,0,
861,861,861,861,0,0,0,861,861,861,861,0,0,0,0,0,
861,861,861,861,0,0,0,861,861,861,861,0,0,0,0,0,
861,861,861,861,0,0,0,861,861,861,861,0,0,0,0,0,
861,861,861,861,0,0,0,861,861,861,861,0,0,0,0,0
</chunk>
   <chunk x="96" y="-80" width="16" height="16">
0,0,0,0,15,15,15,15,15,15,15,15,15,16,16,15,
0,0,0,0,15,15,15,15,15,15,15,15,15,15,15,15,
0,0,0,0,0,0,0,0,0,0,0,0,0,0,0,0,
0,0,0,0,0,0,0,0,0,0,0,0,0,0,0,0,
0,0,0,0,0,0,0,0,0,0,0,0,0,0,0,0,
0,0,0,0,0,0,0,0,0,0,0,0,0,0,0,0,
0,0,0,0,0,0,0,0,0,0,0,0,0,0,0,0,
0,0,0,0,0,0,0,0,0,0,0,0,0,0,0,0,
0,0,0,0,0,0,0,0,0,0,0,0,0,0,0,0,
0,0,0,0,0,0,0,0,0,0,0,0,0,0,0,0,
0,0,0,0,0,0,0,0,0,0,0,0,0,0,0,0,
0,0,0,0,0,0,0,0,0,0,0,0,0,0,0,0,
0,0,0,0,0,0,0,0,0,0,0,0,0,0,0,0,
0,0,0,0,0,0,0,0,0,0,0,0,0,0,0,0,
0,0,0,0,0,0,0,0,0,0,0,0,0,0,0,0,
0,0,0,0,0,0,0,0,0,0,0,0,0,0,0,0
</chunk>
   <chunk x="112" y="-80" width="16" height="16">
16,17,17,17,17,17,17,15,17,17,15,15,15,15,17,15,
15,15,15,16,16,16,15,17,17,17,17,17,17,17,17,15,
0,0,0,0,0,0,0,0,0,0,0,0,0,0,0,0,
0,0,0,0,0,0,0,0,0,0,0,0,0,0,0,0,
0,0,0,0,0,0,0,0,0,0,0,0,0,0,0,0,
0,0,0,0,0,0,0,0,0,0,0,0,0,0,0,0,
0,0,0,0,0,0,0,0,0,0,0,0,0,0,0,0,
0,0,0,0,0,0,0,0,0,0,0,0,0,0,0,0,
0,0,0,0,0,0,0,0,0,0,0,0,0,0,0,0,
0,0,0,0,0,0,0,0,0,0,0,0,0,0,0,0,
0,0,0,0,0,0,0,0,0,0,0,0,0,0,0,0,
0,0,0,0,0,0,0,0,0,0,0,0,0,0,0,0,
0,0,0,0,0,0,0,0,0,0,0,0,0,0,0,0,
0,0,0,0,0,0,0,0,0,0,0,0,0,0,0,0,
0,0,0,0,0,0,0,0,0,0,0,0,0,0,0,0,
0,0,0,0,0,0,0,0,0,0,0,0,0,0,0,0
</chunk>
   <chunk x="0" y="-64" width="16" height="16">
722,722,722,722,722,722,722,722,722,722,722,722,722,722,722,722,
722,80,723,724,725,726,727,80,80,80,80,80,80,80,80,80,
722,80,794,795,796,797,798,80,80,80,80,80,80,80,80,80,
722,80,80,80,80,80,80,80,80,80,80,80,80,80,80,80,
722,80,80,80,80,80,80,80,80,80,80,80,80,80,80,80,
722,80,80,80,80,80,80,80,80,80,80,80,80,80,80,80,
722,80,80,80,80,80,80,80,80,505,292,293,80,80,80,80,
722,80,80,722,722,722,722,722,722,221,363,364,576,506,80,80,
722,80,80,80,80,80,80,80,80,222,434,435,647,577,648,80,
722,80,80,80,718,719,720,721,722,80,80,80,80,80,80,80,
722,80,80,80,789,790,791,792,793,80,80,80,80,80,80,80,
722,80,80,80,80,80,80,80,80,80,80,80,80,80,80,80,
722,80,80,80,80,80,80,80,80,80,80,80,80,80,80,80,
722,80,80,80,80,80,80,80,723,724,725,726,727,80,80,80,
722,80,80,80,80,80,80,80,794,795,796,797,798,80,80,80,
722,80,80,80,80,80,80,80,80,80,80,80,80,80,80,80
</chunk>
   <chunk x="16" y="-64" width="16" height="16">
722,722,722,722,722,722,722,722,722,722,722,722,722,722,722,722,
80,80,80,80,80,80,80,80,80,80,80,80,80,723,724,725,
718,719,720,721,722,80,80,80,80,80,80,80,80,794,795,796,
789,790,791,792,793,80,80,80,80,80,80,80,80,80,80,80,
80,80,80,80,80,80,505,292,293,80,80,80,80,80,80,80,
80,80,80,80,80,151,221,363,364,576,506,80,80,722,722,722,
80,80,80,80,80,150,222,434,435,647,577,648,80,723,724,725,
80,80,80,80,80,80,80,80,80,80,80,80,80,794,795,796,
80,80,80,80,80,80,80,80,80,80,80,80,80,80,80,80,
80,80,80,80,80,80,80,80,80,80,80,80,80,80,80,80,
723,724,725,726,727,80,80,80,80,80,80,80,80,80,80,80,
794,795,796,797,798,80,80,80,80,80,505,292,293,80,80,80,
80,80,80,80,80,80,80,80,80,151,221,363,364,576,506,80,
80,80,80,80,80,80,80,80,80,150,222,434,435,647,577,648,
80,80,80,80,80,80,80,80,80,80,80,80,80,80,80,80,
80,80,80,80,80,80,80,80,80,80,80,80,80,80,80,80
</chunk>
   <chunk x="32" y="-64" width="16" height="16">
722,722,722,80,80,80,80,80,80,80,80,80,80,80,80,80,
726,727,80,80,80,80,80,80,505,292,293,80,80,80,80,80,
797,798,80,80,80,80,80,151,221,363,364,576,506,80,80,80,
80,80,80,80,80,80,80,150,222,434,435,647,577,648,80,80,
80,80,80,80,80,80,80,80,80,80,80,80,80,80,80,80,
722,722,722,80,80,80,80,80,80,80,80,80,80,80,80,723,
726,727,80,80,80,80,80,80,80,80,80,80,80,80,80,794,
797,798,80,80,80,80,80,80,80,80,80,80,80,80,80,80,
80,80,80,80,80,80,80,723,724,725,726,727,80,80,80,80,
80,80,80,80,80,80,80,794,795,796,797,798,80,80,80,722,
80,80,80,80,80,80,80,80,80,80,80,80,80,80,80,80,
80,80,80,722,722,722,722,722,722,722,722,722,722,722,722,80,
80,80,80,722,722,722,722,722,722,722,722,722,722,722,722,80,
80,80,80,722,722,722,722,722,722,722,722,722,722,722,722,80,
80,80,80,722,722,722,722,722,722,722,722,722,722,722,722,722,
80,80,80,724,725,726,727,80,80,80,80,80,80,80,80,80
</chunk>
   <chunk x="48" y="-64" width="16" height="16">
80,80,80,80,151,221,363,364,576,506,80,80,80,80,80,80,
80,80,80,80,150,222,434,435,647,577,648,80,80,80,80,80,
80,80,80,80,80,80,80,80,80,80,80,80,80,80,80,80,
80,80,80,80,80,80,80,80,80,80,80,80,80,80,80,80,
80,80,80,80,80,80,80,80,80,80,80,80,80,80,80,80,
724,725,726,727,80,80,80,80,80,80,80,80,80,80,80,80,
795,796,797,798,80,80,80,80,80,505,292,293,80,80,80,80,
80,80,80,80,80,80,80,80,151,221,363,364,576,506,80,80,
80,80,80,80,80,80,80,80,150,222,434,435,647,577,648,80,
722,722,722,722,722,80,80,80,80,80,80,80,80,80,80,80,
80,80,80,80,80,80,80,80,80,80,80,80,80,80,80,80,
718,719,720,721,722,722,722,722,722,722,722,722,722,722,722,722,
789,790,791,792,793,722,722,722,722,722,722,722,722,722,722,722,
80,80,80,80,80,722,722,722,722,722,722,722,722,722,722,722,
722,722,722,722,722,722,722,722,722,722,722,722,722,722,722,722,
80,80,80,80,80,80,80,80,80,80,80,80,80,723,724,725
</chunk>
   <chunk x="64" y="-64" width="16" height="16">
80,80,0,0,0,0,0,0,861,861,861,861,0,0,0,0,
80,80,0,0,0,0,0,0,861,861,861,861,0,0,0,0,
80,80,0,0,0,0,0,0,861,861,861,861,0,0,0,0,
80,80,0,0,0,0,0,0,861,861,861,861,0,0,0,0,
80,80,0,0,0,0,0,0,861,861,861,861,0,0,0,0,
80,80,0,0,0,0,0,0,861,861,861,861,0,0,0,0,
80,80,0,0,0,0,0,0,861,861,861,861,0,0,0,0,
80,80,0,0,0,0,0,0,861,861,861,861,0,0,0,0,
80,80,0,0,0,0,0,0,861,861,861,861,0,0,0,0,
80,80,722,0,0,0,0,0,861,861,861,861,0,0,0,0,
80,80,722,0,0,0,0,0,861,861,861,861,0,0,0,0,
722,722,722,0,0,0,0,0,861,861,861,861,0,0,0,0,
722,722,722,0,0,0,0,0,861,861,861,861,0,0,0,0,
722,722,722,0,0,0,0,0,861,861,861,861,0,0,0,0,
722,722,722,0,0,0,0,0,861,861,861,861,0,0,0,0,
726,727,80,0,0,0,0,0,861,861,861,861,0,0,0,0
</chunk>
   <chunk x="80" y="-64" width="16" height="16">
861,861,861,861,0,0,0,861,861,861,861,0,0,0,0,0,
861,861,861,861,0,0,0,861,861,861,861,0,0,0,0,0,
861,861,861,861,0,0,0,861,861,861,861,0,0,0,0,0,
861,861,861,861,0,0,0,861,861,861,861,0,0,0,0,0,
861,861,861,861,0,0,0,861,861,861,861,0,0,0,0,0,
861,861,861,861,0,0,0,861,861,861,861,0,0,0,0,0,
861,861,861,861,0,0,0,861,861,861,861,0,0,0,0,0,
861,861,861,861,0,0,0,861,861,861,861,0,0,0,0,0,
861,861,861,861,0,0,0,861,861,861,861,0,0,0,0,0,
861,861,861,861,0,0,0,861,861,861,861,0,0,0,0,0,
861,861,861,861,0,0,0,861,861,861,861,0,0,0,0,0,
861,861,861,861,0,0,0,861,861,861,861,0,0,0,0,0,
861,861,861,861,0,0,0,861,861,861,861,0,0,0,0,0,
861,861,861,861,0,0,0,861,861,861,861,0,0,0,0,0,
861,861,861,861,0,0,0,861,861,861,861,0,0,0,0,0,
861,861,861,861,0,0,0,861,861,861,861,0,0,0,0,0
</chunk>
   <chunk x="0" y="-48" width="16" height="16">
722,722,722,722,722,722,722,722,722,722,722,722,722,722,722,722,
722,722,722,722,722,722,722,722,722,722,722,722,722,722,722,722,
80,723,724,725,726,727,80,80,80,80,80,80,80,80,80,80,
80,794,795,796,797,798,80,80,80,80,80,80,80,80,80,718,
80,80,80,80,80,80,80,80,80,80,80,80,80,80,80,789,
80,80,80,80,80,80,80,80,80,80,80,80,80,80,80,80,
80,80,80,80,80,80,80,80,80,80,80,80,80,80,80,80,
80,80,80,80,80,80,80,80,505,292,293,80,80,80,80,80,
80,80,80,80,80,80,80,151,221,363,364,576,506,80,80,80,
722,722,722,722,722,722,80,150,222,434,435,647,577,648,80,80,
80,80,80,80,80,80,80,80,80,80,80,80,80,80,80,80,
80,718,719,720,721,722,80,80,80,80,80,80,80,80,80,723,
80,789,790,791,792,793,80,80,80,80,80,80,80,80,80,794,
80,80,80,80,80,80,80,80,80,80,80,80,80,80,80,80,
80,80,80,80,80,80,80,723,724,725,726,727,80,80,80,80,
80,80,80,80,80,80,80,794,795,796,797,798,80,80,80,80
</chunk>
   <chunk x="16" y="-48" width="16" height="16">
722,722,722,722,722,722,722,722,722,722,722,722,722,722,722,722,
722,722,722,722,722,722,722,722,722,722,722,722,722,722,722,722,
80,80,80,80,80,80,80,80,80,80,80,80,723,724,725,726,
719,720,721,722,80,80,80,80,80,80,80,80,794,795,796,797,
790,791,792,793,80,80,80,80,80,80,80,80,80,80,80,80,
80,80,80,80,80,505,292,293,80,80,80,80,80,80,80,80,
80,80,80,80,151,221,363,364,576,506,80,80,80,80,80,80,
80,80,80,80,150,222,434,435,647,577,648,80,80,80,80,80,
80,80,80,80,80,80,80,80,80,80,80,80,80,80,80,80,
80,80,80,80,80,80,80,80,80,80,80,80,80,80,80,80,
80,80,80,80,80,80,80,80,80,80,80,80,80,80,80,80,
724,725,726,727,80,80,80,80,80,80,80,80,80,80,80,80,
795,796,797,798,80,80,80,80,80,505,292,293,80,80,80,80,
80,80,80,80,80,80,80,80,151,221,363,364,576,506,80,80,
80,80,80,80,80,80,80,80,150,222,434,435,647,577,648,80,
80,80,80,80,80,80,80,80,80,80,80,80,80,80,80,80
</chunk>
   <chunk x="32" y="-48" width="16" height="16">
722,80,794,795,796,797,798,80,80,80,80,80,80,80,80,80,
722,80,80,80,80,80,80,80,80,80,80,80,80,80,80,80,
727,80,80,80,80,80,80,80,80,80,80,80,80,80,80,80,
798,80,80,80,80,80,80,80,80,80,80,80,80,80,80,80,
80,80,80,80,80,80,80,80,80,505,292,293,80,80,80,80,
80,80,80,80,80,80,80,80,151,221,363,364,576,506,80,80,
80,80,80,80,80,80,80,80,150,222,434,435,647,577,648,80,
722,722,722,722,722,722,80,80,80,80,80,80,80,80,80,80,
80,80,80,80,80,80,80,80,80,80,80,80,80,80,80,80,
80,718,719,720,721,722,80,80,80,80,80,80,80,80,80,80,
80,789,790,791,792,793,80,80,80,80,80,80,80,80,80,80,
80,80,80,80,80,80,80,80,723,724,725,726,727,80,80,80,
80,80,80,80,80,80,80,80,794,795,796,797,798,80,80,80,
80,80,80,80,80,80,80,80,80,80,80,80,80,80,80,80,
80,80,80,80,80,80,80,80,80,80,80,80,80,80,80,80,
80,80,80,80,80,80,80,80,80,718,719,720,721,722,80,80
</chunk>
   <chunk x="48" y="-48" width="16" height="16">
718,719,720,721,722,80,80,80,80,80,80,80,80,794,795,796,
789,790,791,792,793,80,80,80,80,80,80,80,80,80,80,80,
80,80,80,80,80,80,505,292,293,80,80,80,80,80,80,80,
80,80,80,80,80,151,221,363,364,576,506,80,80,80,80,80,
80,80,80,80,80,150,222,434,435,647,577,648,80,80,80,80,
80,80,80,80,80,80,80,80,80,80,80,80,80,80,80,80,
80,80,80,80,80,80,80,80,80,80,80,80,80,80,80,80,
80,80,80,80,80,80,80,80,80,80,80,80,80,80,80,80,
723,724,725,726,727,80,80,80,80,80,80,80,80,80,80,80,
794,795,796,797,798,80,80,80,80,80,505,292,293,80,80,80,
80,80,80,80,80,80,80,80,80,151,221,363,364,576,506,80,
80,80,80,80,80,80,80,80,80,150,222,434,435,647,577,648,
80,80,80,80,80,80,80,80,80,80,80,80,80,80,80,80,
80,80,80,80,80,80,80,80,80,80,80,80,80,80,80,80,
80,80,80,80,80,80,80,80,80,722,722,722,722,722,722,722,
80,80,80,80,80,0,0,0,861,0,0,0,0,0,0,0
</chunk>
   <chunk x="64" y="-48" width="16" height="16">
797,798,80,722,0,0,0,0,861,861,861,861,0,0,0,0,
80,80,80,722,0,0,0,0,861,861,861,861,0,0,0,0,
80,80,80,722,722,722,722,722,861,861,861,861,0,0,0,0,
80,80,80,722,722,722,722,722,861,861,861,861,0,0,0,0,
80,80,80,722,722,722,722,722,861,861,861,861,0,0,0,0,
80,80,80,722,722,722,722,722,861,861,861,861,0,0,0,0,
80,80,80,722,722,722,722,722,861,861,861,861,0,0,0,0,
80,80,80,722,722,722,722,722,861,861,861,861,0,0,0,0,
80,80,80,722,722,722,722,722,722,861,861,861,0,0,0,0,
80,80,80,722,722,722,722,722,722,722,861,861,0,0,0,861,
80,80,80,722,722,722,722,722,722,722,861,861,0,861,861,861,
80,80,80,722,722,722,722,722,722,722,722,861,861,861,861,861,
80,80,80,722,722,722,722,722,722,722,722,861,861,861,861,861,
80,80,80,722,722,722,722,722,722,0,0,0,0,0,0,0,
722,722,722,722,722,722,722,722,0,0,0,0,0,0,0,0,
0,0,0,0,0,0,0,0,0,0,0,0,0,0,0,0
</chunk>
   <chunk x="80" y="-48" width="16" height="16">
861,861,861,861,0,0,0,861,861,861,861,0,0,0,0,0,
861,861,861,861,0,0,0,861,861,861,861,0,0,0,0,0,
861,861,861,861,0,0,0,861,861,861,861,0,0,0,0,0,
861,861,861,861,861,861,861,861,861,861,861,0,0,0,0,0,
861,861,861,861,861,861,861,861,861,861,861,0,0,0,0,0,
861,861,861,861,861,861,861,861,861,861,861,0,0,0,0,0,
861,861,861,861,861,861,861,861,861,861,861,0,0,0,0,0,
861,861,861,861,861,861,861,0,861,0,0,0,0,0,0,0,
861,861,861,861,0,0,0,0,861,0,0,0,0,0,0,0,
861,861,861,861,0,0,0,0,0,0,0,0,0,0,0,0,
861,861,861,861,0,0,0,0,0,0,0,0,0,0,0,0,
861,861,861,861,0,0,0,0,0,0,0,0,0,0,0,0,
861,861,861,861,0,0,0,0,0,0,0,0,0,0,0,0,
0,0,0,0,0,0,0,0,0,0,0,0,0,0,0,0,
0,0,0,0,0,0,0,0,0,0,0,0,0,0,0,0,
0,0,0,0,0,0,0,0,0,0,0,0,0,0,0,0
</chunk>
   <chunk x="0" y="-32" width="16" height="16">
80,80,80,80,80,80,80,80,80,80,80,80,80,80,80,80,
80,80,80,80,80,80,80,80,80,80,80,80,80,80,80,80,
80,80,80,80,80,80,80,80,80,80,80,80,80,80,80,80,
80,80,80,80,80,80,80,80,80,80,80,80,80,80,80,80,
80,80,723,724,725,726,727,80,80,80,80,80,80,723,724,725,
80,80,794,795,796,797,798,80,80,80,80,80,80,794,795,796,
80,80,80,80,80,80,80,80,80,80,80,80,80,80,80,80,
80,80,80,80,80,80,80,80,80,80,80,80,80,80,80,80,
80,80,80,80,80,80,80,80,80,80,80,80,80,80,80,80,
722,722,722,722,722,722,80,80,80,80,80,80,80,80,80,80,
80,80,80,80,80,80,80,80,80,80,80,505,292,293,80,80,
80,718,719,720,721,722,80,80,80,80,151,221,363,364,576,506,
80,789,790,791,792,793,80,80,80,80,150,222,434,435,647,577,
80,80,80,80,80,80,80,80,80,80,80,80,80,80,80,80,
80,80,80,80,80,80,80,80,80,80,80,80,80,80,80,80,
80,80,80,80,80,80,80,80,80,80,80,80,80,80,80,80
</chunk>
   <chunk x="16" y="-32" width="16" height="16">
80,80,80,80,80,80,80,80,80,722,722,722,722,722,722,80,
80,80,80,80,80,80,80,80,80,80,80,80,80,80,80,80,
80,80,80,80,80,80,80,80,80,80,718,719,720,721,722,80,
80,80,80,80,80,80,80,80,80,80,789,790,791,792,793,80,
726,727,80,80,80,80,80,80,80,80,80,80,80,80,80,80,
797,798,80,80,80,80,80,80,80,80,80,80,80,80,80,80,
80,80,80,80,80,80,80,505,292,293,80,80,80,80,80,80,
80,80,80,80,80,80,151,221,363,364,576,506,80,80,80,80,
80,80,80,80,80,80,150,222,434,435,647,577,648,80,80,80,
80,80,80,80,80,80,80,80,80,80,80,80,80,80,80,80,
80,80,80,80,80,80,80,80,80,80,80,80,80,80,723,724,
80,80,80,80,80,80,80,80,80,80,80,80,80,80,794,795,
648,80,80,80,80,80,80,80,80,80,80,80,80,80,80,80,
80,80,80,80,80,80,80,80,80,80,80,80,80,80,80,80,
80,80,80,80,80,80,80,80,80,80,80,80,80,80,80,80,
80,723,724,725,726,727,80,80,80,80,80,80,718,719,720,721
</chunk>
   <chunk x="32" y="-32" width="16" height="16">
80,80,80,80,80,80,80,80,80,789,790,791,792,793,80,80,
80,80,80,505,292,293,80,80,80,80,80,80,80,80,80,80,
80,80,151,221,363,364,576,506,80,80,80,80,80,80,80,80,
80,80,150,222,434,435,647,577,648,80,80,80,80,80,80,80,
80,80,80,80,80,80,80,80,80,80,80,80,80,80,80,80,
80,80,80,80,80,80,80,80,80,80,80,80,80,80,80,80,
80,80,80,80,80,80,80,80,80,80,80,80,80,80,80,80,
80,80,80,80,80,80,80,80,80,80,80,80,80,80,80,80,
80,80,80,80,80,80,80,80,80,505,292,293,80,80,80,80,
80,80,80,80,80,80,80,80,151,221,363,364,576,506,80,80,
725,726,727,80,80,80,80,80,150,222,434,435,647,577,648,80,
796,797,798,80,80,80,80,80,80,80,80,80,80,80,80,80,
80,80,80,80,80,80,80,80,80,80,80,80,80,80,80,80,
80,80,80,80,80,80,80,723,724,725,726,727,80,80,80,80,
80,80,80,80,80,80,80,794,795,796,797,798,80,80,80,80,
722,80,80,80,80,80,80,80,80,80,80,80,80,80,80,80
</chunk>
   <chunk x="48" y="-32" width="16" height="16">
80,80,80,80,80,0,0,0,861,0,0,0,0,0,0,0,
80,80,80,80,80,0,0,0,861,0,0,0,0,0,0,0,
80,80,80,80,80,0,0,0,861,0,0,0,0,0,0,0,
861,861,861,80,80,0,0,0,861,0,0,0,0,0,0,0,
861,861,861,861,0,0,0,0,861,0,0,0,0,0,0,0,
861,861,861,861,861,861,861,861,861,861,0,0,0,0,0,0,
861,861,861,861,861,861,861,861,861,861,861,0,0,0,0,0,
0,861,861,861,861,861,861,861,861,861,861,861,0,0,0,0,
0,0,861,861,861,861,861,861,861,861,861,861,0,0,0,0,
80,0,0,861,861,861,861,861,861,861,861,861,0,0,0,0,
80,80,0,861,861,861,861,861,861,861,861,861,0,0,0,0,
80,80,722,861,861,861,861,861,861,861,861,861,0,0,0,0,
80,722,722,861,861,861,861,861,861,861,861,861,0,0,0,0,
80,80,722,861,861,861,861,861,861,861,861,861,0,0,0,0,
80,80,722,861,861,861,861,861,861,861,861,861,0,0,0,0,
80,80,722,861,861,861,861,861,861,861,861,0,0,0,0,0
</chunk>
   <chunk x="0" y="-16" width="16" height="16">
80,80,80,80,80,80,80,80,80,80,80,80,80,80,80,80,
80,80,80,80,80,80,80,80,80,80,80,80,80,80,80,80,
80,80,80,80,80,80,80,80,80,80,80,80,80,80,80,80,
80,80,80,723,724,725,726,727,80,80,80,80,80,80,80,80,
80,80,80,794,795,796,797,798,80,80,80,80,505,292,293,80,
80,80,80,80,80,80,80,80,80,80,80,151,221,363,364,576,
718,719,720,721,722,80,80,80,80,80,80,150,222,434,435,647,
789,790,791,792,793,80,80,80,80,80,80,80,80,80,80,80,
80,80,80,80,80,80,80,80,80,80,80,80,80,80,80,80,
80,80,80,80,80,80,80,80,723,724,725,726,727,80,80,80,
80,80,80,80,80,80,80,80,794,795,796,797,798,80,80,80,
80,80,80,80,80,80,80,80,80,80,80,80,80,80,80,80,
80,80,80,80,80,80,80,80,80,80,80,80,80,80,80,80,
0,0,0,0,0,0,0,80,80,80,80,80,80,80,80,80,
0,0,0,0,0,0,0,0,80,80,80,80,80,80,80,80,
0,0,0,0,0,0,0,0,0,80,80,80,80,80,80,80
</chunk>
   <chunk x="16" y="-16" width="16" height="16">
80,794,795,796,797,798,80,80,80,80,80,80,789,790,791,792,
80,80,80,80,80,80,80,80,80,80,80,80,80,80,80,80,
80,80,80,80,80,80,80,80,80,80,80,80,80,80,80,80,
80,80,80,80,80,80,80,80,80,80,80,80,80,80,80,80,
80,80,80,80,80,80,80,723,724,725,726,727,80,80,80,80,
506,80,80,80,80,80,80,794,795,796,797,798,80,80,80,80,
577,648,80,80,80,80,80,80,80,80,80,80,80,80,505,292,
80,80,80,80,80,80,80,80,80,80,80,80,80,151,221,363,
80,80,80,718,719,720,721,722,80,80,80,80,80,150,222,434,
80,80,80,789,790,791,792,793,80,80,80,80,80,80,80,80,
80,80,80,80,80,80,80,80,80,80,80,80,80,80,80,80,
80,80,80,80,80,80,80,80,80,80,80,80,80,80,80,80,
80,80,80,80,80,80,80,80,80,80,80,80,80,80,80,80,
80,80,80,80,80,80,80,80,80,80,80,80,80,80,80,80,
80,80,80,80,80,80,80,80,80,80,80,80,80,80,80,80,
80,80,80,80,80,80,80,80,80,80,80,80,80,80,80,80
</chunk>
   <chunk x="32" y="-16" width="16" height="16">
793,80,80,80,80,80,80,80,80,80,80,80,80,80,80,80,
80,80,80,80,80,80,80,80,80,80,80,80,80,80,80,80,
80,80,80,80,80,80,80,80,80,80,80,80,80,80,80,80,
80,718,719,720,721,722,80,80,80,80,80,80,80,80,80,80,
80,789,790,791,792,793,80,80,80,80,80,80,80,80,80,80,
80,80,80,80,80,80,80,80,80,80,80,80,80,80,80,80,
293,80,80,80,80,80,80,80,80,80,80,80,80,80,80,80,
364,576,506,80,80,80,80,80,80,80,80,80,80,80,80,80,
435,647,577,648,80,80,80,80,80,80,80,80,80,80,80,80,
80,80,80,80,80,80,80,80,80,80,80,80,80,80,80,80,
80,80,80,80,80,80,80,80,80,80,80,80,80,80,80,80,
80,80,80,80,80,80,80,80,80,80,80,80,80,80,80,80,
80,80,80,80,80,80,80,80,80,80,80,80,80,80,80,80,
80,80,80,80,80,80,80,80,80,80,80,80,80,80,80,80,
80,80,80,80,80,80,80,80,80,80,80,80,80,80,80,80,
80,80,80,80,80,80,80,80,80,80,80,80,80,80,80,80
</chunk>
   <chunk x="48" y="-16" width="16" height="16">
80,80,722,861,861,861,861,861,861,861,0,0,0,0,0,0,
80,80,80,80,80,0,0,0,0,0,0,0,0,0,0,0,
80,80,80,80,80,0,0,0,0,0,0,0,0,0,0,0,
80,80,80,80,80,0,0,0,0,0,0,0,0,0,0,0,
80,80,80,80,80,0,0,0,0,0,0,0,0,0,0,0,
80,80,80,80,80,0,0,0,0,0,0,0,0,0,0,0,
80,80,80,80,80,0,0,0,0,0,0,0,0,0,0,0,
80,80,80,80,80,0,0,0,0,0,0,0,0,0,0,0,
80,80,80,0,0,0,0,0,0,0,0,0,0,0,0,0,
0,0,0,0,0,0,0,0,0,0,0,0,0,0,0,0,
0,0,0,0,0,0,0,0,0,0,0,0,0,0,0,0,
0,0,0,0,0,0,0,0,0,0,0,0,0,0,0,0,
0,0,0,0,0,0,0,0,0,0,0,0,0,0,0,0,
0,0,0,0,0,0,0,0,0,0,0,0,0,0,0,0,
0,0,0,0,0,0,0,0,0,0,0,0,0,0,0,0,
0,0,0,0,0,0,0,0,0,0,0,0,0,0,0,0
</chunk>
  </data>
 </layer>
 <layer id="12" name="BackGround+" width="30" height="20">
  <data encoding="csv">
   <chunk x="160" y="-192" width="16" height="16">
0,0,0,0,0,0,0,0,0,0,0,0,0,0,0,0,
0,0,0,0,0,0,0,0,0,0,0,0,0,0,0,0,
0,0,0,0,0,0,0,0,0,0,0,0,0,0,0,0,
0,0,0,0,0,0,0,0,0,0,0,0,0,0,0,0,
0,0,0,0,0,0,0,0,0,0,0,0,0,0,0,0,
0,0,0,0,0,0,0,0,0,0,0,0,0,0,0,0,
0,0,0,0,0,0,0,0,0,0,0,0,0,0,0,0,
0,0,0,0,0,0,0,0,0,0,0,0,0,0,0,0,
0,0,0,0,0,0,0,0,0,0,0,0,0,0,0,0,
0,0,0,0,0,0,0,0,0,0,0,0,0,0,0,0,
0,0,0,0,0,0,0,0,0,0,0,0,0,0,0,0,
0,0,0,0,0,0,0,0,0,0,0,0,0,0,0,0,
0,0,0,0,0,0,152,0,0,0,0,0,0,0,0,0,
0,0,0,0,0,0,223,0,0,0,0,0,0,0,0,0,
0,0,0,0,0,0,0,0,0,0,0,0,0,0,0,0,
0,0,0,0,0,0,0,0,0,0,0,0,0,0,0,0
</chunk>
   <chunk x="144" y="-176" width="16" height="16">
0,0,0,0,0,0,0,0,0,0,0,0,0,0,0,0,
0,0,0,0,0,0,0,0,0,0,0,0,0,0,0,0,
0,0,0,0,0,0,0,0,0,0,0,0,0,0,0,0,
0,0,0,0,0,0,0,0,0,0,0,0,0,0,0,0,
0,0,0,0,0,0,0,0,0,0,0,0,0,0,0,0,
0,0,0,0,0,0,0,0,0,0,0,0,0,0,0,0,
0,0,0,0,0,0,0,0,0,0,0,0,0,0,0,0,
0,0,0,0,0,0,0,0,0,0,0,0,0,0,0,0,
0,0,0,0,0,0,0,0,0,0,0,0,0,0,0,0,
0,0,0,0,0,0,0,0,0,0,0,0,0,0,0,0,
0,0,0,0,0,0,0,0,0,0,0,0,0,0,0,0,
0,0,0,0,863,863,863,863,863,863,863,863,863,0,0,0,
0,0,0,863,0,0,0,0,0,0,0,0,0,0,0,0,
0,0,0,0,0,0,0,0,0,0,0,0,0,0,0,0,
0,0,0,0,0,0,0,0,0,0,0,0,0,0,0,0,
0,0,0,0,0,0,0,0,0,0,0,0,0,0,0,0
</chunk>
   <chunk x="128" y="-128" width="16" height="16">
0,0,0,0,0,0,0,0,0,0,0,0,0,0,0,0,
0,0,0,0,0,0,0,0,0,0,0,0,0,0,0,0,
0,0,0,0,0,0,0,0,0,0,0,0,0,0,0,0,
0,0,0,0,0,0,0,0,0,0,0,0,0,0,0,0,
0,0,0,0,0,0,0,0,0,0,0,0,0,0,0,0,
0,0,0,0,0,0,0,0,0,0,0,0,0,0,0,0,
0,0,0,0,0,0,0,0,0,0,0,0,0,0,0,0,
0,0,0,0,0,0,0,0,0,0,0,0,0,0,0,0,
0,0,0,0,0,0,0,0,0,0,0,0,0,0,0,0,
0,0,0,0,0,0,0,0,0,0,0,0,0,0,0,0,
0,0,0,0,0,0,0,0,0,0,0,0,0,0,0,0,
0,0,0,0,0,0,0,0,0,0,0,0,0,0,0,0,
0,0,0,0,0,0,0,0,0,0,0,0,0,0,0,0,
0,0,0,0,0,0,0,0,0,0,0,0,0,0,0,0,
382,0,0,0,0,0,0,0,0,0,0,0,0,0,0,0,
453,0,0,0,0,0,0,0,0,0,0,0,0,0,0,0
</chunk>
   <chunk x="112" y="-112" width="16" height="16">
0,0,0,0,0,0,0,0,0,0,0,0,0,0,0,0,
0,0,0,0,0,0,0,0,0,0,0,0,0,0,0,0,
0,0,0,0,0,0,0,0,0,0,0,0,0,0,0,0,
0,0,0,0,0,0,0,0,0,0,0,0,0,0,0,0,
0,0,0,0,0,0,0,0,0,0,0,0,0,0,0,0,
0,0,0,0,0,0,0,0,0,0,0,0,0,0,0,0,
0,0,0,0,0,0,0,0,0,0,0,0,0,0,0,0,
0,0,0,0,0,0,0,0,0,0,0,0,0,0,0,0,
0,0,0,0,0,0,0,0,0,0,0,0,0,0,0,10,
0,0,0,0,0,0,0,0,0,0,0,0,0,0,0,81,
0,0,0,0,0,0,0,0,0,0,0,0,0,0,0,0,
0,0,0,0,0,0,0,0,0,0,0,0,0,0,0,0,
0,0,0,0,0,0,0,0,0,0,0,0,0,0,0,0,
0,0,0,0,0,0,0,0,0,0,0,0,0,0,0,0,
0,0,0,0,0,0,0,0,0,0,0,0,0,0,0,0,
0,0,0,0,0,0,0,0,0,0,0,0,0,0,0,0
</chunk>
   <chunk x="64" y="-80" width="16" height="16">
0,0,0,0,0,0,0,0,0,0,0,0,0,0,0,0,
0,0,0,0,0,0,0,0,0,0,0,0,0,0,0,0,
0,0,0,0,0,0,0,0,0,0,0,0,0,0,0,0,
0,0,0,0,0,0,0,0,0,0,0,0,0,0,0,0,
0,0,0,0,0,0,0,0,0,0,0,0,0,0,0,0,
0,0,0,0,0,0,0,0,0,0,0,0,0,0,0,0,
0,0,0,0,0,0,0,0,0,0,0,0,0,0,0,0,
0,0,0,0,0,0,0,0,0,0,0,0,0,0,0,0,
0,0,0,0,0,0,0,0,0,0,0,0,0,0,0,0,
0,0,0,0,0,0,0,0,0,0,0,0,0,0,0,0,
0,0,0,0,0,0,0,0,0,0,0,0,0,0,0,0,
0,0,0,0,0,0,0,0,0,0,0,0,0,10,0,0,
0,0,0,0,0,0,0,0,0,0,0,0,0,81,0,0,
0,0,0,0,0,0,0,0,0,0,0,0,0,0,0,0,
0,0,0,0,0,0,0,0,0,0,0,0,0,0,0,0,
0,0,0,0,0,0,0,0,0,0,0,0,0,0,0,0
</chunk>
   <chunk x="48" y="-48" width="16" height="16">
0,0,0,0,0,0,0,0,0,0,0,0,0,0,0,0,
0,0,0,0,0,0,0,0,0,0,0,0,0,0,0,0,
0,0,0,0,0,0,0,0,0,0,0,0,0,0,0,0,
0,0,0,0,0,0,0,0,0,0,0,0,0,0,0,0,
0,0,0,0,0,0,0,0,0,0,0,0,0,0,0,0,
0,0,0,0,0,0,0,0,0,0,0,0,0,0,0,0,
0,0,0,0,0,0,0,0,0,0,0,0,0,0,0,0,
0,0,0,0,0,0,0,0,0,0,0,0,0,0,0,0,
0,0,0,0,0,0,0,0,0,0,0,0,0,0,0,0,
0,0,0,0,0,0,0,0,0,0,0,0,0,0,0,0,
0,0,0,0,0,0,0,0,0,0,0,0,0,0,0,0,
0,0,0,0,0,0,0,0,0,0,0,0,0,0,0,0,
0,0,0,0,0,0,0,0,0,0,0,0,0,0,0,0,
0,0,0,0,0,0,0,0,0,0,0,0,382,0,0,0,
0,0,0,0,0,0,0,0,0,0,0,0,453,0,0,0,
0,0,0,0,0,0,0,0,660,0,0,0,0,0,0,0
</chunk>
   <chunk x="80" y="-48" width="16" height="16">
0,0,0,0,0,0,0,0,0,0,0,0,0,0,0,0,
0,0,0,0,0,0,0,0,0,0,0,0,0,0,0,0,
0,0,0,0,0,0,0,0,0,0,0,0,0,0,0,0,
0,0,0,0,0,0,0,0,0,0,0,0,0,0,0,0,
0,0,0,0,0,0,0,0,0,0,0,0,0,0,0,0,
0,0,0,0,0,0,0,0,0,0,0,0,0,0,0,0,
0,0,0,0,0,0,0,0,0,0,0,0,0,0,0,0,
0,0,0,0,0,0,0,0,0,0,0,0,0,0,0,0,
0,0,0,0,0,0,0,0,0,0,0,0,0,0,0,0,
0,0,0,0,0,0,0,0,0,0,0,0,0,0,0,0,
0,0,0,0,0,0,0,0,0,0,0,0,0,0,0,0,
0,0,0,152,0,0,0,0,0,0,0,0,0,0,0,0,
0,0,0,223,0,0,0,0,0,0,0,0,0,0,0,0,
0,0,0,0,0,0,0,0,0,0,0,0,0,0,0,0,
0,0,0,0,0,0,0,0,0,0,0,0,0,0,0,0,
0,0,0,0,0,0,0,0,0,0,0,0,0,0,0,0
</chunk>
   <chunk x="48" y="-32" width="16" height="16">
0,0,0,0,0,0,0,0,660,0,0,0,0,0,0,0,
0,0,0,0,0,0,0,0,660,0,0,0,0,0,0,0,
0,0,0,0,0,0,0,0,660,0,0,0,0,0,0,0,
0,0,0,0,0,0,0,0,660,0,0,0,0,0,0,0,
0,0,0,0,0,0,0,0,660,0,0,0,0,0,0,0,
0,0,0,0,0,0,0,0,660,0,0,0,0,0,0,0,
0,0,0,0,0,0,0,0,660,0,0,0,0,0,0,0,
0,0,0,0,0,0,0,0,660,0,0,0,0,0,0,0,
0,0,0,0,0,0,0,0,660,0,0,0,0,0,0,0,
0,0,0,0,0,0,0,0,0,0,0,0,0,0,0,0,
0,0,0,0,0,0,0,0,0,0,0,0,0,0,0,0,
0,0,0,0,0,0,0,0,0,0,0,0,0,0,0,0,
0,0,0,0,0,0,0,0,0,0,0,0,0,0,0,0,
0,0,0,0,0,0,0,0,0,0,0,0,0,0,0,0,
0,0,0,0,0,0,0,0,0,0,0,0,0,0,0,0,
0,0,0,0,0,0,0,0,0,0,0,0,0,0,0,0
</chunk>
  </data>
 </layer>
 <layer id="13" name="Terrain-" width="30" height="20">
  <data encoding="csv">
   <chunk x="160" y="-192" width="16" height="16">
0,0,0,0,0,0,863,863,863,0,0,0,0,0,0,0,
0,0,0,0,0,0,0,0,0,0,0,0,0,0,0,0,
0,0,0,0,0,0,0,0,0,0,0,0,0,0,0,0,
0,0,0,0,0,0,0,0,0,0,0,0,0,0,0,0,
0,0,0,0,0,0,0,0,0,0,0,0,0,0,0,0,
0,0,0,0,0,0,0,0,0,0,0,0,0,0,0,0,
0,0,0,0,0,0,0,0,0,0,0,0,0,0,0,0,
0,0,0,0,0,0,0,0,0,0,0,0,0,0,0,0,
0,0,0,0,0,0,0,0,0,0,0,0,0,0,0,0,
0,0,0,0,0,0,0,0,0,0,0,0,0,0,0,0,
0,0,0,0,0,0,0,0,0,0,0,0,0,0,0,0,
0,0,0,0,0,0,0,0,0,0,0,0,0,0,0,0,
0,0,0,0,0,0,0,0,0,0,0,0,0,0,0,0,
0,0,0,0,0,0,0,0,0,0,0,0,0,0,0,0,
0,0,0,0,0,0,0,0,0,0,0,0,0,0,0,0,
0,0,0,0,0,0,0,0,0,0,0,0,0,0,0,0
</chunk>
   <chunk x="160" y="-176" width="16" height="16">
0,0,0,0,0,0,0,0,0,0,0,0,0,0,0,0,
0,0,0,0,0,0,0,0,0,0,0,0,0,0,0,0,
0,0,0,0,0,0,0,0,0,0,0,0,0,0,0,0,
0,0,0,870,0,0,0,0,0,0,0,0,0,0,0,0,
0,0,936,0,0,0,0,0,0,0,0,0,0,0,0,0,
0,0,0,0,0,0,0,0,0,0,0,0,0,0,0,0,
0,0,0,0,0,0,0,0,0,0,0,0,0,0,0,0,
0,0,0,0,0,0,0,0,0,0,0,0,0,0,0,0,
0,0,0,0,0,0,0,0,0,0,0,0,0,0,0,0,
0,0,0,0,0,0,0,0,0,0,0,0,0,0,0,0,
0,0,0,0,0,0,0,0,0,0,0,0,0,0,0,0,
0,0,0,0,0,0,0,0,0,0,0,0,0,0,0,0,
0,0,0,0,0,0,0,0,0,0,0,0,0,0,0,0,
0,0,0,0,0,0,0,0,0,0,0,0,0,0,0,0,
0,0,0,0,0,0,0,0,0,0,0,0,0,0,0,0,
0,0,0,0,0,0,0,0,0,0,0,0,0,0,0,0
</chunk>
   <chunk x="128" y="-128" width="16" height="16">
0,0,0,0,0,0,0,0,0,0,0,0,0,0,0,0,
0,0,0,0,0,0,0,0,0,0,0,0,0,0,0,0,
0,0,0,0,0,0,0,0,0,0,0,0,0,0,0,0,
0,0,0,0,0,0,0,0,0,0,0,0,0,0,0,0,
0,0,0,0,0,0,0,0,0,0,0,0,0,0,0,0,
0,0,0,0,0,0,0,0,0,0,0,0,0,0,0,0,
0,0,0,0,0,0,0,0,0,0,0,0,0,0,0,0,
0,0,0,0,0,0,0,0,0,0,0,0,0,0,0,0,
0,0,0,0,0,0,0,0,0,0,0,0,0,0,0,0,
0,0,0,0,0,0,0,0,0,0,0,0,0,0,0,0,
0,0,0,0,0,0,0,0,0,0,0,0,0,0,0,0,
0,0,0,0,0,0,0,0,0,0,0,0,0,0,0,0,
0,0,0,0,0,0,0,0,0,0,0,0,0,0,0,0,
0,0,0,0,0,0,0,0,0,0,0,0,0,0,0,0,
0,0,0,0,0,0,0,0,0,0,0,0,0,0,0,0,
0,0,0,0,0,0,870,0,0,0,0,0,0,0,0,0
</chunk>
   <chunk x="128" y="-112" width="16" height="16">
0,0,0,0,0,0,0,0,0,0,0,0,0,0,0,0,
0,0,0,0,0,0,0,0,0,0,0,0,0,0,0,0,
0,0,0,0,0,0,0,0,0,0,0,0,0,0,0,0,
0,0,0,0,0,0,0,0,0,0,0,0,0,0,0,0,
0,0,0,0,0,0,0,0,0,0,0,0,0,0,0,0,
0,0,0,0,0,0,0,0,0,0,0,0,0,0,0,0,
0,0,0,0,0,0,0,0,0,0,0,0,0,0,0,0,
0,0,0,0,0,0,0,0,0,0,0,0,0,0,0,0,
0,0,0,0,0,0,0,0,0,0,0,0,0,0,0,0,
0,0,0,0,0,0,0,0,0,0,0,0,0,0,0,0,
0,863,0,0,0,0,0,0,0,0,0,0,0,0,0,0,
0,0,0,0,0,0,0,0,0,0,0,0,0,0,0,0,
0,0,0,0,0,0,0,0,0,0,0,0,0,0,0,0,
0,0,0,0,0,0,0,0,0,0,0,0,0,0,0,0,
0,0,0,0,0,0,0,0,0,0,0,0,0,0,0,0,
0,0,0,0,0,0,0,0,0,0,0,0,0,0,0,0
</chunk>
   <chunk x="96" y="-96" width="16" height="16">
0,0,0,0,0,0,0,0,0,0,0,0,0,0,0,0,
0,0,0,0,0,0,0,0,0,0,0,0,0,0,0,0,
0,0,0,0,0,0,0,0,0,0,0,0,0,0,0,0,
0,0,0,0,0,0,0,0,0,0,0,0,0,0,0,0,
0,0,0,0,0,0,0,0,0,0,0,0,0,0,0,0,
0,0,0,0,0,0,0,0,0,0,0,0,0,0,0,0,
0,0,0,0,0,0,0,0,0,0,0,0,0,0,0,0,
0,0,0,0,0,0,0,0,0,0,0,0,0,0,0,0,
0,0,0,0,0,0,0,0,0,0,0,0,0,0,0,0,
0,0,0,0,0,0,0,0,0,0,0,0,0,0,0,0,
0,0,0,0,0,0,0,0,0,0,0,0,0,0,0,0,
0,0,0,0,0,0,0,0,0,0,0,0,0,0,0,0,
0,0,0,0,0,0,0,0,0,0,0,0,0,0,0,0,
0,0,0,0,0,0,0,0,0,0,0,0,0,0,0,0,
0,0,0,0,0,0,0,0,0,0,0,0,0,0,0,0,
0,0,0,871,0,0,0,0,0,0,0,0,0,0,0,0
</chunk>
   <chunk x="48" y="-48" width="16" height="16">
0,0,0,0,0,0,0,0,0,0,0,0,0,0,0,0,
0,0,0,0,0,0,0,0,0,0,0,0,0,0,0,0,
0,0,0,0,0,0,0,0,0,0,0,0,0,0,0,0,
0,0,0,0,0,0,0,0,0,0,0,0,0,0,0,0,
0,0,0,0,0,0,0,0,0,0,0,0,0,0,0,0,
0,0,0,0,0,0,0,0,0,0,0,0,0,0,0,0,
0,0,0,0,0,0,0,0,0,0,0,0,0,0,0,0,
0,0,0,0,0,0,0,0,0,0,0,0,0,0,0,0,
0,0,0,0,0,0,0,0,0,0,0,0,0,0,0,0,
0,0,0,0,0,0,0,0,0,0,0,0,0,0,0,0,
0,0,0,0,0,0,0,0,0,0,0,0,0,0,0,0,
0,0,0,0,0,0,0,0,0,0,0,0,0,0,0,0,
0,0,0,0,0,0,0,0,0,0,0,0,0,0,0,0,
0,0,0,0,0,0,0,0,0,0,0,0,0,0,0,0,
0,0,0,0,0,0,0,0,0,0,0,0,0,0,0,0,
0,0,0,0,0,0,0,0,657,0,0,0,0,0,0,0
</chunk>
   <chunk x="80" y="-48" width="16" height="16">
0,0,0,0,0,0,0,0,0,0,0,0,0,0,0,0,
0,0,0,0,0,0,0,0,0,0,0,0,0,0,0,0,
0,0,0,0,0,0,0,0,0,0,0,0,0,0,0,0,
0,0,0,0,0,0,0,0,0,0,0,0,0,0,0,0,
0,0,0,0,0,0,0,0,0,0,0,0,0,0,0,0,
0,0,0,0,0,0,0,0,0,0,0,0,0,0,0,0,
0,0,0,0,0,0,0,0,0,0,0,0,0,0,0,0,
0,0,0,0,0,0,0,0,0,0,0,0,0,0,0,0,
0,0,0,0,0,0,0,0,862,0,0,0,0,0,0,0,
0,0,0,0,0,0,0,0,0,0,0,0,0,0,0,0,
0,0,0,0,0,0,0,0,0,0,0,0,0,0,0,0,
0,0,0,0,0,0,0,0,0,0,0,0,0,0,0,0,
0,0,0,0,0,0,0,0,0,0,0,0,0,0,0,0,
0,0,0,0,0,0,0,0,0,0,0,0,0,0,0,0,
0,0,0,0,0,0,0,0,0,0,0,0,0,0,0,0,
0,0,0,0,0,0,0,0,0,0,0,0,0,0,0,0
</chunk>
   <chunk x="48" y="-32" width="16" height="16">
0,0,0,0,0,0,0,0,657,0,0,0,0,0,0,0,
0,0,0,0,0,0,0,0,657,0,0,0,0,0,0,0,
0,0,0,0,0,0,0,0,657,0,0,0,0,0,0,0,
0,0,0,0,0,0,0,0,657,0,0,0,0,0,0,0,
0,0,0,0,0,0,0,0,657,0,0,0,0,0,0,0,
0,0,0,0,0,0,0,0,659,0,0,0,861,0,0,0,
0,0,0,0,0,0,0,0,0,0,0,0,0,0,0,0,
0,0,0,0,0,0,0,0,0,0,0,0,0,0,0,0,
0,0,0,0,0,0,0,0,0,0,0,0,0,0,0,0,
0,0,0,0,0,0,0,0,0,0,0,0,0,0,0,0,
0,0,0,0,0,0,0,0,0,0,0,0,0,0,0,0,
0,0,0,0,0,0,0,0,0,0,0,0,0,0,0,0,
0,0,0,0,0,0,0,0,0,0,0,657,0,0,0,0,
0,0,0,0,0,0,0,0,0,0,0,0,0,0,0,0,
0,0,0,0,0,0,0,0,0,0,0,0,0,0,0,0,
0,0,0,0,0,0,0,0,0,0,0,0,0,0,0,0
</chunk>
   <chunk x="32" y="-16" width="16" height="16">
0,0,0,0,0,0,0,0,0,0,0,0,0,0,0,0,
0,0,0,0,0,0,0,0,0,0,0,0,0,0,0,0,
0,0,0,0,0,0,0,0,0,0,0,0,0,0,0,0,
0,0,0,0,0,0,0,0,0,0,0,0,0,0,0,0,
0,0,0,0,0,0,0,0,0,0,0,0,0,0,0,0,
0,0,0,0,0,0,0,0,0,0,0,0,0,0,0,860,
0,0,0,0,0,0,0,0,0,0,0,0,0,860,860,860,
0,0,0,0,0,0,0,0,0,0,0,0,860,860,860,860,
0,0,0,0,0,0,0,0,0,0,860,860,860,860,860,860,
0,0,0,0,0,0,0,0,0,860,860,860,860,860,860,860,
0,0,0,0,0,0,0,0,860,860,860,860,860,860,860,860,
0,0,0,0,0,0,0,0,860,860,860,860,860,860,860,860,
0,0,0,0,0,0,0,860,860,860,860,860,860,860,860,860,
0,0,0,0,0,0,0,860,860,860,860,860,860,860,860,860,
0,0,0,0,0,0,0,860,860,860,860,860,860,860,860,860,
0,0,0,0,0,0,0,860,860,860,860,860,860,860,860,860
</chunk>
  </data>
 </layer>
 <layer id="1" name="Terrain" width="30" height="20">
  <data encoding="csv">
   <chunk x="160" y="-240" width="16" height="16">
0,0,0,0,0,0,0,0,0,0,0,0,0,0,0,0,
0,0,0,0,0,0,0,0,0,0,0,0,0,0,0,0,
0,0,0,0,0,0,0,0,0,0,0,0,0,0,0,0,
0,0,0,0,0,0,0,0,0,0,0,0,0,0,0,0,
0,0,0,0,0,0,0,0,0,0,0,0,0,0,0,0,
0,0,0,0,0,0,0,0,0,0,0,0,0,0,0,0,
0,0,0,0,0,0,0,0,0,0,0,0,0,0,0,0,
0,0,0,0,0,0,0,0,0,0,0,0,0,0,0,0,
0,0,0,0,0,0,0,0,0,0,0,0,0,0,0,0,
0,0,0,0,0,0,0,0,0,0,0,0,0,0,0,0,
0,0,0,0,0,0,0,0,0,0,0,0,0,0,0,0,
0,0,0,0,0,0,0,0,0,0,0,0,0,0,0,0,
0,0,0,0,0,0,0,0,0,0,0,0,0,0,0,0,
0,0,0,0,0,0,0,0,0,0,0,0,0,0,0,0,
0,0,0,0,0,0,0,0,0,0,0,0,0,0,0,0,
0,0,0,0,0,0,0,863,863,863,0,0,0,0,863,863
</chunk>
   <chunk x="144" y="-224" width="16" height="16">
0,0,0,0,0,0,0,0,0,0,0,0,0,0,0,0,
0,0,0,0,0,0,0,0,0,0,0,0,0,0,0,0,
0,0,0,0,0,0,0,0,0,0,0,0,0,0,0,0,
0,0,0,0,0,0,0,0,0,0,0,0,0,0,0,0,
0,0,0,0,0,0,0,0,0,0,0,0,0,0,0,0,
0,0,0,0,0,0,0,0,0,0,0,0,0,0,0,0,
0,0,0,0,0,0,0,0,0,0,0,0,0,0,0,0,
0,0,0,0,0,0,0,0,0,0,0,0,0,0,0,0,
0,0,0,0,0,0,0,0,0,0,0,0,0,0,0,0,
0,0,0,0,0,0,0,0,0,0,0,0,0,0,0,0,
0,0,0,0,0,0,0,0,0,0,0,0,0,0,0,863,
0,0,0,0,0,0,0,0,0,0,0,0,0,0,0,860,
0,0,0,0,0,0,0,0,0,0,0,0,0,0,863,860,
0,0,0,0,0,0,0,0,0,0,0,0,0,0,860,860,
0,0,0,0,0,0,0,0,0,0,0,0,0,863,860,860,
0,0,0,0,0,0,0,0,0,0,0,0,0,860,860,860
</chunk>
   <chunk x="160" y="-224" width="16" height="16">
0,0,0,0,0,863,860,860,860,860,0,0,0,863,860,860,
0,0,0,0,0,860,860,860,860,860,0,0,0,860,860,860,
0,0,0,0,863,860,860,860,860,0,0,0,0,860,860,860,
0,0,0,0,860,860,860,860,0,0,0,0,863,860,860,860,
0,0,0,863,860,860,860,860,0,0,0,0,860,860,860,860,
0,0,0,860,860,860,860,860,0,0,867,869,860,860,860,860,
0,863,860,860,860,860,860,860,0,0,0,0,860,860,860,860,
0,860,860,860,860,860,860,860,868,0,0,0,860,860,860,860,
863,860,860,860,860,860,860,860,0,0,0,867,860,860,860,860,
860,860,860,860,860,860,860,860,0,0,0,0,860,860,860,860,
860,860,860,860,860,860,860,860,0,0,0,867,860,860,860,860,
860,860,860,860,860,860,860,860,0,0,0,0,860,860,860,860,
860,860,860,860,860,860,860,860,0,0,0,867,860,860,860,860,
860,860,860,860,860,860,860,860,0,0,0,0,860,860,860,860,
860,860,860,860,860,860,860,860,0,0,0,0,860,860,860,860,
860,860,860,860,860,860,860,860,869,868,0,0,860,860,860,860
</chunk>
   <chunk x="144" y="-208" width="16" height="16">
0,0,0,0,0,0,0,0,0,0,0,0,0,860,860,860,
0,0,0,0,0,0,0,0,0,0,0,0,863,860,860,860,
0,0,0,0,0,0,0,0,0,0,0,867,860,860,860,860,
0,0,0,0,0,0,0,0,0,0,0,0,860,860,860,860,
0,0,0,0,0,0,0,0,0,0,0,0,860,860,860,860,
0,0,0,0,0,0,0,0,0,0,0,0,0,0,0,0,
0,0,0,0,0,0,0,0,0,0,0,0,0,0,0,0,
0,0,0,0,0,0,0,0,0,0,863,863,863,863,860,860,
0,0,0,0,0,0,0,0,0,0,860,860,860,860,860,860,
0,0,0,0,0,0,0,0,0,867,860,860,860,860,860,860,
0,0,0,0,0,0,0,0,0,0,860,860,860,860,860,860,
0,0,0,0,0,0,0,0,0,0,860,860,860,860,860,0,
0,0,0,0,0,0,0,0,0,867,860,860,860,860,0,0,
0,0,0,0,0,0,0,0,0,0,860,860,860,0,0,0,
0,0,0,0,0,0,0,0,0,0,0,0,0,0,0,0,
0,0,0,0,0,0,0,0,0,0,0,0,0,0,0,0
</chunk>
   <chunk x="160" y="-208" width="16" height="16">
860,860,860,860,860,860,860,860,0,0,0,0,860,860,860,860,
860,860,860,860,860,860,860,860,0,0,0,0,860,860,860,860,
860,860,860,860,860,860,860,860,0,0,867,869,860,860,860,860,
860,860,860,860,860,860,860,860,0,0,0,0,860,860,860,860,
860,860,860,860,860,860,860,860,868,0,0,0,860,860,860,860,
0,0,0,0,0,0,0,0,0,0,0,0,860,860,860,860,
0,0,0,0,0,0,0,0,0,0,0,0,860,860,860,860,
860,860,860,860,860,860,860,860,0,0,0,0,860,860,860,860,
860,860,860,860,860,860,860,860,0,0,0,0,860,860,860,860,
860,860,860,0,0,0,0,0,0,0,0,0,0,860,860,860,
860,0,0,0,0,0,0,0,0,0,0,0,0,860,860,860,
0,0,0,0,0,0,0,0,0,0,0,0,0,860,860,860,
0,0,0,0,0,0,0,0,0,0,0,0,0,0,860,860,
0,0,0,0,0,0,0,0,0,0,0,0,0,0,860,860,
0,0,0,0,0,0,0,0,0,0,0,0,0,0,860,860,
0,0,0,0,0,0,0,0,0,0,0,0,0,0,860,860
</chunk>
   <chunk x="144" y="-192" width="16" height="16">
0,0,0,0,0,0,0,0,0,661,863,863,860,860,869,869,
0,0,0,0,0,0,0,0,0,0,860,860,860,860,0,0,
0,0,0,0,0,0,0,0,0,0,860,860,860,860,0,0,
0,0,0,0,0,0,0,0,0,0,860,860,860,860,0,0,
0,0,0,0,0,0,0,0,0,0,860,860,860,860,0,0,
0,0,0,0,0,0,0,0,0,0,860,860,860,860,869,869,
0,0,0,0,0,0,0,0,0,0,0,860,860,860,0,0,
0,0,0,0,0,0,0,0,0,0,0,860,860,860,869,868,
0,0,0,0,0,0,0,0,0,0,0,860,860,860,0,0,
0,0,0,0,0,0,0,0,0,0,0,860,860,860,868,0,
0,0,0,0,0,0,0,0,0,0,0,860,860,860,0,0,
0,0,0,0,0,0,0,0,0,0,0,860,860,860,0,0,
0,0,0,0,0,0,0,0,0,0,0,0,860,860,860,0,
0,0,0,0,0,0,0,0,0,0,0,0,860,860,860,0,
0,0,0,0,0,0,0,0,0,0,0,0,860,860,860,0,
0,0,0,0,0,0,0,0,0,0,0,0,0,860,860,860
</chunk>
   <chunk x="160" y="-192" width="16" height="16">
869,869,868,0,0,661,651,651,651,664,0,0,0,661,860,860,
0,0,0,0,0,0,860,860,860,0,0,0,0,0,0,860,
0,0,0,0,0,0,860,860,860,0,0,0,0,0,0,860,
0,0,867,869,869,869,860,860,860,0,0,0,0,0,0,860,
0,0,0,0,0,0,860,860,860,0,0,0,0,0,0,860,
868,0,0,0,0,0,860,860,860,0,0,0,0,0,0,860,
0,0,0,0,0,0,860,860,860,0,0,0,0,0,0,860,
0,0,0,0,0,0,860,860,860,0,0,0,0,0,0,860,
0,0,0,0,0,0,860,860,860,0,0,0,0,0,0,860,
0,0,0,0,0,0,860,860,860,0,0,0,0,0,0,860,
0,0,0,0,0,0,0,0,0,0,0,0,0,0,0,860,
0,0,0,0,0,0,0,0,0,0,0,0,0,0,0,860,
0,0,0,0,0,0,0,0,0,0,0,0,0,0,0,860,
0,0,0,0,0,0,0,860,0,0,0,0,0,0,0,860,
0,0,0,0,0,860,860,860,0,0,0,0,0,0,0,860,
0,0,0,0,0,860,860,860,863,0,0,0,0,0,0,860
</chunk>
   <chunk x="144" y="-176" width="16" height="16">
0,0,0,0,0,0,0,0,0,0,0,0,0,0,860,860,
0,0,0,0,0,0,0,0,0,0,0,0,0,0,0,0,
0,0,0,0,0,0,0,45,46,47,48,49,50,0,0,0,
0,0,0,0,0,0,0,116,117,118,119,120,121,0,0,0,
0,0,0,0,0,0,0,187,188,189,190,191,192,863,863,863,
0,0,0,0,0,0,0,258,259,260,261,262,263,860,860,860,
0,0,0,0,0,0,0,329,330,331,332,333,334,860,860,860,
0,0,0,0,0,0,0,400,401,402,403,404,405,860,860,860,
0,0,0,0,0,0,0,471,472,473,474,475,476,860,860,860,
0,0,0,0,0,0,0,542,543,544,545,546,547,860,860,860,
0,0,0,0,0,0,0,613,614,615,616,617,618,860,860,860,
0,0,0,0,863,863,863,684,685,686,687,688,689,860,860,860,
0,0,0,863,860,860,860,860,860,860,860,860,860,860,860,860,
0,0,863,860,860,860,860,860,860,860,860,860,860,860,860,860,
0,0,860,860,860,860,860,860,860,860,860,860,860,860,860,860,
0,0,860,860,860,860,860,860,860,860,860,860,860,860,860,860
</chunk>
   <chunk x="160" y="-176" width="16" height="16">
860,860,0,0,0,860,860,860,860,0,0,0,0,0,863,860,
0,0,0,0,860,860,860,860,860,863,0,0,0,0,860,860,
0,0,0,0,860,860,860,860,860,860,0,0,0,0,860,860,
0,0,865,0,860,860,860,860,860,860,0,0,0,863,860,860,
863,860,936,860,860,860,860,860,860,860,863,863,863,860,860,860,
860,860,860,860,860,860,860,860,860,860,860,860,860,860,860,860,
860,860,860,860,860,860,860,860,860,860,860,860,860,860,860,860,
860,860,860,860,860,860,860,860,860,860,860,860,860,860,860,860,
860,860,860,860,860,860,860,860,860,860,860,860,860,860,860,860,
860,860,860,860,860,860,860,860,860,860,860,860,860,860,860,860,
860,860,860,860,860,860,860,860,860,860,860,860,860,860,860,860,
860,860,860,860,860,860,860,860,860,860,860,860,860,860,860,860,
860,860,860,860,860,860,860,860,860,860,860,860,860,860,860,860,
860,860,860,860,860,860,860,860,860,860,860,860,860,860,860,860,
860,860,860,860,860,860,860,860,860,860,860,860,860,860,860,860,
860,860,860,860,860,860,860,860,860,860,860,860,860,860,860,860
</chunk>
   <chunk x="128" y="-160" width="16" height="16">
0,0,0,0,0,0,0,0,0,0,0,0,529,530,531,532,
0,0,0,0,0,0,0,0,0,0,0,0,600,601,602,603,
0,0,0,0,0,0,0,34,35,36,37,38,39,40,41,42,
0,0,0,0,0,0,0,105,106,107,108,109,110,111,112,113,
0,0,0,0,0,0,0,176,177,178,179,180,181,182,183,184,
0,0,0,0,0,0,0,247,248,249,250,251,252,253,254,255,
0,0,0,0,0,0,0,318,319,320,321,322,323,324,325,326,
0,0,0,0,0,0,0,389,390,391,392,393,394,395,396,397,
0,0,0,0,0,0,0,460,461,462,463,464,465,466,467,468,
0,0,0,0,0,0,0,0,0,0,0,535,0,537,538,539,
0,0,0,0,0,0,0,0,0,0,0,606,607,608,609,610,
0,0,0,0,0,0,0,673,674,0,0,677,678,679,680,681,
0,0,0,0,0,0,0,744,745,746,747,748,749,750,751,752,
0,0,0,0,0,0,0,0,0,0,0,0,0,0,0,0,
0,0,0,0,0,0,0,0,0,0,0,0,0,0,0,0,
0,0,0,0,0,0,0,0,0,0,0,0,0,0,0,0
</chunk>
   <chunk x="144" y="-160" width="16" height="16">
533,534,860,860,860,860,860,860,860,860,860,860,860,860,860,860,
604,605,860,860,860,860,860,860,860,860,860,860,860,860,860,860,
43,44,860,860,860,860,860,860,860,860,860,860,860,860,860,860,
114,115,860,860,860,860,860,860,860,860,860,860,860,860,860,860,
185,186,860,860,860,860,860,860,860,860,860,860,860,860,860,860,
256,257,860,860,860,860,860,860,860,860,860,860,860,860,860,860,
327,328,860,860,860,860,860,860,860,860,860,860,860,860,860,860,
398,399,860,860,860,860,860,860,860,860,860,860,860,860,860,860,
469,470,860,860,860,860,860,860,860,860,860,860,860,860,860,860,
540,541,860,860,860,860,860,860,860,860,860,860,860,860,860,860,
611,612,860,860,860,860,860,860,860,860,860,860,860,860,860,860,
682,683,860,860,860,860,860,860,860,860,860,860,860,860,860,860,
753,754,860,860,860,860,860,860,860,860,860,860,860,860,860,860,
0,863,860,860,860,860,860,860,860,860,860,860,860,860,860,860,
0,860,860,860,860,860,860,860,860,860,860,860,860,860,860,860,
0,860,860,860,860,860,860,860,860,860,860,860,860,860,860,860
</chunk>
   <chunk x="160" y="-160" width="16" height="16">
860,860,860,860,860,860,860,860,860,860,860,860,860,860,860,860,
860,860,860,860,860,860,860,860,860,860,860,860,860,860,860,860,
860,860,860,860,860,860,860,860,860,860,860,860,860,860,860,860,
860,860,860,860,860,860,860,860,860,860,860,860,860,860,860,860,
860,860,860,860,860,860,860,860,860,860,860,860,860,860,860,860,
860,860,860,860,860,860,860,860,860,860,860,860,860,860,860,860,
860,860,860,860,860,860,860,860,860,860,860,860,860,860,860,860,
860,860,860,860,860,860,860,860,860,860,860,860,860,860,860,860,
860,860,860,860,860,860,860,860,860,860,860,860,860,860,860,860,
860,860,860,860,860,860,860,860,860,860,860,860,860,860,860,860,
860,860,860,860,860,860,860,860,860,860,860,860,860,860,860,860,
860,860,860,860,860,860,860,860,860,860,860,860,860,860,860,860,
860,860,860,860,860,860,860,860,860,860,860,860,860,860,860,860,
860,860,860,860,860,860,860,860,860,860,860,860,860,860,860,860,
860,860,860,860,860,860,860,860,860,860,860,860,860,860,860,860,
860,860,860,860,860,860,860,860,860,860,860,860,860,860,860,860
</chunk>
   <chunk x="128" y="-144" width="16" height="16">
0,0,0,0,0,0,0,0,0,0,0,0,0,0,0,0,
0,0,0,0,0,0,0,0,0,0,0,0,0,0,0,0,
0,0,0,0,0,0,0,0,0,0,0,0,0,0,0,0,
0,0,0,0,0,0,0,0,0,0,0,0,0,0,0,863,
0,0,0,0,0,0,0,0,0,0,0,0,0,0,0,860,
0,0,0,0,0,0,0,0,0,0,0,0,0,0,0,860,
0,0,0,0,0,0,0,0,0,0,0,0,0,0,863,860,
0,0,0,0,0,0,0,0,0,0,0,0,0,0,860,860,
0,0,0,0,0,0,0,0,0,0,0,0,0,0,860,860,
0,0,0,0,0,0,0,0,0,0,0,0,0,863,860,860,
0,0,0,0,0,0,0,0,0,0,0,0,0,860,860,860,
0,0,0,0,0,0,0,0,0,0,0,0,0,860,860,860,
0,0,0,0,0,0,0,0,0,0,0,0,863,860,860,860,
0,0,0,0,0,0,0,0,0,0,0,0,860,860,860,860,
0,0,0,0,0,0,0,0,0,0,0,0,860,860,860,860,
0,0,0,0,0,0,0,0,0,0,0,863,860,860,860,860
</chunk>
   <chunk x="144" y="-144" width="16" height="16">
863,860,860,860,860,860,860,860,860,860,860,860,860,860,860,860,
860,860,860,860,860,860,860,860,860,860,860,860,860,860,860,860,
860,860,860,860,860,860,860,860,860,860,860,860,860,860,860,860,
860,860,860,860,860,860,860,860,860,860,860,860,860,860,860,860,
860,860,860,860,860,860,860,860,860,860,860,860,860,860,860,860,
860,860,860,860,860,860,860,860,860,860,860,860,860,860,860,860,
860,860,860,860,860,860,860,860,860,860,860,860,860,860,860,860,
860,860,860,860,860,860,860,860,860,860,860,860,860,860,860,860,
860,860,860,860,860,860,860,860,860,860,860,860,860,860,860,860,
860,860,860,860,860,860,860,860,860,860,860,860,860,860,860,860,
860,860,860,860,860,860,860,860,860,860,860,860,860,860,860,860,
860,860,860,860,860,860,860,860,860,860,860,860,860,860,860,860,
860,860,860,860,860,860,860,860,860,860,860,860,860,860,860,860,
860,860,860,860,860,860,860,860,860,860,860,860,860,860,860,860,
860,860,860,860,860,860,860,860,860,860,860,860,860,860,860,860,
860,860,860,860,860,860,860,860,860,860,860,860,860,860,860,860
</chunk>
   <chunk x="160" y="-144" width="16" height="16">
860,860,860,860,860,860,860,860,860,860,860,860,860,860,860,860,
860,860,860,860,860,860,860,860,860,860,860,860,860,860,860,860,
860,860,860,860,860,860,860,860,860,860,860,860,860,860,860,860,
860,860,860,860,860,860,860,860,860,860,860,860,860,860,860,860,
860,860,860,860,860,860,860,860,860,860,860,860,860,860,860,860,
860,860,860,860,860,860,860,860,860,860,860,860,860,860,860,860,
860,860,860,860,860,860,860,860,860,860,860,860,860,860,860,860,
860,860,860,860,860,860,860,860,860,860,860,860,860,860,860,860,
860,860,860,860,860,860,860,860,860,860,860,860,860,860,860,860,
860,860,860,860,860,860,860,860,860,860,860,860,860,860,860,860,
860,860,860,860,860,860,860,860,860,860,860,860,860,860,860,860,
860,860,860,860,860,860,860,860,860,860,860,860,860,860,860,860,
860,860,860,860,860,860,860,860,860,860,860,860,860,860,860,860,
860,860,860,860,860,860,860,860,860,860,860,860,860,860,860,860,
860,860,860,860,860,860,860,860,860,860,860,860,860,860,860,860,
860,860,860,860,860,860,860,860,860,860,860,860,860,860,860,860
</chunk>
   <chunk x="128" y="-128" width="16" height="16">
0,0,0,0,0,0,0,0,0,0,0,860,860,860,860,860,
0,0,0,0,0,0,0,0,0,0,0,860,860,860,860,860,
0,0,0,0,0,0,0,0,0,0,863,860,860,860,860,860,
0,0,0,0,0,0,0,0,863,863,860,860,860,860,860,860,
0,0,0,0,0,0,0,863,860,860,860,860,860,860,860,860,
0,0,0,0,0,0,867,860,860,860,860,860,860,860,860,860,
0,0,0,0,0,0,0,860,860,860,860,860,860,860,860,860,
0,0,0,0,0,0,0,860,860,860,860,860,860,860,860,860,
0,0,0,0,0,0,867,869,860,860,860,860,860,860,860,860,
0,0,0,0,0,0,0,0,0,860,860,860,860,860,860,860,
0,0,0,0,0,0,0,0,0,0,0,0,0,0,0,860,
0,0,0,0,0,0,0,854,855,856,0,0,0,0,0,0,
0,0,0,0,0,0,924,925,926,927,0,0,0,0,0,0,
0,0,0,0,0,0,995,996,997,998,0,0,0,104,0,0,
0,0,0,0,0,0,1066,1067,1068,1069,0,0,0,175,0,853,
0,0,0,0,0,853,1137,1138,1139,1140,0,0,0,0,860,860
</chunk>
   <chunk x="144" y="-128" width="16" height="16">
860,860,860,860,860,860,860,860,860,860,860,860,860,860,860,860,
860,860,860,860,860,860,860,860,860,860,860,860,860,860,860,860,
860,860,860,860,860,860,860,860,860,860,860,860,860,860,860,860,
860,860,860,860,860,860,860,860,860,860,860,860,860,860,860,860,
860,860,860,860,860,860,860,860,860,860,860,860,860,860,860,860,
860,860,860,860,860,860,860,860,860,860,860,860,860,860,860,860,
860,860,860,860,860,860,860,860,860,860,860,860,860,860,860,860,
860,860,860,860,860,860,860,860,860,860,860,860,860,860,860,860,
860,860,860,860,860,860,860,860,860,860,860,860,860,860,860,860,
860,860,860,860,860,860,860,860,860,860,860,860,860,860,860,860,
860,860,860,860,860,860,860,860,860,860,860,860,860,860,860,860,
860,860,860,860,860,860,860,860,860,860,860,860,860,860,860,860,
0,860,860,860,860,860,860,860,860,860,860,860,860,860,860,860,
0,860,860,860,860,860,860,860,860,860,860,860,860,860,860,860,
860,860,860,860,860,860,860,860,860,860,860,860,860,860,860,860,
860,860,860,860,860,860,860,860,860,860,860,860,860,860,860,860
</chunk>
   <chunk x="160" y="-128" width="16" height="16">
860,860,860,860,860,860,860,860,860,860,860,860,860,860,860,860,
860,860,860,860,860,860,860,860,860,860,860,860,860,860,860,860,
860,860,860,860,860,860,860,860,860,860,860,860,860,860,860,860,
860,860,860,860,860,860,860,860,860,860,860,860,860,860,860,860,
860,860,860,860,860,860,860,860,860,860,860,860,860,860,860,860,
860,860,860,860,860,860,860,860,860,860,860,860,860,860,860,860,
860,860,860,860,860,860,860,860,860,860,860,860,860,860,860,860,
860,860,860,860,860,860,860,860,860,860,860,860,860,860,860,860,
860,860,860,860,860,860,860,860,860,860,860,860,860,860,860,860,
860,860,860,860,860,860,860,860,860,860,860,860,860,860,860,860,
860,860,860,860,860,860,860,860,860,860,860,860,860,860,860,860,
860,860,860,860,860,860,860,860,860,860,860,860,860,860,860,860,
860,860,860,860,860,860,860,860,860,860,860,860,860,860,860,860,
860,860,860,860,860,860,860,860,860,860,860,860,860,860,860,860,
860,860,860,860,860,860,860,860,860,860,860,860,860,860,860,860,
860,860,860,860,860,860,860,860,860,860,860,860,860,860,860,860
</chunk>
   <chunk x="112" y="-112" width="16" height="16">
0,0,0,0,0,0,0,0,0,0,0,0,0,661,863,863,
0,0,0,0,0,0,0,0,0,0,0,863,0,0,860,860,
0,0,0,0,0,0,0,0,0,863,863,860,0,0,860,860,
0,0,0,0,0,0,0,863,863,860,860,860,0,0,860,860,
0,0,0,0,0,0,863,860,860,860,860,860,0,0,860,860,
0,0,0,0,0,0,860,860,860,860,860,0,0,0,0,860,
0,0,0,0,0,0,860,860,860,860,869,869,868,0,0,0,
0,0,0,0,0,863,860,860,860,860,0,0,0,0,0,0,
0,0,0,0,0,860,860,860,860,860,866,0,0,0,0,0,
0,0,0,0,0,860,860,860,860,860,863,0,0,866,0,0,
0,0,0,0,863,860,860,860,860,860,860,863,863,863,863,863,
0,0,0,0,860,860,860,860,860,860,860,860,860,860,860,860,
0,0,0,0,860,860,860,860,860,860,860,860,860,860,860,860,
0,0,0,863,860,860,860,860,860,860,860,860,860,860,860,860,
0,0,0,860,860,860,860,860,860,860,860,860,860,860,860,860,
0,0,0,860,860,860,860,860,860,860,860,860,860,860,860,860
</chunk>
   <chunk x="128" y="-112" width="16" height="16">
863,863,863,863,863,863,863,863,863,863,664,0,661,860,860,860,
860,860,860,860,860,860,860,860,860,860,868,0,0,860,860,860,
860,860,860,860,860,860,860,860,860,860,0,0,0,860,860,860,
860,860,860,860,860,860,860,860,860,860,0,0,867,860,860,860,
860,860,860,860,860,860,860,860,860,860,0,0,0,860,860,860,
860,860,860,860,860,860,860,860,860,869,868,0,0,860,860,860,
0,0,0,0,0,0,0,0,0,0,0,0,0,860,860,860,
0,0,0,0,0,0,0,0,0,0,0,0,867,860,860,860,
0,0,0,0,0,0,0,0,0,0,0,0,0,860,860,860,
0,865,0,866,0,0,0,0,0,0,0,0,0,860,860,860,
863,936,863,863,863,863,863,863,863,863,863,863,863,860,860,860,
860,860,860,860,860,860,860,860,860,860,860,860,860,860,860,860,
860,860,860,860,860,860,860,860,860,860,860,860,860,860,860,860,
860,860,860,860,860,860,860,860,860,860,860,860,860,860,860,860,
860,860,860,860,860,860,860,860,860,860,860,860,860,860,860,860,
860,860,860,860,860,860,860,860,860,860,860,860,860,860,860,860
</chunk>
   <chunk x="144" y="-112" width="16" height="16">
860,860,860,860,860,860,860,860,860,860,860,860,860,860,860,860,
860,860,860,860,860,860,860,860,860,860,860,860,860,860,860,860,
860,860,860,860,860,860,860,860,860,860,860,860,860,860,860,860,
860,860,860,860,860,860,860,860,860,860,860,860,860,860,860,860,
860,860,860,860,860,860,860,860,860,860,860,860,860,860,860,860,
860,860,860,860,860,860,860,860,860,860,860,860,860,860,860,860,
860,860,860,860,860,860,860,860,860,860,860,860,860,860,860,860,
860,860,860,860,860,860,860,860,860,860,860,860,860,860,860,860,
860,860,860,860,860,860,860,860,860,860,860,860,860,860,860,860,
860,860,860,860,860,860,860,860,860,860,860,860,860,860,860,860,
860,860,860,860,860,860,860,860,860,860,860,860,860,860,860,860,
860,860,860,860,860,860,860,860,860,860,860,860,860,860,860,860,
860,860,860,860,860,860,860,860,860,860,860,860,860,860,860,860,
860,860,860,860,860,860,860,860,860,860,860,860,860,860,860,860,
860,860,860,860,860,860,860,860,860,860,860,860,860,860,860,860,
860,860,860,860,860,860,860,860,860,860,860,860,860,860,860,860
</chunk>
   <chunk x="160" y="-112" width="16" height="16">
860,860,860,860,860,860,860,860,860,860,860,860,860,860,860,860,
860,860,860,860,860,860,860,860,860,860,860,860,860,860,860,860,
860,860,860,860,860,860,860,860,860,860,860,860,860,860,860,860,
860,860,860,860,860,860,860,860,860,860,860,860,860,860,860,860,
860,860,860,860,860,860,860,860,860,860,860,860,860,860,860,860,
860,860,860,860,860,860,860,860,860,860,860,860,860,860,860,860,
860,860,860,860,860,860,860,860,860,860,860,860,860,860,860,860,
860,860,860,860,860,860,860,860,860,860,860,860,860,860,860,860,
860,860,860,860,860,860,860,860,860,860,860,860,860,860,860,860,
860,860,860,860,860,860,860,860,860,860,860,860,860,860,860,860,
860,860,860,860,860,860,860,860,860,860,860,860,860,860,860,860,
860,860,860,860,860,860,860,860,860,860,860,860,860,860,860,860,
860,860,860,860,860,860,860,860,860,860,860,860,860,860,860,860,
860,860,860,860,860,860,860,860,860,860,860,860,860,860,860,860,
860,860,860,860,860,860,860,860,860,860,860,860,860,860,860,860,
860,860,860,860,860,860,860,860,860,860,860,860,860,860,860,860
</chunk>
   <chunk x="80" y="-96" width="16" height="16">
0,0,0,0,0,0,0,0,0,0,0,0,0,0,0,0,
0,0,0,0,0,0,0,0,0,0,0,0,0,0,0,0,
0,0,0,0,0,0,0,0,0,0,0,0,0,0,0,0,
0,0,0,0,0,0,0,0,0,0,0,0,0,0,0,0,
0,0,0,0,0,0,0,0,0,0,0,0,0,0,0,0,
0,0,0,0,0,0,0,0,0,0,0,0,0,0,0,0,
0,0,0,0,0,0,0,0,0,0,0,0,0,0,0,0,
0,0,0,0,0,0,0,0,0,0,0,0,0,0,0,0,
0,0,0,0,0,0,0,0,0,0,0,0,0,0,0,0,
0,0,0,0,0,0,0,0,0,0,0,0,0,0,0,0,
0,0,0,0,0,0,0,0,0,0,0,0,0,0,0,0,
0,0,0,0,0,0,0,0,0,0,0,0,0,0,0,0,
0,0,0,0,0,0,0,0,0,0,0,0,0,0,0,0,
0,0,0,0,0,0,0,0,0,0,0,0,0,0,99,100,
0,0,0,0,0,0,0,0,0,0,0,0,0,0,170,171,
0,0,0,0,0,0,0,0,0,0,0,0,0,0,241,242
</chunk>
   <chunk x="96" y="-96" width="16" height="16">
0,0,0,0,0,0,0,0,0,0,0,0,0,0,0,0,
0,0,0,0,0,0,0,0,0,0,0,0,0,0,0,0,
0,0,0,0,0,0,0,0,0,0,0,0,0,0,0,0,
0,0,0,0,0,0,0,0,0,0,0,0,0,0,0,0,
0,0,0,0,0,0,0,0,0,0,0,0,0,0,0,0,
0,0,0,0,0,0,0,0,0,0,0,0,0,0,0,0,
0,0,0,0,0,0,0,0,0,0,0,0,0,0,0,0,
0,0,0,0,0,0,0,0,0,0,0,0,0,0,0,0,
0,0,0,0,0,0,0,0,0,0,0,0,0,0,0,0,
0,0,0,0,0,0,0,0,0,0,0,0,0,0,0,863,
0,0,0,0,0,0,0,0,0,0,0,0,0,0,0,860,
0,0,0,0,0,0,0,0,0,0,0,0,0,0,863,860,
0,0,0,0,0,0,0,0,0,0,0,0,0,863,860,860,
101,102,103,104,0,0,0,0,0,0,0,0,863,860,860,860,
172,173,174,175,0,0,0,0,0,0,0,863,860,860,860,860,
243,244,245,246,0,0,0,0,0,0,863,860,860,860,860,860
</chunk>
   <chunk x="112" y="-96" width="16" height="16">
0,0,863,860,860,860,860,860,860,860,860,860,860,860,860,860,
0,0,860,860,860,860,860,860,860,860,860,860,860,860,860,860,
0,0,860,860,860,860,860,860,860,860,860,860,860,860,860,860,
0,863,860,860,860,860,860,860,860,860,860,860,860,860,860,860,
0,860,860,860,860,860,860,860,860,860,860,860,860,860,860,860,
0,860,860,860,860,860,860,860,860,860,860,860,860,860,860,860,
863,860,860,860,860,860,860,860,860,860,860,860,860,860,860,860,
860,860,860,860,860,860,860,860,860,860,860,860,860,860,860,860,
860,860,860,860,860,860,860,860,860,860,860,860,860,860,860,860,
860,860,860,860,860,860,860,860,860,860,860,860,860,860,860,860,
860,860,860,860,860,860,860,860,860,860,860,860,860,860,860,860,
860,860,860,860,860,860,860,860,860,860,860,860,860,860,860,860,
860,860,860,860,860,860,860,860,860,860,860,860,860,860,860,860,
860,860,860,860,860,860,860,860,860,860,860,860,860,860,860,860,
860,860,860,860,860,860,860,860,860,860,860,860,860,860,860,860,
860,860,860,860,860,860,860,860,860,860,860,860,860,860,860,860
</chunk>
   <chunk x="128" y="-96" width="16" height="16">
860,860,860,860,860,860,860,860,860,860,860,860,860,860,860,860,
860,860,860,860,860,860,860,860,860,860,860,860,860,860,860,860,
860,860,860,860,860,860,860,860,860,860,860,860,860,860,860,860,
860,860,860,860,860,860,860,860,860,860,860,860,860,860,860,860,
860,860,860,860,860,860,860,860,860,860,860,860,860,860,860,860,
860,860,860,860,860,860,860,860,860,860,860,860,860,860,860,860,
860,860,860,860,860,860,860,860,860,860,860,860,860,860,860,860,
860,860,860,860,860,860,860,860,860,860,860,860,860,860,860,860,
860,860,860,860,860,860,860,860,860,860,860,860,860,860,860,860,
860,860,860,860,860,860,860,860,860,860,860,860,860,860,860,860,
860,860,860,860,860,860,860,860,860,860,860,860,860,860,860,860,
860,860,860,860,860,860,860,860,860,860,860,860,860,860,860,860,
860,860,860,860,860,860,860,860,860,860,860,860,860,860,860,860,
860,860,860,860,860,860,860,860,860,860,860,860,860,860,860,860,
860,860,860,860,860,860,860,860,860,860,860,860,860,860,860,860,
860,860,860,860,860,860,860,860,860,860,860,860,860,860,860,860
</chunk>
   <chunk x="144" y="-96" width="16" height="16">
860,860,860,860,860,860,860,860,860,860,860,860,860,860,860,860,
860,860,860,860,860,860,860,860,860,860,860,860,860,860,860,860,
860,860,860,860,860,860,860,860,860,860,860,860,860,860,860,860,
860,860,860,860,860,860,860,860,860,860,860,860,860,860,860,860,
860,860,860,860,860,860,860,860,860,860,860,860,860,860,860,860,
860,860,860,860,860,860,860,860,860,860,860,860,860,860,860,860,
860,860,860,860,860,860,860,860,860,860,860,860,860,860,860,860,
860,860,860,860,860,860,860,860,860,860,860,860,860,860,860,860,
860,860,860,860,860,860,860,860,860,860,860,860,860,860,860,860,
860,860,860,860,860,860,860,860,860,860,860,860,860,860,860,860,
860,860,860,860,860,860,860,860,860,860,860,860,860,860,860,860,
860,860,860,860,860,860,860,860,860,860,860,860,860,860,860,860,
860,860,860,860,860,860,860,860,860,860,860,860,860,860,860,860,
860,860,860,860,860,860,860,860,860,860,860,860,860,860,860,860,
860,860,860,860,860,860,860,860,860,860,860,860,860,860,860,860,
860,860,860,860,860,860,860,860,860,860,860,860,860,860,860,860
</chunk>
   <chunk x="160" y="-96" width="16" height="16">
860,860,860,860,860,860,860,860,860,860,860,860,860,860,860,860,
860,860,860,860,860,860,860,860,860,860,860,860,860,860,860,860,
860,860,860,860,860,860,860,860,860,860,860,860,860,860,860,860,
860,860,860,860,860,860,860,860,860,860,860,860,860,860,860,860,
860,860,860,860,860,860,860,860,860,860,860,860,860,860,860,860,
860,860,860,860,860,860,860,860,860,860,860,860,860,860,860,860,
860,860,860,860,860,860,860,860,860,860,860,860,860,860,860,860,
860,860,860,860,860,860,860,860,860,860,860,860,860,860,860,860,
860,860,860,860,860,860,860,860,860,860,860,860,860,860,860,860,
860,860,860,860,860,860,860,860,860,860,860,860,860,860,860,860,
860,860,860,860,860,860,860,860,860,860,860,860,860,860,860,860,
860,860,860,860,860,860,860,860,860,860,860,860,860,860,860,860,
860,860,860,860,860,860,860,860,860,860,860,860,860,860,860,860,
860,860,860,860,860,860,860,860,860,860,860,860,860,860,860,860,
860,860,860,860,860,860,860,860,860,860,860,860,860,860,860,860,
860,860,860,860,860,860,860,860,860,860,860,860,860,860,860,860
</chunk>
   <chunk x="64" y="-80" width="16" height="16">
0,0,0,0,0,0,0,0,0,0,0,863,863,863,863,863,
0,0,0,0,0,863,863,863,863,863,863,860,860,860,860,860,
0,0,0,863,863,860,860,860,860,860,860,860,860,860,860,860,
0,0,863,860,860,860,860,860,860,860,860,860,860,860,860,860,
0,0,860,860,860,860,860,860,860,860,860,860,860,860,860,860,
0,0,860,860,860,860,860,860,860,860,860,860,860,860,860,860,
0,0,860,860,860,860,860,860,860,860,860,860,860,860,860,860,
0,0,860,860,860,860,860,860,651,651,655,860,860,860,860,860,
0,0,860,860,860,860,860,860,0,0,659,655,860,860,860,860,
0,0,860,860,860,860,860,860,0,0,0,659,655,860,860,860,
0,0,860,860,860,860,860,860,664,0,0,0,659,651,651,651,
0,0,860,860,860,860,860,860,0,0,0,0,0,0,0,0,
0,0,860,860,860,860,860,860,0,0,0,0,0,0,0,0,
0,0,860,860,860,860,860,860,664,0,0,0,860,860,860,860,
0,0,860,860,860,860,860,860,0,0,0,0,860,860,860,860,
0,0,860,860,860,860,860,860,0,0,0,0,860,860,860,860
</chunk>
   <chunk x="80" y="-80" width="16" height="16">
863,863,863,863,863,863,863,0,0,0,863,863,863,863,863,863,
860,860,860,860,860,860,860,0,0,860,860,860,860,860,860,860,
860,860,860,860,860,860,860,0,0,0,860,860,860,860,860,860,
860,860,860,860,860,860,860,0,0,0,0,860,860,860,860,860,
860,860,860,860,860,860,860,860,860,0,0,860,860,860,860,860,
860,860,860,860,860,860,860,0,0,0,0,860,860,860,860,860,
860,860,860,860,860,860,860,0,0,0,860,860,860,860,860,860,
860,860,860,860,860,860,860,0,0,0,0,860,860,860,860,860,
860,860,860,860,860,860,860,860,860,0,0,860,860,860,860,860,
860,860,860,860,860,860,860,860,0,0,0,860,860,860,860,860,
651,651,651,655,860,860,860,0,0,0,0,860,860,860,860,860,
0,0,0,657,860,860,860,0,0,860,860,860,860,860,860,860,
0,0,0,657,860,860,860,0,0,0,860,860,860,860,860,860,
664,0,0,657,860,860,860,664,0,0,0,860,860,860,860,860,
0,0,0,657,860,860,860,0,0,0,0,860,860,860,860,860,
0,0,0,657,860,860,860,0,0,0,0,860,860,860,860,860
</chunk>
   <chunk x="96" y="-80" width="16" height="16">
863,863,863,863,863,863,863,863,863,863,860,860,860,860,860,860,
860,860,860,860,860,860,860,860,860,860,860,860,860,860,860,860,
860,860,860,860,860,860,860,860,860,860,860,860,860,860,860,860,
860,860,860,860,860,860,860,860,860,860,860,860,860,860,860,860,
860,860,860,860,860,860,860,860,860,860,860,860,860,860,860,860,
860,860,860,860,860,860,860,860,860,860,860,860,860,860,860,860,
860,860,860,860,860,860,860,860,860,860,860,860,860,860,860,860,
860,860,860,860,860,860,860,860,860,860,860,860,860,860,860,860,
860,860,860,860,860,860,860,860,860,860,860,860,860,860,860,860,
860,860,860,860,860,860,860,860,860,860,860,860,860,860,860,860,
860,860,860,860,860,860,860,860,860,860,860,860,860,860,860,860,
860,860,860,860,860,860,860,860,860,860,860,860,860,860,860,860,
860,860,860,860,860,860,860,860,860,860,860,860,860,860,860,860,
860,860,860,860,860,860,860,860,860,860,860,860,860,860,860,860,
860,860,860,860,860,860,860,860,860,860,860,860,860,860,860,860,
860,860,860,860,860,860,860,860,860,860,860,860,860,860,860,860
</chunk>
   <chunk x="112" y="-80" width="16" height="16">
860,860,860,860,860,860,860,860,860,860,860,860,860,860,860,860,
860,860,860,860,860,860,860,860,860,860,860,860,860,860,860,860,
860,860,860,860,860,860,860,860,860,860,860,860,860,860,860,860,
860,860,860,860,860,860,860,860,860,860,860,860,860,860,860,860,
860,860,860,860,860,860,860,860,860,860,860,860,860,860,860,860,
860,860,860,860,860,860,860,860,860,860,860,860,860,860,860,860,
860,860,860,860,860,860,860,860,860,860,860,860,860,860,860,860,
860,860,860,860,860,860,860,860,860,860,860,860,860,860,860,860,
860,860,860,860,860,860,860,860,860,860,860,860,860,860,860,860,
860,860,860,860,860,860,860,860,860,860,860,860,860,860,860,860,
860,860,860,860,860,860,860,860,860,860,860,860,860,860,860,860,
860,860,860,860,860,860,860,860,860,860,860,860,860,860,860,860,
860,860,860,860,860,860,860,860,860,860,860,860,860,860,860,860,
860,860,860,860,860,860,860,860,860,860,860,860,860,860,860,860,
860,860,860,860,860,860,860,860,860,860,860,860,860,860,860,860,
860,860,860,860,860,860,860,860,860,860,860,860,860,860,860,860
</chunk>
   <chunk x="128" y="-80" width="16" height="16">
860,860,860,860,860,860,860,860,860,860,860,860,860,860,860,860,
860,860,860,860,860,860,860,860,860,860,860,860,860,860,860,860,
860,860,860,860,860,860,860,860,860,860,860,860,860,860,860,860,
860,860,860,860,860,860,860,860,860,860,860,860,860,860,860,860,
860,860,860,860,860,860,860,860,860,860,860,860,860,860,860,860,
860,860,860,860,860,860,860,860,860,860,860,860,860,860,860,860,
860,860,860,860,860,860,860,860,860,860,860,860,860,860,860,860,
860,860,860,860,860,860,860,860,860,860,860,860,860,860,860,860,
860,860,860,860,860,860,860,860,860,860,860,860,860,860,860,860,
860,860,860,860,860,860,860,860,860,860,860,860,860,860,860,860,
860,860,860,860,860,860,860,860,860,860,860,860,860,860,860,860,
860,860,860,860,860,860,860,860,860,860,860,860,860,860,860,860,
860,860,860,860,860,860,860,860,860,860,860,860,860,860,860,860,
860,860,860,860,860,860,860,860,860,860,860,860,860,860,860,860,
860,860,860,860,860,860,860,860,860,860,860,860,860,860,860,860,
860,860,860,860,860,860,860,860,860,860,860,860,860,860,860,860
</chunk>
   <chunk x="144" y="-80" width="16" height="16">
860,860,860,860,860,860,860,860,860,860,860,860,860,860,860,860,
860,860,860,860,860,860,860,860,860,860,860,860,860,860,860,860,
860,860,860,860,860,860,860,860,860,860,860,860,860,860,860,860,
860,860,860,860,860,860,860,860,860,860,860,860,860,860,860,860,
860,860,860,860,860,860,860,860,860,860,860,860,860,860,860,860,
860,860,860,860,860,860,860,860,860,860,860,860,860,860,860,860,
860,860,860,860,860,860,860,860,860,860,860,860,860,860,860,860,
860,860,860,860,860,860,860,860,860,860,860,860,860,860,860,860,
860,860,860,860,860,860,860,860,860,860,860,860,860,860,860,860,
860,860,860,860,860,860,860,860,860,860,860,860,860,860,860,860,
860,860,860,860,860,860,860,860,860,860,860,860,860,860,860,860,
860,860,860,860,860,860,860,860,860,860,860,860,860,860,860,860,
860,860,860,860,860,860,860,860,860,860,860,860,860,860,860,860,
860,860,860,860,860,860,860,860,860,860,860,860,860,860,860,860,
860,860,860,860,860,860,860,860,860,860,860,860,860,860,860,860,
860,860,860,860,860,860,860,860,860,860,860,860,860,860,860,860
</chunk>
   <chunk x="160" y="-80" width="16" height="16">
860,860,860,860,860,860,860,860,860,860,860,860,860,860,860,860,
860,860,860,860,860,860,860,860,860,860,860,860,860,860,860,860,
860,860,860,860,860,860,860,860,860,860,860,860,860,860,860,860,
860,860,860,860,860,860,860,860,860,860,860,860,860,860,860,860,
860,860,860,860,860,860,860,860,860,860,860,860,860,860,860,860,
860,860,860,860,860,860,860,860,860,860,860,860,860,860,860,860,
860,860,860,860,860,860,860,860,860,860,860,860,860,860,860,860,
860,860,860,860,860,860,860,860,860,860,860,860,860,860,860,860,
860,860,860,860,860,860,860,860,860,860,860,860,860,860,860,860,
860,860,860,860,860,860,860,860,860,860,860,860,860,860,860,860,
860,860,860,860,860,860,860,860,860,860,860,860,860,860,860,860,
860,860,860,860,860,860,860,860,860,860,860,860,860,860,860,860,
860,860,860,860,860,860,860,860,860,860,860,860,860,860,860,860,
860,860,860,860,860,860,860,860,860,860,860,860,860,860,860,860,
860,860,860,860,860,860,860,860,860,860,860,860,860,860,860,860,
860,860,860,860,860,860,860,860,860,860,860,860,860,860,860,860
</chunk>
   <chunk x="64" y="-64" width="16" height="16">
0,0,860,860,860,860,860,860,664,0,0,0,860,860,860,860,
0,0,860,860,860,860,860,860,0,0,0,0,860,860,860,860,
0,0,860,860,860,860,860,860,0,0,0,661,860,860,860,860,
0,0,860,860,860,860,860,860,0,0,0,0,860,860,860,860,
0,0,860,860,860,860,860,860,0,0,0,0,860,860,860,860,
0,0,860,860,860,860,860,860,0,0,0,661,860,860,860,860,
0,0,860,860,860,860,860,860,664,0,0,0,860,860,860,860,
0,0,860,860,860,860,860,860,0,0,0,0,860,860,860,860,
0,0,860,860,860,860,860,860,0,0,0,0,860,860,860,860,
0,0,0,860,860,860,860,860,664,0,0,0,860,860,860,860,
0,0,0,860,860,860,860,860,0,0,0,0,860,860,860,860,
0,0,0,860,860,860,860,860,0,0,0,0,860,860,860,860,
0,0,0,860,860,860,860,860,664,0,0,0,860,860,860,860,
0,0,0,860,860,860,860,860,0,0,0,0,860,860,860,860,
0,0,0,860,860,860,860,860,0,0,0,661,860,860,860,860,
0,0,0,860,860,860,860,860,0,0,0,0,860,860,860,860
</chunk>
   <chunk x="80" y="-64" width="16" height="16">
664,0,0,657,860,860,860,664,0,0,0,860,860,860,860,860,
0,0,0,657,860,860,860,0,0,0,0,860,860,860,860,860,
0,0,0,657,860,860,860,0,0,0,0,860,860,860,860,860,
664,0,0,657,860,860,860,664,0,0,0,860,860,860,860,860,
0,0,0,657,860,860,860,0,0,0,661,860,860,860,860,860,
0,0,0,657,860,860,860,0,0,0,0,860,860,860,860,860,
664,0,0,657,860,860,860,0,0,0,0,860,860,860,860,860,
0,0,0,657,860,860,860,0,0,0,661,860,860,860,860,860,
0,0,0,657,860,860,860,0,0,0,0,860,860,860,860,860,
0,0,0,657,860,860,860,664,0,0,0,860,860,860,860,860,
0,0,0,657,860,860,860,0,0,0,0,860,860,860,860,860,
0,0,0,657,860,860,860,0,0,0,0,860,860,860,860,860,
664,0,0,657,860,860,860,664,0,0,0,860,860,860,860,860,
0,0,0,657,860,860,860,0,0,0,860,860,860,860,860,860,
0,0,0,657,860,860,860,0,0,860,860,860,860,860,860,860,
664,0,0,657,860,860,860,0,0,0,860,860,860,860,860,860
</chunk>
   <chunk x="96" y="-64" width="16" height="16">
860,860,860,860,860,860,860,860,860,860,860,860,860,860,860,860,
860,860,860,860,860,860,860,860,860,860,860,860,860,860,860,860,
860,860,860,860,860,860,860,860,860,860,860,860,860,860,860,860,
860,860,860,860,860,860,860,860,860,860,860,860,860,860,860,860,
860,860,860,860,860,860,860,860,860,860,860,860,860,860,860,860,
860,860,860,860,860,860,860,860,860,860,860,860,860,860,860,860,
860,860,860,860,860,860,860,860,860,860,860,860,860,860,860,860,
860,860,860,860,860,860,860,860,860,860,860,860,860,860,860,860,
860,860,860,860,860,860,860,860,860,860,860,860,860,860,860,860,
860,860,860,860,860,860,860,860,860,860,860,860,860,860,860,860,
860,860,860,860,860,860,860,860,860,860,860,860,860,860,860,860,
860,860,860,860,860,860,860,860,860,860,860,860,860,860,860,860,
860,860,860,860,860,860,860,860,860,860,860,860,860,860,860,860,
860,860,860,860,860,860,860,860,860,860,860,860,860,860,860,860,
860,860,860,860,860,860,860,860,860,860,860,860,860,860,860,860,
860,860,860,860,860,860,860,860,860,860,860,860,860,860,860,860
</chunk>
   <chunk x="112" y="-64" width="16" height="16">
860,860,860,860,860,860,860,860,860,860,860,860,860,860,860,860,
860,860,860,860,860,860,860,860,860,860,860,860,860,860,860,860,
860,860,860,860,860,860,860,860,860,860,860,860,860,860,860,860,
860,860,860,860,860,860,860,860,860,860,860,860,860,860,860,860,
860,860,860,860,860,860,860,860,860,860,860,860,860,860,860,860,
860,860,860,860,860,860,860,860,860,860,860,860,860,860,860,860,
860,860,860,860,860,860,860,860,860,860,860,860,860,860,860,860,
860,860,860,860,860,860,860,860,860,860,860,860,860,860,860,860,
860,860,860,860,860,860,860,860,860,860,860,860,860,860,860,860,
860,860,860,860,860,860,860,860,860,860,860,860,860,860,860,860,
860,860,860,860,860,860,860,860,860,860,860,860,860,860,860,860,
860,860,860,860,860,860,860,860,860,860,860,860,860,860,860,860,
860,860,860,860,860,860,860,860,860,860,860,860,860,860,860,860,
860,860,860,860,860,860,860,860,860,860,860,860,860,860,860,860,
860,860,860,860,860,860,860,860,860,860,860,860,860,860,860,860,
860,860,860,860,860,860,860,860,860,860,860,860,860,860,860,860
</chunk>
   <chunk x="128" y="-64" width="16" height="16">
860,860,860,860,860,860,860,860,860,860,860,860,860,860,860,860,
860,860,860,860,860,860,860,860,860,860,860,860,860,860,860,860,
860,860,860,860,860,860,860,860,860,860,860,860,860,860,860,860,
860,860,860,860,860,860,860,860,860,860,860,860,860,860,860,860,
860,860,860,860,860,860,860,860,860,860,860,860,860,860,860,860,
860,860,860,860,860,860,860,860,860,860,860,860,860,860,860,860,
860,860,860,860,860,860,860,860,860,860,860,860,860,860,860,860,
860,860,860,860,860,860,860,860,860,860,860,860,860,860,860,860,
860,860,860,860,860,860,860,860,860,860,860,860,860,860,860,860,
860,860,860,860,860,860,860,860,860,860,860,860,860,860,860,860,
860,860,860,860,860,860,860,860,860,860,860,860,860,860,860,860,
860,860,860,860,860,860,860,860,860,860,860,860,860,860,860,860,
860,860,860,860,860,860,860,860,860,860,860,860,860,860,860,860,
860,860,860,860,860,860,860,860,860,860,860,860,860,860,860,860,
860,860,860,860,860,860,860,860,860,860,860,860,860,860,860,860,
860,860,860,860,860,860,860,860,860,860,860,860,860,860,860,860
</chunk>
   <chunk x="144" y="-64" width="16" height="16">
860,860,860,860,860,860,860,860,860,860,860,860,860,860,860,860,
860,860,860,860,860,860,860,860,860,860,860,860,860,860,860,860,
860,860,860,860,860,860,860,860,860,860,860,860,860,860,860,860,
860,860,860,860,860,860,860,860,860,860,860,860,860,860,860,860,
860,860,860,860,860,860,860,860,860,860,860,860,860,860,860,860,
860,860,860,860,860,860,860,860,860,860,860,860,860,860,860,860,
860,860,860,860,860,860,860,860,860,860,860,860,860,860,860,860,
860,860,860,860,860,860,860,860,860,860,860,860,860,860,860,860,
860,860,860,860,860,860,860,860,860,860,860,860,860,860,860,860,
860,860,860,860,860,860,860,860,860,860,860,860,860,860,860,860,
860,860,860,860,860,860,860,860,860,860,860,860,860,860,860,860,
860,860,860,860,860,860,860,860,860,860,860,860,860,860,860,860,
860,860,860,860,860,860,860,860,860,860,860,860,860,860,860,860,
860,860,860,860,860,860,860,860,860,860,860,860,860,860,860,860,
860,860,860,860,860,860,860,860,860,860,860,860,860,860,860,860,
860,860,860,860,860,860,860,860,860,860,860,860,860,860,860,860
</chunk>
   <chunk x="160" y="-64" width="16" height="16">
860,860,860,860,860,860,860,860,860,860,860,860,860,860,860,860,
860,860,860,860,860,860,860,860,860,860,860,860,860,860,860,860,
860,860,860,860,860,860,860,860,860,860,860,860,860,860,860,860,
860,860,860,860,860,860,860,860,860,860,860,860,860,860,860,860,
860,860,860,860,860,860,860,860,860,860,860,860,860,860,860,860,
860,860,860,860,860,860,860,860,860,860,860,860,860,860,860,860,
860,860,860,860,860,860,860,860,860,860,860,860,860,860,860,860,
860,860,860,860,860,860,860,860,860,860,860,860,860,860,860,860,
860,860,860,860,860,860,860,860,860,860,860,860,860,860,860,860,
860,860,860,860,860,860,860,860,860,860,860,860,860,860,860,860,
860,860,860,860,860,860,860,860,860,860,860,860,860,860,860,860,
860,860,860,860,860,860,860,860,860,860,860,860,860,860,860,860,
860,860,860,860,860,860,860,860,860,860,860,860,860,860,860,860,
860,860,860,860,860,860,860,860,860,860,860,860,860,860,860,860,
860,860,860,860,860,860,860,860,860,860,860,860,860,860,860,860,
860,860,860,860,860,860,860,860,860,860,860,860,860,860,860,860
</chunk>
   <chunk x="48" y="-48" width="16" height="16">
0,0,0,0,0,0,0,0,0,0,0,0,0,0,0,0,
0,0,0,0,0,0,0,0,0,0,0,0,0,0,0,0,
0,0,0,0,0,0,0,0,0,0,0,0,0,0,0,0,
0,0,0,0,0,0,0,0,0,0,0,0,0,0,0,0,
0,0,0,0,0,0,0,0,0,0,0,0,0,0,0,0,
0,0,0,0,0,0,0,0,0,0,0,0,0,0,0,0,
0,0,0,0,0,0,0,0,0,0,0,0,0,0,0,0,
0,0,0,0,0,0,0,0,0,0,0,0,0,0,0,0,
0,0,0,0,0,0,0,0,0,0,0,0,0,0,0,0,
0,0,0,0,0,0,0,0,0,0,0,0,0,0,0,0,
0,0,0,0,0,0,312,313,314,315,316,0,0,0,0,0,
0,0,0,0,0,0,383,384,385,386,387,0,0,0,0,0,
0,0,0,0,0,0,454,455,456,457,458,0,0,0,0,0,
0,0,0,0,0,0,0,526,0,528,529,0,0,0,0,0,
0,0,0,0,0,0,0,597,0,599,0,0,0,0,0,0,
0,0,0,860,860,860,860,860,658,860,860,860,860,860,860,860
</chunk>
   <chunk x="64" y="-48" width="16" height="16">
0,0,0,0,860,860,860,860,664,0,0,0,860,860,860,860,
0,0,0,0,860,860,860,860,0,0,0,0,860,860,860,860,
0,0,0,0,860,860,860,860,0,0,0,0,860,860,860,860,
0,0,0,0,0,860,860,860,664,0,0,0,860,860,860,860,
0,0,0,0,0,0,860,860,0,0,0,661,860,860,860,860,
0,0,0,0,0,0,860,860,0,0,0,0,860,860,860,860,
0,0,0,0,0,0,0,860,0,0,0,0,860,860,860,860,
0,0,0,0,0,0,0,860,0,0,0,661,860,860,860,860,
0,0,0,0,0,0,0,0,0,0,0,0,860,860,860,860,
0,0,0,0,0,0,0,0,0,0,0,0,860,860,860,0,
0,0,0,0,0,0,0,0,0,0,0,661,860,860,654,0,
0,0,0,0,0,0,0,0,0,0,0,0,0,0,0,0,
0,0,0,0,0,0,0,0,0,0,0,0,0,0,0,0,
0,0,0,0,0,0,0,0,0,860,860,860,860,860,860,860,
0,860,860,860,860,860,860,860,860,860,860,860,860,860,860,860,
860,860,860,860,860,860,860,860,860,860,860,860,860,860,860,860
</chunk>
   <chunk x="80" y="-48" width="16" height="16">
0,0,0,657,860,860,860,0,0,0,0,860,860,860,860,860,
0,0,0,657,860,860,860,860,860,0,0,860,860,860,860,860,
664,0,0,657,860,860,860,860,0,0,0,860,860,860,860,860,
0,0,0,659,655,860,860,0,0,0,860,860,860,860,860,860,
0,0,0,0,659,651,651,0,0,0,860,860,860,860,860,860,
664,0,0,0,0,0,0,0,0,860,860,860,860,860,860,860,
0,0,0,0,0,0,0,0,0,860,860,860,860,860,860,860,
0,0,0,649,650,650,860,860,651,860,860,860,860,860,860,860,
0,0,0,0,860,860,860,860,0,860,860,860,860,860,860,860,
0,0,0,0,860,860,860,860,860,860,860,860,860,860,860,860,
0,0,0,0,860,860,860,860,860,860,860,860,860,860,860,860,
0,0,0,0,860,860,860,860,860,860,860,860,860,860,860,860,
0,0,0,0,860,860,860,860,860,860,860,860,860,860,860,860,
860,860,860,860,860,860,860,860,860,860,860,860,860,860,860,860,
860,860,860,860,860,860,860,860,860,860,860,860,860,860,860,860,
860,860,860,860,860,860,860,860,860,860,860,860,860,860,860,860
</chunk>
   <chunk x="96" y="-48" width="16" height="16">
860,860,860,860,860,860,860,860,860,860,860,860,860,860,860,860,
860,860,860,860,860,860,860,860,860,860,860,860,860,860,860,860,
860,860,860,860,860,860,860,860,860,860,860,860,860,860,860,860,
860,860,860,860,860,860,860,860,860,860,860,860,860,860,860,860,
860,860,860,860,860,860,860,860,860,860,860,860,860,860,860,860,
860,860,860,860,860,860,860,860,860,860,860,860,860,860,860,860,
860,860,860,860,860,860,860,860,860,860,860,860,860,860,860,860,
860,860,860,860,860,860,860,860,860,860,860,860,860,860,860,860,
860,860,860,860,860,860,860,860,860,860,860,860,860,860,860,860,
860,860,860,860,860,860,860,860,860,860,860,860,860,860,860,860,
860,860,860,860,860,860,860,860,860,860,860,860,860,860,860,860,
860,860,860,860,860,860,860,860,860,860,860,860,860,860,860,860,
860,860,860,860,860,860,860,860,860,860,860,860,860,860,860,860,
860,860,860,860,860,860,860,860,860,860,860,860,860,860,860,860,
860,860,860,860,860,860,860,860,860,860,860,860,860,860,860,860,
860,860,860,860,860,860,860,860,860,860,860,860,860,860,860,860
</chunk>
   <chunk x="112" y="-48" width="16" height="16">
860,860,860,860,860,860,860,860,860,860,860,860,860,860,860,860,
860,860,860,860,860,860,860,860,860,860,860,860,860,860,860,860,
860,860,860,860,860,860,860,860,860,860,860,860,860,860,860,860,
860,860,860,860,860,860,860,860,860,860,860,860,860,860,860,860,
860,860,860,860,860,860,860,860,860,860,860,860,860,860,860,860,
860,860,860,860,860,860,860,860,860,860,860,860,860,860,860,860,
860,860,860,860,860,860,860,860,860,860,860,860,860,860,860,860,
860,860,860,860,860,860,860,860,860,860,860,860,860,860,860,860,
860,860,860,860,860,860,860,860,860,860,860,860,860,860,860,860,
860,860,860,860,860,860,860,860,860,860,860,860,860,860,860,860,
860,860,860,860,860,860,860,860,860,860,860,860,860,860,860,860,
860,860,860,860,860,860,860,860,860,860,860,860,860,860,860,860,
860,860,860,860,860,860,860,860,860,860,860,860,860,860,860,860,
860,860,860,860,860,860,860,860,860,860,860,860,860,860,860,860,
860,860,860,860,860,860,860,860,860,860,860,860,860,860,860,860,
860,860,860,860,860,860,860,860,860,860,860,860,860,860,860,860
</chunk>
   <chunk x="128" y="-48" width="16" height="16">
860,860,860,860,860,860,860,860,860,860,860,860,860,860,860,860,
860,860,860,860,860,860,860,860,860,860,860,860,860,860,860,860,
860,860,860,860,860,860,860,860,860,860,860,860,860,860,860,860,
860,860,860,860,860,860,860,860,860,860,860,860,860,860,860,860,
860,860,860,860,860,860,860,860,860,860,860,860,860,860,860,860,
860,860,860,860,860,860,860,860,860,860,860,860,860,860,860,860,
860,860,860,860,860,860,860,860,860,860,860,860,860,860,860,860,
860,860,860,860,860,860,860,860,860,860,860,860,860,860,860,860,
860,860,860,860,860,860,860,860,860,860,860,860,860,860,860,860,
860,860,860,860,860,860,860,860,860,860,860,860,860,860,860,860,
860,860,860,860,860,860,860,860,860,860,860,860,860,860,860,860,
860,860,860,860,860,860,860,860,860,860,860,860,860,860,860,860,
860,860,860,860,860,860,860,860,860,860,860,860,860,860,860,860,
860,860,860,860,860,860,860,860,860,860,860,860,860,860,860,860,
860,860,860,860,860,860,860,860,860,860,860,860,860,860,860,860,
860,860,860,860,860,860,860,860,860,860,860,860,860,860,860,860
</chunk>
   <chunk x="144" y="-48" width="16" height="16">
860,860,860,860,860,860,860,860,860,860,860,860,860,860,860,860,
860,860,860,860,860,860,860,860,860,860,860,860,860,860,860,860,
860,860,860,860,860,860,860,860,860,860,860,860,860,860,860,860,
860,860,860,860,860,860,860,860,860,860,860,860,860,860,860,860,
860,860,860,860,860,860,860,860,860,860,860,860,860,860,860,860,
860,860,860,860,860,860,860,860,860,860,860,860,860,860,860,860,
860,860,860,860,860,860,860,860,860,860,860,860,860,860,860,860,
860,860,860,860,860,860,860,860,860,860,860,860,860,860,860,860,
860,860,860,860,860,860,860,860,860,860,860,860,860,860,860,860,
860,860,860,860,860,860,860,860,860,860,860,860,860,860,860,860,
860,860,860,860,860,860,860,860,860,860,860,860,860,860,860,860,
860,860,860,860,860,860,860,860,860,860,860,860,860,860,860,860,
860,860,860,860,860,860,860,860,860,860,860,860,860,860,860,860,
860,860,860,860,860,860,860,860,860,860,860,860,860,860,860,860,
860,860,860,860,860,860,860,860,860,860,860,860,860,860,860,860,
860,860,860,860,860,860,860,860,860,860,860,860,860,860,860,860
</chunk>
   <chunk x="160" y="-48" width="16" height="16">
860,860,860,860,860,860,860,860,860,860,860,860,860,860,860,860,
860,860,860,860,860,860,860,860,860,860,860,860,860,860,860,860,
860,860,860,860,860,860,860,860,860,860,860,860,860,860,860,860,
860,860,860,860,860,860,860,860,860,860,860,860,860,860,860,860,
860,860,860,860,860,860,860,860,860,860,860,860,860,860,860,860,
860,860,860,860,860,860,860,860,860,860,860,860,860,860,860,860,
860,860,860,860,860,860,860,860,860,860,860,860,860,860,860,860,
860,860,860,860,860,860,860,860,860,860,860,860,860,860,860,860,
860,860,860,860,860,860,860,860,860,860,860,860,860,860,860,860,
860,860,860,860,860,860,860,860,860,860,860,860,860,860,860,860,
860,860,860,860,860,860,860,860,860,860,860,860,860,860,860,860,
860,860,860,860,860,860,860,860,860,860,860,860,860,860,860,860,
860,860,860,860,860,860,860,860,860,860,860,860,860,860,860,860,
860,860,860,860,860,860,860,860,860,860,860,860,860,860,860,860,
860,860,860,860,860,860,860,860,860,860,860,860,860,860,860,860,
860,860,860,860,860,860,860,860,860,860,860,860,860,860,860,860
</chunk>
   <chunk x="32" y="-32" width="16" height="16">
0,0,0,0,0,0,0,0,0,0,0,0,0,0,0,0,
0,0,0,0,0,0,0,0,0,0,0,0,0,0,0,0,
0,0,0,0,0,0,0,0,0,0,0,0,0,0,0,0,
0,0,0,0,0,0,0,0,0,0,0,0,0,0,0,0,
0,0,0,0,0,0,0,0,0,0,0,0,0,0,0,661,
0,0,0,0,0,0,0,0,0,0,0,0,0,0,0,0,
0,0,0,0,0,0,0,0,0,0,0,0,0,0,0,649,
0,0,0,0,0,0,0,0,0,0,0,0,0,0,0,0,
0,0,0,0,0,0,0,0,0,0,0,0,0,0,0,0,
0,0,0,0,0,0,0,0,0,0,0,0,0,0,0,0,
0,0,0,0,0,0,0,0,0,0,0,0,0,0,0,0,
0,0,0,0,0,0,0,0,0,0,0,0,0,0,0,0,
0,0,0,0,0,0,0,0,0,0,0,0,0,0,0,0,
0,0,0,0,0,0,0,0,0,0,0,0,0,0,0,0,
0,0,0,0,0,0,0,0,0,0,0,0,0,0,0,0,
0,0,0,0,0,0,0,0,0,0,0,0,0,0,0,0
</chunk>
   <chunk x="48" y="-32" width="16" height="16">
0,860,860,860,860,860,860,860,658,860,860,860,860,860,860,860,
860,860,860,860,860,860,860,860,658,860,860,860,860,860,860,860,
860,860,860,860,860,860,860,860,658,860,860,860,860,860,860,860,
860,860,860,860,860,860,860,860,658,860,860,860,860,860,860,860,
651,651,651,655,860,860,860,860,658,860,860,860,860,860,860,860,
0,0,0,659,651,651,651,651,656,655,860,860,860,860,860,860,
650,666,0,0,0,0,0,0,0,659,655,860,860,860,860,860,
860,665,666,0,0,0,0,0,0,0,659,655,860,860,860,860,
860,860,665,666,0,0,0,0,0,0,0,657,860,860,860,860,
0,860,860,658,0,0,0,0,862,0,0,657,860,860,860,860,
0,0,860,662,663,664,0,0,0,0,0,657,860,860,860,860,
0,0,0,0,0,0,0,0,0,0,0,657,860,860,860,860,
0,0,0,0,0,0,0,0,0,0,0,661,860,860,860,860,
0,0,0,0,0,0,0,0,0,0,0,657,860,860,860,860,
0,0,0,0,0,0,0,0,0,0,653,652,860,860,860,860,
0,0,0,0,717,0,0,0,0,653,652,860,860,860,860,860
</chunk>
   <chunk x="64" y="-32" width="16" height="16">
860,860,860,860,860,860,860,860,860,860,860,860,860,860,860,860,
860,860,860,860,860,860,860,860,860,860,860,860,860,860,860,860,
860,860,860,860,860,860,860,860,860,860,860,860,860,860,860,860,
860,860,860,860,860,860,860,860,860,860,860,860,860,860,860,860,
860,860,860,860,860,860,860,860,860,860,860,860,860,860,860,860,
860,860,860,860,860,860,860,860,860,860,860,860,860,860,860,860,
860,860,860,860,860,860,860,860,860,860,860,860,860,860,860,860,
860,860,860,860,860,860,860,860,860,860,860,860,860,860,860,860,
860,860,860,860,860,860,860,860,860,860,860,860,860,860,860,860,
860,860,860,860,860,860,860,860,860,860,860,860,860,860,860,860,
860,860,860,860,860,860,860,860,860,860,860,860,860,860,860,860,
860,860,860,860,860,860,860,860,860,860,860,860,860,860,860,860,
860,860,860,860,860,860,860,860,860,860,860,860,860,860,860,860,
860,860,860,860,860,860,860,860,860,860,860,860,860,860,860,860,
860,860,860,860,860,860,860,860,860,860,860,860,860,860,860,860,
860,860,860,860,860,860,860,860,860,860,860,860,860,860,860,860
</chunk>
   <chunk x="80" y="-32" width="16" height="16">
860,860,860,860,860,860,860,860,860,860,860,860,860,860,860,860,
860,860,860,860,860,860,860,860,860,860,860,860,860,860,860,860,
860,860,860,860,860,860,860,860,860,860,860,860,860,860,860,860,
860,860,860,860,860,860,860,860,860,860,860,860,860,860,860,860,
860,860,860,860,860,860,860,860,860,860,860,860,860,860,860,860,
860,860,860,860,860,860,860,860,860,860,860,860,860,860,860,860,
860,860,860,860,860,860,860,860,860,860,860,860,860,860,860,860,
860,860,860,860,860,860,860,860,860,860,860,860,860,860,860,860,
860,860,860,860,860,860,860,860,860,860,860,860,860,860,860,860,
860,860,860,860,860,860,860,860,860,860,860,860,860,860,860,860,
860,860,860,860,860,860,860,860,860,860,860,860,860,860,860,860,
860,860,860,860,860,860,860,860,860,860,860,860,860,860,860,860,
860,860,860,860,860,860,860,860,860,860,860,860,860,860,860,860,
860,860,860,860,860,860,860,860,860,860,860,860,860,860,860,860,
860,860,860,860,860,860,860,860,860,860,860,860,860,860,860,860,
860,860,860,860,860,860,860,860,860,860,860,860,860,860,860,860
</chunk>
   <chunk x="96" y="-32" width="16" height="16">
860,860,860,860,860,860,860,860,860,860,860,860,860,860,860,860,
860,860,860,860,860,860,860,860,860,860,860,860,860,860,860,860,
860,860,860,860,860,860,860,860,860,860,860,860,860,860,860,860,
860,860,860,860,860,860,860,860,860,860,860,860,860,860,860,860,
860,860,860,860,860,860,860,860,860,860,860,860,860,860,860,860,
860,860,860,860,860,860,860,860,860,860,860,860,860,860,860,860,
860,860,860,860,860,860,860,860,860,860,860,860,860,860,860,860,
860,860,860,860,860,860,860,860,860,860,860,860,860,860,860,860,
860,860,860,860,860,860,860,860,860,860,860,860,860,860,860,860,
860,860,860,860,860,860,860,860,860,860,860,860,860,860,860,860,
860,860,860,860,860,860,860,860,860,860,860,860,860,860,860,860,
860,860,860,860,860,860,860,860,860,860,860,860,860,860,860,860,
860,860,860,860,860,860,860,860,860,860,860,860,860,860,860,860,
860,860,860,860,860,860,860,860,860,860,860,860,860,860,860,860,
860,860,860,860,860,860,860,860,860,860,860,860,860,860,860,860,
860,860,860,860,860,860,860,860,860,860,860,860,860,860,860,860
</chunk>
   <chunk x="112" y="-32" width="16" height="16">
860,860,860,860,860,860,860,860,860,860,860,860,860,860,860,860,
860,860,860,860,860,860,860,860,860,860,860,860,860,860,860,860,
860,860,860,860,860,860,860,860,860,860,860,860,860,860,860,860,
860,860,860,860,860,860,860,860,860,860,860,860,860,860,860,860,
860,860,860,860,860,860,860,860,860,860,860,860,860,860,860,860,
860,860,860,860,860,860,860,860,860,860,860,860,860,860,860,860,
860,860,860,860,860,860,860,860,860,860,860,860,860,860,860,860,
860,860,860,860,860,860,860,860,860,860,860,860,860,860,860,860,
860,860,860,860,860,860,860,860,860,860,860,860,860,860,860,860,
860,860,860,860,860,860,860,860,860,860,860,860,860,860,860,860,
860,860,860,860,860,860,860,860,860,860,860,860,860,860,860,860,
860,860,860,860,860,860,860,860,860,860,860,860,860,860,860,860,
860,860,860,860,860,860,860,860,860,860,860,860,860,860,860,860,
860,860,860,860,860,860,860,860,860,860,860,860,860,860,860,860,
860,860,860,860,860,860,860,860,860,860,860,860,860,860,860,860,
860,860,860,860,860,860,860,860,860,860,860,860,860,860,860,860
</chunk>
   <chunk x="128" y="-32" width="16" height="16">
860,860,860,860,860,860,860,860,860,860,860,860,860,860,860,860,
860,860,860,860,860,860,860,860,860,860,860,860,860,860,860,860,
860,860,860,860,860,860,860,860,860,860,860,860,860,860,860,860,
860,860,860,860,860,860,860,860,860,860,860,860,860,860,860,860,
860,860,860,860,860,860,860,860,860,860,860,860,860,860,860,860,
860,860,860,860,860,860,860,860,860,860,860,860,860,860,860,860,
860,860,860,860,860,860,860,860,860,860,860,860,860,860,860,860,
860,860,860,860,860,860,860,860,860,860,860,860,860,860,860,860,
860,860,860,860,860,860,860,860,860,860,860,860,860,860,860,860,
860,860,860,860,860,860,860,860,860,860,860,860,860,860,860,860,
860,860,860,860,860,860,860,860,860,860,860,860,860,860,860,860,
860,860,860,860,860,860,860,860,860,860,860,860,860,860,860,860,
860,860,860,860,860,860,860,860,860,860,860,860,860,860,860,860,
860,860,860,860,860,860,860,860,860,860,860,860,860,860,860,860,
860,860,860,860,860,860,860,860,860,860,860,860,860,860,860,860,
860,860,860,860,860,860,860,860,860,860,860,860,860,860,860,860
</chunk>
   <chunk x="144" y="-32" width="16" height="16">
860,860,860,860,860,860,860,860,860,860,860,860,860,860,860,860,
860,860,860,860,860,860,860,860,860,860,860,860,860,860,860,860,
860,860,860,860,860,860,860,860,860,860,860,860,860,860,860,860,
860,860,860,860,860,860,860,860,860,860,860,860,860,860,860,860,
860,860,860,860,860,860,860,860,860,860,860,860,860,860,860,860,
860,860,860,860,860,860,860,860,860,860,860,860,860,860,860,860,
860,860,860,860,860,860,860,860,860,860,860,860,860,860,860,860,
860,860,860,860,860,860,860,860,860,860,860,860,860,860,860,860,
860,860,860,860,860,860,860,860,860,860,860,860,860,860,860,860,
860,860,860,860,860,860,860,860,860,860,860,860,860,860,860,860,
860,860,860,860,860,860,860,860,860,860,860,860,860,860,860,860,
860,860,860,860,860,860,860,860,860,860,860,860,860,860,860,860,
860,860,860,860,860,860,860,860,860,860,860,860,860,860,860,860,
860,860,860,860,860,860,860,860,860,860,860,860,860,860,860,860,
860,860,860,860,860,860,860,860,860,860,860,860,860,860,860,860,
860,860,860,860,860,860,860,860,860,860,860,860,860,860,860,860
</chunk>
   <chunk x="160" y="-32" width="16" height="16">
860,860,860,860,860,860,860,860,860,860,860,860,860,860,860,860,
860,860,860,860,860,860,860,860,860,860,860,860,860,860,860,860,
860,860,860,860,860,860,860,860,860,860,860,860,860,860,860,860,
860,860,860,860,860,860,860,860,860,860,860,860,860,860,860,860,
860,860,860,860,860,860,860,860,860,860,860,860,860,860,860,860,
860,860,860,860,860,860,860,860,860,860,860,860,860,860,860,860,
860,860,860,860,860,860,860,860,860,860,860,860,860,860,860,860,
860,860,860,860,860,860,860,860,860,860,860,860,860,860,860,860,
860,860,860,860,860,860,860,860,860,860,860,860,860,860,860,860,
860,860,860,860,860,860,860,860,860,860,860,860,860,860,860,860,
860,860,860,860,860,860,860,860,860,860,860,860,860,860,860,860,
860,860,860,860,860,860,860,860,860,860,860,860,860,860,860,860,
860,860,860,860,860,860,860,860,860,860,860,860,860,860,860,860,
860,860,860,860,860,860,860,860,860,860,860,860,860,860,860,860,
860,860,860,860,860,860,860,860,860,860,860,860,860,860,860,860,
860,860,860,860,860,860,860,860,860,860,860,860,860,860,860,860
</chunk>
   <chunk x="0" y="-16" width="16" height="16">
0,0,0,0,0,0,0,0,0,0,0,0,0,0,0,0,
0,0,0,0,0,0,0,0,0,0,0,0,0,0,0,0,
0,0,0,0,0,0,0,0,0,0,0,0,0,0,0,0,
0,0,0,0,0,0,0,0,0,0,0,0,0,0,0,0,
0,0,0,0,0,0,0,0,0,0,0,0,0,0,0,0,
0,0,0,0,0,0,0,0,0,0,0,0,0,0,0,0,
0,0,0,0,0,0,0,0,0,0,0,0,0,0,0,0,
1,2,3,4,5,6,0,0,0,0,0,0,0,0,0,0,
72,73,74,75,76,77,0,0,0,0,0,0,0,0,0,0,
143,144,145,146,147,148,149,0,0,0,0,0,0,0,0,0,
214,215,216,217,218,219,220,0,0,0,0,0,0,0,0,0,
285,286,287,288,289,290,291,0,0,0,0,0,0,0,0,0,
356,357,358,359,360,361,362,0,0,0,0,0,0,0,0,0,
79,79,79,79,79,79,79,0,0,0,0,0,0,0,0,0,
9,9,9,9,9,9,9,79,0,0,0,0,0,0,0,0,
9,9,9,9,9,9,9,9,79,0,0,0,0,0,0,0
</chunk>
   <chunk x="16" y="-16" width="16" height="16">
0,0,0,0,0,0,0,0,0,0,0,0,0,0,0,0,
0,0,0,0,0,0,0,0,0,0,0,0,0,0,0,0,
0,0,0,0,0,0,0,0,0,0,0,0,0,0,0,0,
0,0,0,0,0,0,0,0,0,0,0,0,0,0,0,0,
0,0,0,0,0,0,0,0,0,0,0,0,0,0,0,0,
0,0,0,0,0,0,0,0,0,0,0,0,0,0,0,0,
0,0,0,0,0,0,0,0,0,0,0,0,0,0,0,0,
0,0,0,0,0,0,0,0,0,0,0,0,0,0,0,0,
0,0,0,0,0,0,0,0,0,0,0,0,0,0,0,0,
0,0,0,0,0,0,0,0,0,0,0,0,0,153,154,155,
0,0,0,0,0,0,0,0,0,0,0,0,0,224,225,226,
0,0,0,0,0,0,0,0,0,0,0,0,294,295,296,297,
0,0,0,0,0,0,0,0,0,0,0,0,365,366,367,368,
0,0,0,0,0,0,0,0,0,0,0,0,436,437,438,439,
0,0,0,0,0,0,0,0,0,0,0,0,507,508,509,510,
0,0,0,0,0,0,0,0,0,0,0,0,578,579,580,581
</chunk>
   <chunk x="32" y="-16" width="16" height="16">
0,0,0,0,0,0,0,0,0,0,0,0,0,0,0,0,
0,0,0,0,0,0,0,0,0,0,0,0,0,0,0,0,
0,0,0,0,0,0,0,0,0,0,0,0,0,0,0,0,
0,0,0,0,0,0,0,0,0,0,0,0,0,0,0,0,
0,0,0,0,0,0,0,0,0,0,0,0,0,0,0,0,
0,0,0,0,0,0,0,0,0,0,0,0,0,0,0,860,
0,0,0,0,0,0,0,0,0,0,0,0,0,860,860,860,
0,0,0,0,18,19,20,21,22,23,24,25,860,860,860,860,
0,86,87,88,89,90,91,92,93,94,95,96,97,860,860,860,
156,157,158,159,160,161,162,163,164,165,166,167,168,169,860,860,
227,228,229,230,231,232,233,234,235,236,237,238,239,240,860,860,
298,299,300,301,302,303,304,305,306,307,308,309,310,860,860,860,
369,370,371,372,373,374,375,376,377,378,379,380,381,860,860,860,
440,441,442,443,444,445,446,447,448,449,450,451,452,860,860,860,
511,512,513,514,515,516,517,518,519,520,521,522,523,524,860,860,
582,583,584,585,586,587,588,589,590,591,592,593,594,595,596,860
</chunk>
   <chunk x="48" y="-16" width="16" height="16">
0,0,649,650,650,650,650,650,650,652,860,860,860,860,860,860,
0,0,860,860,860,860,860,860,860,860,860,860,860,860,860,860,
0,0,860,860,860,860,860,860,860,860,860,860,860,860,860,860,
0,0,860,860,860,860,860,860,860,860,860,860,860,860,860,860,
0,860,860,860,860,860,860,860,860,860,860,860,860,860,860,860,
860,860,860,860,860,860,860,860,860,860,860,860,860,860,860,860,
860,860,860,860,860,860,860,860,860,860,860,860,860,860,860,860,
860,860,860,860,860,860,860,860,860,860,860,860,860,860,860,860,
860,860,860,860,860,860,860,860,860,860,860,860,860,860,860,860,
860,860,860,860,860,860,860,860,860,860,860,860,860,860,860,860,
860,860,860,860,860,860,860,860,860,860,860,860,860,860,860,860,
860,860,860,860,860,860,860,860,860,860,860,860,860,860,860,860,
860,860,860,860,860,860,860,860,860,860,860,860,860,860,860,860,
860,860,860,860,860,860,860,860,860,860,860,860,860,860,860,860,
860,860,860,860,860,860,860,860,860,860,860,860,860,860,860,860,
860,860,860,860,860,860,860,860,860,860,860,860,860,860,860,860
</chunk>
   <chunk x="64" y="-16" width="16" height="16">
860,860,860,860,860,860,860,860,860,860,860,860,860,860,860,860,
860,860,860,860,860,860,860,860,860,860,860,860,860,860,860,860,
860,860,860,860,860,860,860,860,860,860,860,860,860,860,860,860,
860,860,860,860,860,860,860,860,860,860,860,860,860,860,860,860,
860,860,860,860,860,860,860,860,860,860,860,860,860,860,860,860,
860,860,860,860,860,860,860,860,860,860,860,860,860,860,860,860,
860,860,860,860,860,860,860,860,860,860,860,860,860,860,860,860,
860,860,860,860,860,860,860,860,860,860,860,860,860,860,860,860,
860,860,860,860,860,860,860,860,860,860,860,860,860,860,860,860,
860,860,860,860,860,860,860,860,860,860,860,860,860,860,860,860,
860,860,860,860,860,860,860,860,860,860,860,860,860,860,860,860,
860,860,860,860,860,860,860,860,860,860,860,860,860,860,860,860,
860,860,860,860,860,860,860,860,860,860,860,860,860,860,860,860,
860,860,860,860,860,860,860,860,860,860,860,860,860,860,860,860,
860,860,860,860,860,860,860,860,860,860,860,860,860,860,860,860,
860,860,860,860,860,860,860,860,860,860,860,860,860,860,860,860
</chunk>
   <chunk x="80" y="-16" width="16" height="16">
860,860,860,860,860,860,860,860,860,860,860,860,860,860,860,860,
860,860,860,860,860,860,860,860,860,860,860,860,860,860,860,860,
860,860,860,860,860,860,860,860,860,860,860,860,860,860,860,860,
860,860,860,860,860,860,860,860,860,860,860,860,860,860,860,860,
860,860,860,860,860,860,860,860,860,860,860,860,860,860,860,860,
860,860,860,860,860,860,860,860,860,860,860,860,860,860,860,860,
860,860,860,860,860,860,860,860,860,860,860,860,860,860,860,860,
860,860,860,860,860,860,860,860,860,860,860,860,860,860,860,860,
860,860,860,860,860,860,860,860,860,860,860,860,860,860,860,860,
860,860,860,860,860,860,860,860,860,860,860,860,860,860,860,860,
860,860,860,860,860,860,860,860,860,860,860,860,860,860,860,860,
860,860,860,860,860,860,860,860,860,860,860,860,860,860,860,860,
860,860,860,860,860,860,860,860,860,860,860,860,860,860,860,860,
860,860,860,860,860,860,860,860,860,860,860,860,860,860,860,860,
860,860,860,860,860,860,860,860,860,860,860,860,860,860,860,860,
860,860,860,860,860,860,860,860,860,860,860,860,860,860,860,860
</chunk>
   <chunk x="96" y="-16" width="16" height="16">
860,860,860,860,860,860,860,860,860,860,860,860,860,860,860,860,
860,860,860,860,860,860,860,860,860,860,860,860,860,860,860,860,
860,860,860,860,860,860,860,860,860,860,860,860,860,860,860,860,
860,860,860,860,860,860,860,860,860,860,860,860,860,860,860,860,
860,860,860,860,860,860,860,860,860,860,860,860,860,860,860,860,
860,860,860,860,860,860,860,860,860,860,860,860,860,860,860,860,
860,860,860,860,860,860,860,860,860,860,860,860,860,860,860,860,
860,860,860,860,860,860,860,860,860,860,860,860,860,860,860,860,
860,860,860,860,860,860,860,860,860,860,860,860,860,860,860,860,
860,860,860,860,860,860,860,860,860,860,860,860,860,860,860,860,
860,860,860,860,860,860,860,860,860,860,860,860,860,860,860,860,
860,860,860,860,860,860,860,860,860,860,860,860,860,860,860,860,
860,860,860,860,860,860,860,860,860,860,860,860,860,860,860,860,
860,860,860,860,860,860,860,860,860,860,860,860,860,860,860,860,
860,860,860,860,860,860,860,860,860,860,860,860,860,860,860,860,
860,860,860,860,860,860,860,860,860,860,860,860,860,860,860,860
</chunk>
   <chunk x="112" y="-16" width="16" height="16">
860,860,860,860,860,860,860,860,860,860,860,860,860,860,860,860,
860,860,860,860,860,860,860,860,860,860,860,860,860,860,860,860,
860,860,860,860,860,860,860,860,860,860,860,860,860,860,860,860,
860,860,860,860,860,860,860,860,860,860,860,860,860,860,860,860,
860,860,860,860,860,860,860,860,860,860,860,860,860,860,860,860,
860,860,860,860,860,860,860,860,860,860,860,860,860,860,860,860,
860,860,860,860,860,860,860,860,860,860,860,860,860,860,860,860,
860,860,860,860,860,860,860,860,860,860,860,860,860,860,860,860,
860,860,860,860,860,860,860,860,860,860,860,860,860,860,860,860,
860,860,860,860,860,860,860,860,860,860,860,860,860,860,860,860,
860,860,860,860,860,860,860,860,860,860,860,860,860,860,860,860,
860,860,860,860,860,860,860,860,860,860,860,860,860,860,860,860,
860,860,860,860,860,860,860,860,860,860,860,860,860,860,860,860,
860,860,860,860,860,860,860,860,860,860,860,860,860,860,860,860,
860,860,860,860,860,860,860,860,860,860,860,860,860,860,860,860,
860,860,860,860,860,860,860,860,860,860,860,860,860,860,860,860
</chunk>
   <chunk x="128" y="-16" width="16" height="16">
860,860,860,860,860,860,860,860,860,860,860,860,860,860,860,860,
860,860,860,860,860,860,860,860,860,860,860,860,860,860,860,860,
860,860,860,860,860,860,860,860,860,860,860,860,860,860,860,860,
860,860,860,860,860,860,860,860,860,860,860,860,860,860,860,860,
860,860,860,860,860,860,860,860,860,860,860,860,860,860,860,860,
860,860,860,860,860,860,860,860,860,860,860,860,860,860,860,860,
860,860,860,860,860,860,860,860,860,860,860,860,860,860,860,860,
860,860,860,860,860,860,860,860,860,860,860,860,860,860,860,860,
860,860,860,860,860,860,860,860,860,860,860,860,860,860,860,860,
860,860,860,860,860,860,860,860,860,860,860,860,860,860,860,860,
860,860,860,860,860,860,860,860,860,860,860,860,860,860,860,860,
860,860,860,860,860,860,860,860,860,860,860,860,860,860,860,860,
860,860,860,860,860,860,860,860,860,860,860,860,860,860,860,860,
860,860,860,860,860,860,860,860,860,860,860,860,860,860,860,860,
860,860,860,860,860,860,860,860,860,860,860,860,860,860,860,860,
860,860,860,860,860,860,860,860,860,860,860,860,860,860,860,860
</chunk>
   <chunk x="144" y="-16" width="16" height="16">
860,860,860,860,860,860,860,860,860,860,860,860,860,860,860,860,
860,860,860,860,860,860,860,860,860,860,860,860,860,860,860,860,
860,860,860,860,860,860,860,860,860,860,860,860,860,860,860,860,
860,860,860,860,860,860,860,860,860,860,860,860,860,860,860,860,
860,860,860,860,860,860,860,860,860,860,860,860,860,860,860,860,
860,860,860,860,860,860,860,860,860,860,860,860,860,860,860,860,
860,860,860,860,860,860,860,860,860,860,860,860,860,860,860,860,
860,860,860,860,860,860,860,860,860,860,860,860,860,860,860,860,
860,860,860,860,860,860,860,860,860,860,860,860,860,860,860,860,
860,860,860,860,860,860,860,860,860,860,860,860,860,860,860,860,
860,860,860,860,860,860,860,860,860,860,860,860,860,860,860,860,
860,860,860,860,860,860,860,860,860,860,860,860,860,860,860,860,
860,860,860,860,860,860,860,860,860,860,860,860,860,860,860,860,
860,860,860,860,860,860,860,860,860,860,860,860,860,860,860,860,
860,860,860,860,860,860,860,860,860,860,860,860,860,860,860,860,
860,860,860,860,860,860,860,860,860,860,860,860,860,860,860,860
</chunk>
   <chunk x="160" y="-16" width="16" height="16">
860,860,860,860,860,860,860,860,860,860,860,860,860,860,860,860,
860,860,860,860,860,860,860,860,860,860,860,860,860,860,860,860,
860,860,860,860,860,860,860,860,860,860,860,860,860,860,860,860,
860,860,860,860,860,860,860,860,860,860,860,860,860,860,860,860,
860,860,860,860,860,860,860,860,860,860,860,860,860,860,860,860,
860,860,860,860,860,860,860,860,860,860,860,860,860,860,860,860,
860,860,860,860,860,860,860,860,860,860,860,860,860,860,860,860,
860,860,860,860,860,860,860,860,860,860,860,860,860,860,860,860,
860,860,860,860,860,860,860,860,860,860,860,860,860,860,860,860,
860,860,860,860,860,860,860,860,860,860,860,860,860,860,860,860,
860,860,860,860,860,860,860,860,860,860,860,860,860,860,860,860,
860,860,860,860,860,860,860,860,860,860,860,860,860,860,860,860,
860,860,860,860,860,860,860,860,860,860,860,860,860,860,860,860,
860,860,860,860,860,860,860,860,860,860,860,860,860,860,860,860,
860,860,860,860,860,860,860,860,860,860,860,860,860,860,860,860,
860,860,860,860,860,860,860,860,860,860,860,860,860,860,860,860
</chunk>
   <chunk x="0" y="0" width="16" height="16">
9,9,9,9,9,9,9,9,9,79,79,8,8,8,8,8,
9,9,9,9,9,9,9,9,9,9,9,9,9,9,9,9,
9,9,9,9,9,9,9,9,9,9,9,9,9,9,9,9,
9,9,9,9,9,9,9,9,9,9,9,9,9,9,9,9,
9,9,9,9,9,9,9,9,9,9,9,9,9,9,9,9,
9,9,9,9,9,9,9,9,9,9,9,9,9,9,9,9,
9,9,9,9,9,9,9,9,9,9,9,9,9,9,9,9,
9,9,9,9,9,9,9,9,9,9,9,9,9,9,9,9,
9,9,9,9,9,9,9,9,9,9,9,9,9,9,9,9,
9,9,9,9,9,9,9,9,9,9,9,9,9,9,9,9,
9,9,9,9,9,9,9,9,9,9,9,9,9,9,9,9,
0,0,0,0,0,0,0,0,0,0,0,0,0,0,0,0,
0,0,0,0,0,0,0,0,0,0,0,0,0,0,0,0,
0,0,0,0,0,0,0,0,0,0,0,0,0,0,0,0,
0,0,0,0,0,0,0,0,0,0,0,0,0,0,0,0,
0,0,0,0,0,0,0,0,0,0,0,0,0,0,0,0
</chunk>
   <chunk x="16" y="0" width="16" height="16">
8,8,8,8,8,8,8,8,8,8,79,79,79,79,79,79,
9,9,9,9,9,9,9,9,9,9,9,9,9,9,9,9,
9,9,9,9,9,9,9,9,9,9,9,9,9,9,9,9,
9,9,9,9,9,9,9,9,9,9,9,9,9,9,9,9,
9,9,9,9,9,9,9,9,9,9,9,9,9,9,9,9,
9,9,9,9,9,9,9,9,9,9,9,9,9,9,9,9,
9,9,9,9,9,9,9,9,9,9,9,9,9,9,9,9,
9,9,9,9,9,9,9,9,9,9,9,9,9,9,9,9,
9,9,9,9,9,9,9,9,9,9,9,9,9,9,9,9,
9,9,9,9,9,9,9,9,9,9,9,9,9,9,9,9,
9,9,9,9,9,9,9,9,9,9,9,9,9,9,9,9,
0,0,0,0,0,0,0,0,0,0,0,0,0,0,0,0,
0,0,0,0,0,0,0,0,0,0,0,0,0,0,0,0,
0,0,0,0,0,0,0,0,0,0,0,0,0,0,0,0,
0,0,0,0,0,0,0,0,0,0,0,0,0,0,0,0,
0,0,0,0,0,0,0,0,0,0,0,0,0,0,0,0
</chunk>
   <chunk x="32" y="0" width="16" height="16">
8,8,8,8,8,8,8,8,8,8,8,8,8,8,8,8,
9,9,9,9,9,9,9,9,9,9,9,9,9,9,9,9,
9,9,9,9,9,9,9,9,9,9,9,9,9,9,9,9,
9,9,9,9,9,9,9,9,9,9,9,9,9,9,9,9,
9,9,9,9,9,9,9,9,9,9,9,9,9,9,9,9,
9,9,9,9,9,9,9,9,9,9,9,9,9,9,9,9,
9,9,9,9,9,9,9,9,9,9,9,9,9,9,9,9,
9,9,9,9,9,9,9,9,9,9,9,9,9,9,9,9,
9,9,9,9,9,9,9,9,9,9,9,9,9,9,9,9,
9,9,9,9,9,9,9,9,9,9,9,9,9,9,9,9,
9,9,9,9,9,9,9,9,9,9,9,9,9,9,9,9,
0,0,0,0,0,0,0,0,0,0,0,0,0,0,0,0,
0,0,0,0,0,0,0,0,0,0,0,0,0,0,0,0,
0,0,0,0,0,0,0,0,0,0,0,0,0,0,0,0,
0,0,0,0,0,0,0,0,0,0,0,0,0,0,0,0,
0,0,0,0,0,0,0,0,0,0,0,0,0,0,0,0
</chunk>
   <chunk x="48" y="0" width="16" height="16">
8,8,8,8,8,8,8,8,8,8,8,8,8,8,8,8,
9,9,9,9,9,9,9,9,9,9,9,9,9,9,9,9,
9,9,9,9,9,9,9,9,9,9,9,9,9,9,9,9,
9,9,9,9,9,9,9,9,9,9,9,9,9,9,9,9,
9,9,9,9,9,9,9,9,9,9,9,9,9,9,9,9,
9,9,9,9,9,9,9,9,9,9,9,9,9,9,9,9,
9,9,9,9,9,9,9,9,9,9,9,9,9,9,9,9,
9,9,9,9,9,9,9,9,9,9,9,9,9,9,9,9,
9,9,9,9,9,9,9,9,9,9,9,9,9,9,9,9,
9,9,9,9,9,9,9,9,9,9,9,9,9,9,9,9,
9,9,9,9,9,9,9,9,9,9,9,9,9,9,9,9,
0,0,0,0,0,0,0,0,0,0,0,0,0,0,0,0,
0,0,0,0,0,0,0,0,0,0,0,0,0,0,0,0,
0,0,0,0,0,0,0,0,0,0,0,0,0,0,0,0,
0,0,0,0,0,0,0,0,0,0,0,0,0,0,0,0,
0,0,0,0,0,0,0,0,0,0,0,0,0,0,0,0
</chunk>
   <chunk x="64" y="0" width="16" height="16">
8,8,8,8,8,8,8,8,8,8,8,8,8,8,8,8,
9,9,9,9,9,9,9,9,9,9,9,9,9,9,9,9,
9,9,9,9,9,9,9,9,9,9,9,9,9,9,9,9,
9,9,9,9,9,9,9,9,9,9,9,9,9,9,9,9,
9,9,9,9,9,9,9,9,9,9,9,9,9,9,9,9,
9,9,9,9,9,9,9,9,9,9,9,9,9,9,9,9,
9,9,9,9,9,9,9,9,9,9,9,9,9,9,9,9,
9,9,9,9,9,9,9,9,9,9,9,9,9,9,9,9,
9,9,9,9,9,9,9,9,9,9,9,9,9,9,9,9,
9,9,9,9,9,9,9,9,9,9,9,9,9,9,9,9,
9,9,9,9,9,9,9,9,9,9,9,9,9,9,9,9,
0,0,0,0,0,0,0,0,0,0,0,0,0,0,0,0,
0,0,0,0,0,0,0,0,0,0,0,0,0,0,0,0,
0,0,0,0,0,0,0,0,0,0,0,0,0,0,0,0,
0,0,0,0,0,0,0,0,0,0,0,0,0,0,0,0,
0,0,0,0,0,0,0,0,0,0,0,0,0,0,0,0
</chunk>
   <chunk x="80" y="0" width="16" height="16">
8,8,8,8,8,8,8,8,8,8,8,8,8,8,8,8,
9,9,9,9,9,9,9,9,9,9,9,9,9,9,9,9,
9,9,9,9,9,9,9,9,9,9,9,9,9,9,9,9,
9,9,9,9,9,9,9,9,9,9,9,9,9,9,9,9,
9,9,9,9,9,9,9,9,9,9,9,9,9,9,9,9,
9,9,9,9,9,9,9,9,9,9,9,9,9,9,9,9,
9,9,9,9,9,9,9,9,9,9,9,9,9,9,9,9,
9,9,9,9,9,9,9,9,9,9,9,9,9,9,9,9,
9,9,9,9,9,9,9,9,9,9,9,9,9,9,9,9,
9,9,9,9,9,9,9,9,9,9,9,9,9,9,9,9,
9,9,9,9,9,9,9,9,9,9,9,9,9,9,9,9,
0,0,0,0,0,0,0,0,0,0,0,0,0,0,0,0,
0,0,0,0,0,0,0,0,0,0,0,0,0,0,0,0,
0,0,0,0,0,0,0,0,0,0,0,0,0,0,0,0,
0,0,0,0,0,0,0,0,0,0,0,0,0,0,0,0,
0,0,0,0,0,0,0,0,0,0,0,0,0,0,0,0
</chunk>
   <chunk x="96" y="0" width="16" height="16">
8,8,8,8,8,8,8,8,8,8,8,8,8,8,8,8,
9,9,9,9,9,9,9,9,9,9,9,9,9,9,9,9,
9,9,9,9,9,9,9,9,9,9,9,9,9,9,9,9,
9,9,9,9,9,9,9,9,9,9,9,9,9,9,9,9,
9,9,9,9,9,9,9,9,9,9,9,9,9,9,9,9,
9,9,9,9,9,9,9,9,9,9,9,9,9,9,9,9,
9,9,9,9,9,9,9,9,9,9,9,9,9,9,9,9,
9,9,9,9,9,9,9,9,9,9,9,9,9,9,9,9,
9,9,9,9,9,9,9,9,9,9,9,9,9,9,9,9,
9,9,9,9,9,9,9,9,9,9,9,9,9,9,9,9,
9,9,9,9,9,9,9,9,9,9,9,9,9,9,9,9,
0,0,0,0,0,0,0,0,0,0,0,0,0,0,0,0,
0,0,0,0,0,0,0,0,0,0,0,0,0,0,0,0,
0,0,0,0,0,0,0,0,0,0,0,0,0,0,0,0,
0,0,0,0,0,0,0,0,0,0,0,0,0,0,0,0,
0,0,0,0,0,0,0,0,0,0,0,0,0,0,0,0
</chunk>
   <chunk x="112" y="0" width="16" height="16">
8,8,8,8,8,8,8,8,8,8,8,8,8,8,8,8,
9,9,9,9,9,9,9,9,9,9,9,9,9,9,9,9,
9,9,9,9,9,9,9,9,9,9,9,9,9,9,9,9,
9,9,9,9,9,9,9,9,9,9,9,9,9,9,9,9,
9,9,9,9,9,9,9,9,9,9,9,9,9,9,9,9,
9,9,9,9,9,9,9,9,9,9,9,9,9,9,9,9,
9,9,9,9,9,9,9,9,9,9,9,9,9,9,9,9,
9,9,9,9,9,9,9,9,9,9,9,9,9,9,9,9,
9,9,9,9,9,9,9,9,9,9,9,9,9,9,9,9,
9,9,9,9,9,9,9,9,9,9,9,9,9,9,9,9,
9,9,9,9,9,9,9,9,9,9,9,9,9,9,9,9,
0,0,0,0,0,0,0,0,0,0,0,0,0,0,0,0,
0,0,0,0,0,0,0,0,0,0,0,0,0,0,0,0,
0,0,0,0,0,0,0,0,0,0,0,0,0,0,0,0,
0,0,0,0,0,0,0,0,0,0,0,0,0,0,0,0,
0,0,0,0,0,0,0,0,0,0,0,0,0,0,0,0
</chunk>
   <chunk x="128" y="0" width="16" height="16">
8,8,8,8,8,8,8,8,8,8,8,8,8,8,8,8,
9,9,9,9,9,9,9,9,9,9,9,9,9,9,9,9,
9,9,9,9,9,9,9,9,9,9,9,9,9,9,9,9,
9,9,9,9,9,9,9,9,9,9,9,9,9,9,9,9,
9,9,9,9,9,9,9,9,9,9,9,9,9,9,9,9,
9,9,9,9,9,9,9,9,9,9,9,9,9,9,9,9,
9,9,9,9,9,9,9,9,9,9,9,9,9,9,9,9,
9,9,9,9,9,9,9,9,9,9,9,9,9,9,9,9,
9,9,9,9,9,9,9,9,9,9,9,9,9,9,9,9,
9,9,9,9,9,9,9,9,9,9,9,9,9,9,9,9,
9,9,9,9,9,9,9,9,9,9,9,9,9,9,9,9,
0,0,0,0,0,0,0,0,0,0,0,0,0,0,0,0,
0,0,0,0,0,0,0,0,0,0,0,0,0,0,0,0,
0,0,0,0,0,0,0,0,0,0,0,0,0,0,0,0,
0,0,0,0,0,0,0,0,0,0,0,0,0,0,0,0,
0,0,0,0,0,0,0,0,0,0,0,0,0,0,0,0
</chunk>
   <chunk x="144" y="0" width="16" height="16">
8,8,8,8,8,8,8,8,8,8,8,8,8,8,8,8,
9,9,9,9,9,9,9,9,9,9,9,9,9,9,9,9,
9,9,9,9,9,9,9,9,9,9,9,9,9,9,9,9,
9,9,9,9,9,9,9,9,9,9,9,9,9,9,9,9,
9,9,9,9,9,9,9,9,9,9,9,9,9,9,9,9,
9,9,9,9,9,9,9,9,9,9,9,9,9,9,9,9,
9,9,9,9,9,9,9,9,9,9,9,9,9,9,9,9,
9,9,9,9,9,9,9,9,9,9,9,9,9,9,9,9,
9,9,9,9,9,9,9,9,9,9,9,9,9,9,9,9,
9,9,9,9,9,9,9,9,9,9,9,9,9,9,9,9,
9,9,9,9,9,9,9,9,9,9,9,9,9,9,9,9,
0,0,0,0,0,0,0,0,0,0,0,0,0,0,0,0,
0,0,0,0,0,0,0,0,0,0,0,0,0,0,0,0,
0,0,0,0,0,0,0,0,0,0,0,0,0,0,0,0,
0,0,0,0,0,0,0,0,0,0,0,0,0,0,0,0,
0,0,0,0,0,0,0,0,0,0,0,0,0,0,0,0
</chunk>
   <chunk x="160" y="0" width="16" height="16">
8,8,8,8,8,8,8,8,8,8,8,8,8,8,8,8,
9,9,9,9,9,9,9,9,9,9,9,9,9,9,9,9,
9,9,9,9,9,9,9,9,9,9,9,9,9,9,9,9,
9,9,9,9,9,9,9,9,9,9,9,9,9,9,9,9,
9,9,9,9,9,9,9,9,9,9,9,9,9,9,9,9,
9,9,9,9,9,9,9,9,9,9,9,9,9,9,9,9,
9,9,9,9,9,9,9,9,9,9,9,9,9,9,9,9,
9,9,9,9,9,9,9,9,9,9,9,9,9,9,9,9,
9,9,9,9,9,9,9,9,9,9,9,9,9,9,9,9,
9,9,9,9,9,9,9,9,9,9,9,9,9,9,9,9,
9,9,9,9,9,9,9,9,9,9,9,9,9,9,9,9,
0,0,0,0,0,0,0,0,0,0,0,0,0,0,0,0,
0,0,0,0,0,0,0,0,0,0,0,0,0,0,0,0,
0,0,0,0,0,0,0,0,0,0,0,0,0,0,0,0,
0,0,0,0,0,0,0,0,0,0,0,0,0,0,0,0,
0,0,0,0,0,0,0,0,0,0,0,0,0,0,0,0
</chunk>
  </data>
 </layer>
 <layer id="14" name="Player" width="30" height="20">
  <data encoding="csv">
   <chunk x="0" y="-16" width="16" height="16">
0,0,0,0,0,0,0,0,0,0,0,0,0,0,0,0,
0,0,0,0,0,0,0,0,0,0,0,0,0,0,0,0,
0,0,0,0,0,0,0,0,0,0,0,0,0,0,0,0,
0,0,0,0,0,0,0,0,0,0,0,0,0,0,0,0,
0,0,0,0,0,0,0,0,0,0,0,0,0,0,0,0,
0,0,0,0,0,0,0,0,0,0,0,0,0,0,0,0,
0,0,0,0,0,0,0,0,0,0,0,0,0,0,0,0,
0,0,0,0,0,0,0,0,0,0,0,0,0,0,0,0,
0,0,0,0,0,0,0,0,0,0,0,0,0,0,0,0,
0,0,0,0,0,0,0,0,0,0,0,0,0,0,0,0,
0,0,0,0,0,0,0,0,0,0,0,0,0,0,0,0,
0,0,0,0,0,0,0,0,0,0,0,0,0,0,0,0,
0,0,0,0,0,0,0,0,0,0,0,0,0,0,0,0,
0,0,0,0,0,0,0,0,0,0,0,0,0,0,0,0,
0,0,0,0,0,0,0,0,0,0,0,0,0,12,0,0,
0,0,0,0,0,0,0,0,0,0,0,0,0,83,0,0
</chunk>
  </data>
 </layer>
 <layer id="17" name="Hammer" width="30" height="20">
  <data encoding="csv">
   <chunk x="0" y="-16" width="16" height="16">
0,0,0,0,0,0,0,0,0,0,0,0,0,0,0,0,
0,0,0,0,0,0,0,0,0,0,0,0,0,0,0,0,
0,0,0,0,0,0,0,0,0,0,0,0,0,0,0,0,
0,0,0,0,0,0,0,0,0,0,0,0,0,0,0,0,
0,0,0,0,0,0,0,0,0,0,0,0,0,0,0,0,
0,0,0,0,0,0,0,0,0,0,0,0,0,0,0,0,
0,0,0,0,0,0,0,0,0,0,0,0,0,0,0,0,
0,0,0,0,0,0,0,0,0,0,0,0,0,0,0,0,
0,0,0,0,0,0,0,0,0,0,0,0,0,0,0,0,
0,0,0,0,0,0,0,0,0,0,0,0,0,0,0,0,
0,0,0,0,0,0,0,0,0,0,0,0,0,0,0,0,
0,0,0,0,0,0,0,0,0,0,0,0,0,0,0,0,
0,0,0,0,0,0,0,0,0,0,0,0,0,14,0,0,
0,0,0,0,0,0,0,0,0,0,0,0,0,85,0,0,
0,0,0,0,0,0,0,0,0,0,0,0,0,0,0,0,
0,0,0,0,0,0,0,0,0,0,0,0,0,0,0,0
</chunk>
  </data>
 </layer>
 <layer id="18" name="Arms" width="30" height="20">
  <data encoding="csv">
   <chunk x="0" y="-16" width="16" height="16">
0,0,0,0,0,0,0,0,0,0,0,0,0,0,0,0,
0,0,0,0,0,0,0,0,0,0,0,0,0,0,0,0,
0,0,0,0,0,0,0,0,0,0,0,0,0,0,0,0,
0,0,0,0,0,0,0,0,0,0,0,0,0,0,0,0,
0,0,0,0,0,0,0,0,0,0,0,0,0,0,0,0,
0,0,0,0,0,0,0,0,0,0,0,0,0,0,0,0,
0,0,0,0,0,0,0,0,0,0,0,0,0,0,0,0,
0,0,0,0,0,0,0,0,0,0,0,0,0,0,0,0,
0,0,0,0,0,0,0,0,0,0,0,0,0,0,0,0,
0,0,0,0,0,0,0,0,0,0,0,0,0,0,0,0,
0,0,0,0,0,0,0,0,0,0,0,0,0,0,0,0,
0,0,0,0,0,0,0,0,0,0,0,0,0,0,0,0,
0,0,0,0,0,0,0,0,0,0,0,0,0,0,0,0,
0,0,0,0,0,0,0,0,0,0,0,0,0,0,0,0,
0,0,0,0,0,0,0,0,0,0,0,82,11,0,13,84,
0,0,0,0,0,0,0,0,0,0,0,0,0,0,0,0
</chunk>
  </data>
 </layer>
 <layer id="16" name="Collectable" width="30" height="20">
  <data encoding="csv"/>
 </layer>
 <layer id="9" name="Terrain+" width="30" height="20">
  <data encoding="csv">
   <chunk x="128" y="-160" width="16" height="16">
0,0,0,0,0,0,0,0,0,0,0,0,0,0,0,0,
0,0,0,0,0,0,0,0,0,0,0,0,0,0,0,0,
0,0,0,0,0,0,0,0,0,0,0,0,0,0,0,0,
0,0,0,0,0,0,0,0,0,0,0,0,0,0,0,0,
0,0,0,0,0,0,0,0,0,0,0,0,0,0,0,0,
0,0,0,0,0,0,0,0,0,0,0,0,0,0,0,0,
0,0,0,0,0,0,0,0,0,0,0,0,0,0,0,0,
0,0,0,0,0,0,0,0,0,0,0,0,0,0,0,0,
0,0,0,0,0,0,0,0,0,0,0,0,0,0,0,0,
0,0,0,0,0,0,0,0,0,0,0,0,0,0,0,0,
0,0,0,0,0,0,0,0,0,0,0,0,607,0,0,0,
0,0,0,0,0,0,0,0,0,0,0,0,0,0,0,0,
0,0,0,0,0,0,0,0,0,0,0,0,749,750,0,0,
0,0,0,0,0,0,0,0,0,0,0,0,0,0,0,0,
0,0,0,0,0,0,0,0,0,0,0,0,0,0,0,0,
0,0,0,0,0,0,0,0,0,0,0,0,0,0,0,0
</chunk>
   <chunk x="128" y="-128" width="16" height="16">
0,0,0,0,0,0,0,0,0,0,0,0,0,0,0,0,
0,0,0,0,0,0,0,0,0,0,0,0,0,0,0,0,
0,0,0,0,0,0,0,0,0,0,0,0,0,0,0,0,
0,0,0,0,0,0,0,0,0,0,0,0,0,0,0,0,
0,0,0,0,0,0,0,0,0,0,0,0,0,0,0,0,
0,0,0,0,0,0,0,0,0,0,0,0,0,0,0,0,
0,0,0,0,0,0,0,0,0,0,0,0,0,0,0,0,
0,0,0,0,0,0,0,0,0,0,0,0,0,0,0,0,
0,0,0,0,0,0,0,0,0,0,0,0,0,0,0,0,
0,0,0,0,0,0,0,0,0,0,0,0,0,0,0,0,
0,0,0,0,0,0,0,0,0,0,0,0,0,0,0,0,
0,0,0,0,0,0,0,0,0,0,0,0,0,0,0,0,
0,0,0,0,0,0,0,0,0,0,0,0,0,0,0,0,
0,0,0,0,0,0,0,0,99,100,101,102,103,104,0,0,
0,0,0,0,0,0,0,0,170,171,172,173,174,175,0,0,
0,0,0,0,0,0,0,0,241,242,243,244,245,246,0,0
</chunk>
   <chunk x="48" y="-48" width="16" height="16">
0,0,0,0,0,0,0,0,0,0,0,0,0,0,0,0,
0,0,0,0,0,0,0,0,0,0,0,0,0,0,0,0,
0,0,0,0,0,0,0,0,0,0,0,0,0,0,0,0,
0,0,0,0,0,0,0,0,0,0,0,0,0,0,0,0,
0,0,0,0,0,0,0,0,0,0,0,0,0,0,0,0,
0,0,0,0,0,0,0,0,0,0,0,0,0,0,0,0,
0,0,0,0,0,0,0,0,0,0,0,0,0,0,0,0,
0,0,0,0,0,0,0,0,0,0,0,0,0,0,0,0,
0,0,0,0,0,0,0,0,0,0,0,0,0,0,0,0,
0,0,0,0,0,0,0,0,0,0,0,0,0,0,0,0,
0,0,0,0,0,0,0,0,0,0,0,0,0,0,0,0,
0,0,0,0,0,0,0,0,0,0,0,0,0,0,0,0,
0,0,0,0,0,0,0,0,0,0,0,0,0,0,0,0,
0,0,0,0,0,0,0,0,527,0,0,0,0,0,0,0,
0,0,0,0,0,0,0,0,598,0,0,0,0,0,0,0,
0,0,0,0,0,0,0,0,0,0,0,0,0,0,0,0
</chunk>
   <chunk x="0" y="-16" width="16" height="16">
0,0,0,0,0,0,0,0,0,0,0,0,0,0,0,0,
0,0,0,0,0,0,0,0,0,0,0,0,0,0,0,0,
0,0,0,0,0,0,0,0,0,0,0,0,0,0,0,0,
0,0,0,0,0,0,0,0,0,0,0,0,0,0,0,0,
0,0,0,0,0,0,0,0,0,0,0,0,0,0,0,0,
0,0,0,0,0,0,0,0,0,0,0,0,0,0,0,0,
0,0,0,0,0,0,0,0,0,0,0,0,0,0,0,0,
0,0,427,428,429,430,431,432,0,0,0,0,0,0,0,0,
0,0,498,499,500,501,502,503,0,0,0,0,0,0,0,0,
0,0,569,570,571,572,573,574,0,0,0,0,0,0,0,0,
0,0,640,641,642,643,644,645,0,0,0,0,0,0,0,0,
0,0,711,712,713,714,715,716,0,0,0,0,0,0,0,0,
0,0,782,783,784,785,786,787,0,0,0,0,0,0,0,0,
0,0,0,0,0,0,0,0,0,0,0,0,0,0,0,0,
0,0,0,0,0,0,0,0,0,0,0,0,0,0,0,0,
0,0,0,0,0,0,0,0,0,0,0,0,0,0,0,0
</chunk>
  </data>
 </layer>
 <objectgroup id="6" name="Platform">
  <object id="43" type="Platform" x="0" y="-210">
   <polyline points="0,0 490,0.5 490,69.5 560.5,69.5 560,139.5 630,140 630.5,210 2067,209.5 2067,157.5 2021.5,157 2022,136.5 1994,136 1994,126 2035.5,125.5 2035.5,114 2022.5,113.5 2022,102 2009,102 2009,95 2021.5,94.5 2022.5,83 2050.5,82 2051,70.5 2036.5,70 2036.5,49.5 2023.5,49 2023,38.5 2007,38.5 2007.5,27.5 1963,27.5 1962.5,-2 1975.5,-2.5 1975.5,-13.5 2006.5,-15 2007,-28.5 1993,-28 1993,-46 2006,-46 2006.5,-58.5 2022,-58.5 2022,-67 2094,-66.5 2094.5,-58.5 2110.5,-59 2112,-110.5 2127.5,-111 2128,-122 2156,-123 2156.5,-132.5 2184.5,-132.5 2186.5,-143.5 2215,-143.5 2216,-155.5 2246,-155.5 2247,-165.5 2261,-165 2261.33,-177 2218,-177 2218.33,-188 2203,-186.667 2202.67,-198 2187.33,-198.333 2187.33,-211 2172.33,-211 2173,-228.667 2246,-229.333 2246.67,-241 2261,-241.333 2261.33,-251 2277.33,-251.333 2277.67,-262.333 2292,-262 2292,-269.667 2307.33,-270.333 2307,-276 2313.33,-275.333 2313.33,-281.667 2320.67,-282 2320.67,-293.333 2336,-293 2337,-304.333 2353,-304.333 2352.67,-313.333 2365.67,-313.333 2366,-324 2381,-324.333 2381.67,-337.667 2844.67,-338.667 2844.91,-327.273 2861.64,-327.091 2861.82,-338 2876.36,-338.364 2876.36,-347.818 2892.36,-347.818 2892.18,-359.091 2908.73,-358.909 2908.91,-368.545 2922.91,-369.091 2922.91,-377.818 2949.27,-378 2949.45,-369.455 2964.91,-369.455 2964.91,-359.455 2978.91,-359.636 2979.45,-350.545 3079.82,-350.182"/>
  </object>
  <object id="45" type="Platform" x="3080" y="-560">
   <polyline points="0,0 1.33333,-69.3333 66.6667,-69.3333 69.3333,-140 206.667,-141.333 209.333,-209.333 350.667,-210.667 349.333,-281.333 418.667,-281.333 421.333,-490.667 489.333,-490.667 489.667,-493 488.333,-492.667 488.333,-499 489.667,-499 490,-501.333 969.333,-500 969.333,-570.333 1039,-570 1039.33,-639.667 1109.33,-640.333 1109.67,-806.667 1050.33,-828.333 1050.33,-840.333 1108.67,-840.333 1108.33,-1179 1039,-1179 1039.67,-1248.67 969.667,-1249 970.333,-1319.33 910.333,-1319.67 910,-1852.67 962,-1853 963.333,-1750.33"/>
  </object>
  <object id="46" x="3929.45" y="-1583.64">
   <polygon points="0,0 0,4.90909 5.45455,7.09091 5.63636,38.9091 8.54545,41.0909 45.2727,41.4545 48.7273,38 48.5455,6.90909 53.4545,6.90909 53.8182,5.09091 56.3636,4.54545 56.5455,0.909091 54.1818,0.545455"/>
  </object>
  <object id="47" type="Platform" x="3359" y="-1759">
   <polygon points="0.8125,-2.0625 0,147 69,148 70,218 138,218 139,288 211,288 211,282 420,229 421,220 222,218 222,139 152,138 152,69 80,69 82,-2"/>
  </object>
  <object id="48" type="Platform" x="3290" y="-1947">
   <polygon points="0,0 0,-12 69,-12 69,-224 140,-223 141,-294 279,-294 279,-364 561,-364 562,-464 569,-469 630,-470 630,67 340,68 339,-2"/>
  </object>
  <object id="49" type="Platform" x="4042.67" y="-2310.67">
   <polyline points="0,0 506.667,1.33333 506.667,-68 1065.33,-70.6667 1066.67,-140 1838.67,-137.333 1837.33,-500 1976,-500 1977.33,-560 2185.33,-560 2187.33,-560.333 2187.33,-699.833 2256.83,-698.833 2256.83,-839.833 2327.33,-839.833 2326.83,-1048.33 2258.33,-1049.33 2257.83,-1119.83 2187.33,-1120.33 2187.33,-1189.33 2256.33,-1189.83 2257.83,-1260.33 2326.83,-1258.83 2327.33,-1641.33 2258.33,-1666.83 2257.33,-1679.83 2326.83,-1679.33 2326.83,-1852.33"/>
  </object>
  <object id="50" type="Platform" x="6369.5" y="-4162.5">
   <polyline points="0,0 -69.5,-27 -69,-38.5 -0.5,-38 -0.5,-526.5 -70,-527 -69.5,-596.5 -139,-596 -139,-667 0,-668 0.5,-947 -70,-947 -69,-1017.5 -1,-1017.5 0,-1226.5 -69.5,-1228 -69.5,-1297.5 -139,-1297.5 -139.5,-1367 -70,-1367 -70,-1437.5 350,-1437 1049.17,-1438.83 1049.83,-1508.17 1119.83,-1508.17 1119.83,-1577.5 1189.17,-1577.5 1189.83,-1648.83 1259.17,-1648.17 1259.83,-1717.5 1330.5,-1718.17 1329.83,-1786.83 1399.83,-1787.5 1400.5,-1928.83 1469.83,-1928.83 1471.17,-2137.5 1539.17,-2136.83 1539.83,-2348.17 1609.83,-2346.83 1610.5,-2557.5 1680.5,-2557.5 1680.5,-2766.83 1749.83,-2766.83 1750.5,-2976.83 1820.5,-2977.5 1819.83,-3187.5 1889.83,-3187.5 1890.5,-3398.17 1959.17,-3398.83 1960.5,-3466.83 2099.83,-3467.5 2099.83,-3538.83 2239.17,-3538.83 2240.5,-3607.5 2309.83,-3607.5 2309.83,-3328.17 2238.5,-3326.83 2239.83,-3258.83 2169.17,-3258.83 2169.83,-3198.83 2375.83,-3198.17 2378.5,-3189 2170.5,-3187.5 2170.5,-3058.5 2214,-3058.5 2217.5,-3062 2222.5,-3063 2223,-3062 2220,-3060.5 2220,-3059.5 2235,-3059 2239,-3049.5 2240.5,-3047.5 2240,-2977 2381,-2978 2381.5,-2985.5 2385,-2988.5 2424.5,-2988.5 2429.5,-2992.5 2431,-2992.5 2432,-2989.5 2430,-2987.5 2445,-2987.5 2450,-2979 2662.5,-2977.5 2661.5,-2985.5 2676,-2989.5 2681,-3014.5 2690.5,-3017.5 2691,-3030.5 2700,-3033.5 2706.5,-3016.5 2706,-3008.5 2709,-3011.5 2711.5,-3011.5 2715,-3002 2719,-2993.5 2715,-2987 2724,-2984.5 2731.5,-2977.5 2802.5,-2977.5 2802.5,-2986.5 2805,-2988 2845,-2988.5 2845,-2990.5 2848.5,-2991 2848.5,-2992.5 2851.5,-2992 2850.5,-2988.5 2865,-2988.5 2869.5,-2980 2869.5,-2978 3500.5,-2977 3500.5,-3117 3432.5,-3117.5 3432.5,-3126.5 3436,-3128.5 3500.5,-3128.5 3500,-3397.5 3433,-3397 3433,-3399 3436,-3408 3500.5,-3408.5 3500.5,-3640 3431,-3665.5 3431,-3677.5 3570.5,-3677.5 3571,-3747 3642,-3747 3643,-3759.5 3647.17,-3768.96 3667.47,-3769.99 3678,-3783.5 3683.5,-3771 3701.5,-3767.5 3701.5,-3749 3709.5,-3748 3710.5,-3818 3780,-3817 3781,-3957 3710,-3957 3710.5,-4028 3639.5,-4027.5 3640,-4097 3220,-4097.5 3220,-4167 3012,-4166.5 3012.5,-4170 3016,-4179 3150,-4179 3150.5,-4237.5 3080,-4237 3080.5,-4378 3011.5,-4377.5 3011.5,-4384 3017.5,-4389 3080,-4389.5 3080.5,-4518 3148.5,-4518 3150,-4587.5 3290.5,-4587.5 3290.5,-4657.5 3361,-4657.5 3361,-4867 3430.5,-4867.5 3430,-5078 3501,-5078 3501,-5287 3571,-5287 3570.5,-5497.5 3640.5,-5498 3641,-5707 3709.5,-5707 3710.5,-5918 3780,-5918.5 3780.5,-6127.5 3849.5,-6127 3850,-6924 3816.5,-6924 3816.5,-6913 3677.5,-6912.5 3677.5,-6898 3537.5,-6897.5 3537.5,-6910.5 3500.5,-6910 3500.5,-6924 3487.5,-6924 3488,-6967.5 3519.5,-6967.5 3521,-6980.5 3590.5,-6980.5 3590.5,-6995.5 3660,-6995.5 3661,-7010 3728,-7010.5 3729,-7025 3782,-7025 3782.5,-7036.5 3850,-7036.5 3850.5,-7247.5 3921.5,-7247 3921,-7318.5 3990.5,-7318 3990.5,-7387 4200,-7387.5 4201,-7632 4220,-7631.5 4222.5,-7620 4312,-7633 4312.5,-7645 4347,-7645 4352.5,-7647.5 4353,-7659.5 4365.5,-7659.5 4371,-7663 4371.5,-7672 4384,-7673 4384.5,-7677 4388.5,-7677.5 4388,-7687.5 4405,-7688 4405,-7703 4442,-7702 4441.5,-7719.5 4461,-7719.5 4460.5,-7733 4495.5,-7733.5 4496,-7747 4511,-7746.5 4512,-7758.5 4562,-7757.5 4562,-7746.5 4582,-7746 4581.5,-7708 4562,-7707.5 4563.5,-7678 4544.5,-7678 4544,-7646.5 4527,-7646.5 4526.5,-7633 4509,-7633 4509.5,-7610 4489.5,-7590.5 4474.5,-7591 4474,-7577 4454,-7577 4455,-7546.5 4436,-7546.5 4437.5,-7534 4454.5,-7531 4455.5,-7518.5 4471,-7516 4475.5,-7504 4489,-7503.5 4489.5,-7473.5 4507,-7474.5 4508,-7462 4526.5,-7461 4527,-7431.5 4543.5,-7431 4545,-7414.5 4559.5,-7415.5 4560.5,-7388.5 4578.5,-7388.5 4619.5,-7386.5 4619.5,-7878.5 5111.5,-7877.5 5109.5,-8085.5 5180.5,-8088.5 5181.5,-8297.5 5320.5,-8298.5 5320.5,-8367.5 5390.5,-8368.5 5389.5,-8228.5 5459.5,-8228.5 5458.5,-8086.5 5528.5,-8087.5 5529.5,-7878.5 5739.5,-7877.5 5738.5,-7947.5 5809.5,-7947.5 5811,-8157 5880,-8157 5880.5,-9207.5 5810,-9207.5 5810.5,-9241 5740.5,-9267 5741,-9277 5810,-9276.5 5810.5,-9557 5740.5,-9557 5740.5,-9767.5 5670,-9766.5 5670,-10188 5532,-10188 5537,-10198.5 5670.5,-10198 5670,-10607.5 5603,-10608 5606.5,-10618 5669.5,-10617.5 5670.5,-10747.5 5602.5,-10747 5607.5,-10759 5670,-10758.5 5671,-10887 5602.5,-10887 5606.5,-10898 5670,-10898.5 5671,-11097.5 5531,-11097.5 5536,-11107.5 5670,-11108 5670.5,-11306.5 5740,-11305.5 5740.5,-11517.5 5810.5,-11517.5 5810.5,-11588"/>
  </object>
  <object id="51" type="Platform" x="6090" y="-5599.5">
   <polygon points="0,0 0,280 138.5,279.5 139.5,349.5 -1.5,349 -0.5,559 137.5,559.5 140,629 69.5,630 70.5,699 0.5,699 0,910 69.5,910 70,920 -0.5,938.5 -1,1120 69.5,1120 70,1130.5 0,1149 0.5,1330 69,1330 70,1339.5 0.5,1359.5 0.5,1749 69,1749.5 70,1760 1,1779 0,1960.5 69.5,1959 70,1971 0,1987.5 0.5,2309 139.5,2310 140.5,2379.5 69.5,2379 70.5,2449.5 0.5,2449.5 0.5,2529.5 -150.5,2530.5 -151,2460.5 -220.5,2461 -221,710 -710.5,710 -710.5,640 -780,641 -779.5,569.5 -850,570.5 -850.5,500 -1049.5,500 -1049.5,699.5 -980,700.5 -980,710.5 -1049.5,728 -1049.5,910.5 -979.5,910.5 -980,920.5 -1049.5,939 -1049,1119.5 -980,1119 -980,1130 -1048.5,1149 -1049.5,1538 -979.5,1539.5 -980.5,1552 -1049.5,1569 -1049,1959 -980.5,1960 -980,1970.5 -1048.5,1988.5 -1049.5,2240 -981,2239.5 -981,2251 -1049,2269 -1049,2449.5 -980.5,2449.5 -980,2461.5 -1048.5,2478.5 -1050,2799.5 -1120,2800 -1120,2659 -1189.5,2660 -1190,2520 -1260.5,2520.5 -1260.5,2449.5 -1330.5,2450 -1331,2240 -1400,2240 -1400,1750 -1470.5,1750.5 -1471,208.5 -1400.5,209.5 -1401,139.5 -1259.5,139 -1260.5,70 -840,69 -839.5,-0.5"/>
  </object>
  <object id="52" type="Platform" x="6618" y="-5598.67">
   <polygon points="0,0 -0.666667,-40 13.3333,-40.6667 12.6667,-54 26,-54.6667 26.6667,-66 40.6667,-66.6667 41.3333,-81.3333 52.6667,-81.3333 52.6667,-122 63.3333,-122 66,-122.667 67.3333,-162.667 78.6667,-162.667 80.6667,-175.333 94.6667,-175.333 94,-188 121.333,-188 120.667,-202 242,-201.333 242.667,-190.667 268,-189.333 268.667,-176.667 282,-176.667 283.333,-162 296,-161.333 296.667,-120.667 309.333,-120 310.667,-68 324,-68.6667 324,-4"/>
  </object>
  <object id="53" type="Platform" x="9730" y="-7839.67">
   <polygon points="0,0 0,12.6667 -69.6667,28.6667 -70.3333,128.333 -4.66667,129.333 -1,133 -1.33333,139 -70,139.333 -70,349.667 -139.667,349.667 -140,409.667 -6.33333,409 -2,412.667 -5.33333,414.333 -2,417.333 -2,419.667 -840,420 -840.333,349.667 -910,350.333 -910,37.3333 -980.667,8.66667 -980.333,-0.333333 -173.667,-0.666667 -173,-39.3333 -160,-39.6667 -159.333,-53.3333 -145.667,-53.3333 -145.667,-66.6667 -132.667,-66.3333 -132.667,-80.3333 -118,-80.6667 -118.333,-119.667 -105.333,-119.667 -105.333,-161 -92.6667,-161 -92.6667,-174 -77.3333,-174.333 -77.3333,-188.333 -50,-188 -51,-201 70,-201.333 70,-189 96.3333,-188.667 97,-173.333 111.333,-174 111.333,-161.667 71,-174.333 -51.3333,-174 -77.6667,-147.333 -78,-0.666667"/>
  </object>
  <object id="54" type="Platform" x="10117.7" y="-10459.7">
   <polygon points="0,0 -18.6667,0.666667 -18.3333,-15.6667 -36.6667,-15.3333 -36,-29 -73,-28.6667 -72.6667,-44 -109,-44 -108.333,-58.3333 -185,-60 -185.333,-36 -199.667,-36 -199.667,63.6667 -193.667,63.6667 -194.333,86.6667 -161.333,87 -123.667,87 -107,74 -107.333,13.6667 -90,13.6667 -90.3333,0 -37.3333,1 -37,14.3333 -19.6667,14.3333"/>
  </object>
  <object id="56" type="Platform" x="9888" y="-10560.7">
   <polygon points="0,0 -1.33333,-14 -16,-14 -16,-28.6667 -32.6667,-30 -34.6667,-42.6667 -52,-44 -52,-58 -70.6667,-58 -70,-72.6667 -86.6667,-72.6667 -87.3333,-86.6667 -105.333,-87.3333 -104.667,-100 -124,-100.667 -124,-116 -140,-116 -140.667,-144.667 -157.333,-145.333 -158.667,-172.667 -143.333,-172 -142.667,-182.667 -124.667,-184.667 -123.333,-198.667 -144.667,-198.667 -144,-189.333 -403.333,-186.667 -401.333,-173.667 -192.833,-173.333 -174,-146.167 -156.333,-113.667 -15.5,1.16667"/>
  </object>
  <object id="57" type="Platform" x="9890" y="-10795">
   <polygon points="0,0 17,-5 15,-20 32,-21 32,-37 50,-37 49,-52 65,-53 64,-64 83,-65 82,-80 103,-81 104,-107 91,-105 85,-120 20,-120 21,-111 -18,-106 -21,-91 -73,-91"/>
  </object>
  <object id="58" type="Platform" x="9309.33" y="-7840">
   <polygon points="0,0 1.33333,-9.33333 8,-22.6667 26.6667,-22 38,-34.6667 42,-34.6667 44,-22.6667 58.6667,-22 62,-17.3333 62,-1.33333"/>
  </object>
  <object id="59" type="Platform" x="9442.67" y="-8010.67">
   <polygon points="0,0 -16,-6.66667 -17.3333,-13.3333 -10.6667,-14.6667 -4.66667,-14.6667 -2.66667,-22 -10,-24.6667 -23.3333,-32 -36,-32 -48.6667,-26 -60,-27.3333 -50,-40.6667 -42,-45.3333 -61.3333,-62 -54.6667,-67.3333 -42.6667,-59.3333 -39.3333,-87.3333 -30,-86 -24.6667,-51.3333 -12.6667,-44.6667 -6.66667,-49.3333 -12.6667,-56 -13.3333,-71.3333 -7.33333,-69.3333 7.33333,-52 14,-26.6667 22.6667,-27.3333 22.6667,-12.6667"/>
  </object>
  <object id="60" type="Platform" x="9486" y="-8048.67">
   <polygon points="0,0 6,-18.6667 -2,-27.3333 -35.3333,-42.6667 -44.6667,-61.3333 -38,-60.6667 -27.3333,-51.3333 -24.6667,-76.6667 -14.6667,-73.3333 -13.3333,-58 -6,-64.6667 7.33333,-55.3333 8,-60.6667 -2.66667,-80 -2,-92.6667 8.66667,-81.3333 10,-102.667 12,-117.333 22,-117.333 26.6667,-108.667 33.3333,-108 34.6667,-94 30.6667,-92.6667 30.6667,-88.6667 27.3333,-80.6667 22.6667,-64 31.3333,-60 33.3333,-46 27.3333,-41.3333 20.6667,-36.6667 25.3333,-33.3333 45.3333,-39.3333 64,-42 78.6667,-76 86.6667,-75.3333 86.6667,-52 66.6667,-26 43.3333,-18.6667 58.6667,-12 62,-4"/>
  </object>
  <object id="61" type="Platform" x="11620.7" y="-12739.3">
   <polygon points="0,0 209.333,0.666667 210,-670.667 280,-687.333 280,-698.667 -71.3333,-701.333 -70.6667,-690 -1.33333,-662.667 -1.33333,-431.333 -273.333,-432 -277.333,-421.333 -2,-420.667"/>
  </object>
  <object id="62" type="Platform" x="11340" y="-12250.7">
   <polygon points="0,0 0.666667,-70.6667 -140,-68.6667 -140,-140 -210,-140.667 -210,-351.333 -279.333,-350.667 -279.333,-490 -213.333,-489.333 -216.667,-499.333 -279.333,-500.667 -280,-629.333 -142.667,-629.333 -146,-640.667 -279.333,-642 -279.333,-770.667 -72.6667,-769.333 -76,-780.667 -279.333,-780.667 -280,-1119.33 68.6667,-1119.33 64.6667,-1131.33 -279.333,-1131.33 -280,-1188.67 -630,-1190 -630,-1180 -560.667,-1154 -561.333,-770.667 -490.667,-768.667 -489.333,-349.333 -420,-349.333 -419.333,-140.667 -350.667,-138 -350,-71.3333 -279.333,-70 -280.667,0.666667 -152.664,0.362623"/>
  </object>
  <object id="63" type="Platform" x="10779" y="-13577">
   <polygon points="0,0 1,-72 -67,-72 -64,-84 -1,-84 0,-283 -69,-283 -63,-296 1,-294 2,-494 980,-494 980,-353 629,-354 631,-282 491,-281 491,-213 351,-211 352,-141 281,-141 281,-71 211,-72 211,-2"/>
  </object>
  <object id="64" type="Platform" x="11898.7" y="-15750.7">
   <polygon points="0,0 1.33333,212 -69.3333,212 -68,280 -140,281.333 -138.667,620 -72,620 -72,630.667 -138.667,630.667 -138.667,1179.33 -5.33333,1180.67 -1.33333,1190 -138.667,1190 -139.333,1530 -75.3333,1530 -70.6667,1540 -979.333,1541.33 -978.667,1399.33 -1045.33,1400 -1042.67,1388.67 -979.333,1390 -978.667,1259.33 -908,1260.67 -908.667,1050 -840,1050.67 -838.667,911.333 -768,911.333 -768.667,770.667 -699.333,769.333 -699.333,629.333 -630,630 -628.667,490 -488.667,492 -488,350 -418.667,350 -418.667,211.333 -349.333,212 -349.333,70 -209.333,71.3333 -209.333,0.666667"/>
  </object>
 </objectgroup>
</map>
