<?xml version="1.0" encoding="UTF-8"?>
<map version="1.10" tiledversion="1.11.2" orientation="orthogonal" renderorder="right-down" width="20" height="20" tilewidth="70" tileheight="70" infinite="0" nextlayerid="5" nextobjectid="4">
 <tileset firstgid="1" name="tilesheet" tilewidth="70" tileheight="70" tilecount="1207" columns="71">
  <image source="../../../../../../../Tilesheet.png" trans="ffffff" width="5000" height="1220"/>
 </tileset>
 <layer id="1" name="background" width="20" height="20">
  <data encoding="csv">
15,16,15,16,15,17,17,15,15,17,15,15,17,17,15,16,15,16,15,17,
16,16,16,17,17,17,15,15,15,16,15,15,15,15,15,15,15,15,16,15,
15,15,17,15,15,16,15,16,16,16,15,15,15,15,15,15,15,15,16,15,
15,15,17,15,15,16,15,16,16,16,15,15,15,15,15,15,15,16,16,15,
17,15,17,15,16,16,15,16,17,17,15,15,15,15,15,15,15,16,16,15,
15,15,17,15,16,16,16,17,17,15,15,15,15,15,15,15,15,16,15,15,
15,15,16,15,16,15,17,16,16,15,15,15,15,15,15,15,15,16,17,15,
16,15,16,15,16,17,16,15,16,15,15,15,15,15,15,15,15,17,17,15,
16,15,16,15,17,17,16,15,16,16,15,15,15,15,15,15,15,17,17,15,
17,15,15,15,17,17,15,16,16,16,15,15,15,15,15,16,16,15,15,15,
17,15,17,16,15,15,17,17,17,17,15,15,15,15,15,15,15,15,15,15,
15,17,15,15,15,15,16,16,15,16,15,15,15,15,15,15,15,15,15,15,
17,17,15,15,15,15,15,15,15,15,15,15,16,16,16,15,17,17,17,17,
15,15,15,15,16,16,15,16,17,17,17,17,17,17,15,17,17,15,15,15,
15,15,15,15,15,15,15,15,15,15,16,16,16,15,17,17,17,17,17,17,
16,15,16,16,16,15,16,15,17,16,16,16,16,16,16,16,17,15,15,863,
16,15,16,16,16,17,17,17,17,15,15,15,16,16,16,16,17,15,863,860,
16,15,16,17,17,16,15,17,17,17,15,15,16,15,16,16,17,17,860,860,
16,16,17,17,15,16,15,15,17,17,15,16,15,16,15,17,17,15,860,860,
15,17,16,16,15,16,16,15,16,17,16,16,16,17,17,17,15,863,860,860
</data>
 </layer>
 <layer id="2" name="terrain" width="20" height="20">
  <data encoding="csv">
0,0,0,0,0,0,0,0,0,0,0,0,0,0,0,0,0,0,0,0,
0,0,0,0,0,0,0,0,0,0,0,0,0,0,0,0,0,0,0,0,
0,0,0,0,0,0,0,0,0,0,0,0,0,0,0,0,0,0,0,0,
0,0,0,0,0,0,0,0,0,0,0,0,0,0,0,0,0,0,0,0,
0,0,0,0,0,0,0,0,0,0,0,0,0,0,0,0,0,0,0,0,
0,0,0,0,0,0,0,0,0,0,0,0,0,0,0,0,0,0,0,0,
0,0,0,0,0,0,0,0,0,0,0,0,0,0,0,0,0,0,0,0,
0,0,0,0,0,0,0,0,0,0,0,0,0,0,0,0,0,0,0,0,
0,0,0,0,0,0,0,0,0,0,0,0,0,0,0,0,0,0,0,0,
0,0,0,0,0,0,0,0,0,0,0,0,0,0,0,0,0,0,0,0,
0,0,0,0,0,0,0,0,0,0,0,0,0,0,0,0,0,0,0,0,
0,0,0,0,0,0,0,0,0,0,0,0,0,0,0,0,0,0,0,0,
0,0,0,0,0,0,0,0,0,0,0,0,0,0,0,0,0,0,0,0,
0,0,0,0,0,0,0,0,0,0,0,0,0,0,0,0,0,0,0,0,
0,0,0,0,0,0,0,0,0,0,0,0,0,0,0,0,0,0,0,0,
0,0,0,0,0,0,0,0,0,0,0,0,0,0,0,0,0,0,0,0,
0,0,0,0,0,0,0,0,0,0,0,0,0,0,0,0,0,0,0,0,
0,0,0,0,0,0,0,0,0,0,0,0,0,0,0,0,0,0,0,0,
0,0,0,0,0,0,0,0,0,0,0,0,0,0,0,0,0,0,0,0,
0,0,0,0,0,0,0,0,0,0,0,0,0,0,0,0,0,0,0,0
</data>
 </layer>
 <objectgroup id="4" name="platform">
  <object id="1" type="platform" x="1190.67" y="1329.33" width="68" height="69.333"/>
  <object id="2" type="platform" x="1258.67" y="1120.03" width="70.6667" height="248"/>
  <object id="3" type="platform" x="1330.67" y="1049.33" width="69.4545" height="73.3333"/>
 </objectgroup>
</map>
