<?xml version="1.0" encoding="UTF-8"?>
<map version="1.10" tiledversion="1.11.2" orientation="orthogonal" renderorder="right-down" width="20" height="20" tilewidth="70" tileheight="70" infinite="0" nextlayerid="4" nextobjectid="14">
 <tileset firstgid="1" name="tilesheet" tilewidth="70" tileheight="70" tilecount="1207" columns="71">
  <image source="../../../../../../../Tilesheet.png" trans="ffffff" width="5000" height="1220"/>
 </tileset>
 <layer id="1" name="background" width="20" height="20">
  <data encoding="csv">
80,80,80,80,80,80,80,722,722,722,722,722,861,861,861,861,0,0,0,0,
80,80,80,80,80,80,80,722,722,722,722,722,861,861,861,861,0,0,0,0,
80,80,80,80,80,80,80,722,722,722,722,722,861,861,861,861,0,0,0,0,
80,80,80,80,80,80,80,722,722,722,722,722,861,861,861,861,0,0,0,0,
80,80,80,80,80,80,80,722,722,722,722,722,722,861,861,861,0,0,0,0,
293,80,80,80,80,80,80,722,722,722,722,722,722,722,861,861,0,0,0,861,
364,576,506,80,80,80,80,722,722,722,722,722,722,722,861,861,0,861,861,861,
435,647,577,648,80,80,80,722,722,722,722,722,722,722,722,861,861,861,861,861,
80,80,80,80,80,80,80,722,722,722,722,722,722,722,722,861,861,861,861,861,
80,80,80,80,80,80,80,722,722,722,722,722,722,0,0,0,0,0,0,0,
722,722,722,722,722,722,722,722,722,722,722,722,0,0,0,0,0,0,0,0,
0,0,0,0,0,0,0,0,0,0,0,0,0,0,0,0,0,0,0,0,
0,0,0,0,0,0,0,0,0,0,0,0,0,0,0,0,0,0,0,0,
0,0,0,0,0,0,0,0,0,0,0,0,0,0,0,0,0,0,0,0,
0,0,0,0,0,0,0,0,0,0,0,0,0,0,0,0,0,0,0,0,
0,0,0,0,0,0,0,0,0,0,0,0,0,0,0,0,0,0,0,0,
0,0,0,0,0,0,0,0,0,0,0,0,0,0,0,0,0,0,0,0,
0,0,0,0,0,0,0,0,0,0,0,0,0,0,0,0,0,0,0,0,
0,0,0,0,0,0,0,0,0,0,0,0,0,0,0,0,0,0,0,0,
0,0,0,0,0,0,0,0,0,0,0,0,0,0,0,0,0,0,0,0
</data>
 </layer>
 <layer id="2" name="terrain" width="20" height="20">
  <data encoding="csv">
0,0,0,0,0,0,0,0,0,0,860,860,0,0,0,661,860,860,860,860,
0,0,0,0,0,0,0,0,0,0,860,860,0,0,0,0,860,860,860,860,
0,0,0,0,0,0,0,0,0,0,0,860,0,0,0,0,860,860,860,860,
0,0,0,0,0,0,0,0,0,0,0,860,0,0,0,661,860,860,860,860,
0,0,0,0,0,0,0,0,0,0,0,0,0,0,0,0,860,860,860,860,
0,0,0,0,0,0,0,0,0,0,0,0,0,0,0,0,860,860,860,0,
0,0,0,0,0,0,0,0,0,0,0,0,0,0,0,661,860,860,654,0,
0,0,0,0,0,0,0,0,0,0,0,0,0,0,0,0,0,0,0,0,
0,0,0,0,0,0,0,0,0,0,0,0,0,0,0,0,0,0,0,0,
382,0,0,0,0,0,0,0,0,0,0,0,0,860,860,860,860,860,860,860,
453,0,0,0,0,860,860,860,860,860,860,860,860,860,860,860,860,860,860,860,
860,860,860,860,860,860,860,860,860,860,860,860,860,860,860,860,860,860,860,860,
860,860,860,860,860,860,860,860,860,860,860,860,860,860,860,860,860,860,860,860,
860,860,860,860,860,860,860,860,860,860,860,860,860,860,860,860,860,860,860,860,
860,860,860,860,860,860,860,860,860,860,860,860,860,860,860,860,860,860,860,860,
860,860,860,860,860,860,860,860,860,860,860,860,860,860,860,860,860,860,860,860,
860,860,860,860,860,860,860,860,860,860,860,860,860,860,860,860,860,860,860,860,
860,860,860,860,860,860,860,860,860,860,860,860,860,860,860,860,860,860,860,860,
860,860,860,860,860,860,860,860,860,860,860,860,860,860,860,860,860,860,860,860,
860,860,860,860,860,860,860,860,860,860,860,860,860,860,860,860,860,860,860,860
</data>
 </layer>
 <objectgroup id="3" name="platform">
  <object id="1" type="platform" x="-3.335" y="1331.65" width="98.6667" height="68"/>
  <object id="2" type="platform" x="348.665" y="699.65" width="560" height="70.6667"/>
  <object id="3" type="platform" x="908.335" y="629.35" width="494" height="70"/>
  <object id="4" type="platform" x="1119.34" y="421.05" width="144" height="70.6667"/>
  <object id="5" type="platform" x="1259.34" y="350.35" width="69.3333" height="68"/>
  <object id="6" type="platform" x="1327.34" y="0.983333" width="70.6667" height="349.337"/>
  <object id="7" type="platform" x="1119.34" y="-0.283333" width="18.6667" height="421.333"/>
  <object id="9" type="platform" x="1049.34" y="209.65" width="68.6667" height="42.6667"/>
  <object id="10" type="platform" x="767.335" y="2.35" width="70" height="280"/>
  <object id="11" type="platform" x="-0.665" y="770.35" width="350" height="70"/>
  <object id="12" type="platform" x="1050.33" y="2.66668" width="70" height="37.3333"/>
  <object id="13" type="platform" x="1047.67" y="420" width="70" height="37.3333"/>
 </objectgroup>
</map>
