<?xml version="1.0" encoding="UTF-8"?>
<map version="1.10" tiledversion="1.11.2" orientation="orthogonal" renderorder="right-down" width="20" height="20" tilewidth="70" tileheight="70" infinite="0" nextlayerid="4" nextobjectid="7">
 <tileset firstgid="1" name="tilesheet" tilewidth="70" tileheight="70" tilecount="1207" columns="71">
  <image source="../../../../../../../Tilesheet.png" trans="ffffff" width="5000" height="1220"/>
 </tileset>
 <layer id="1" name="background" width="20" height="20">
  <data encoding="csv">
0,0,861,861,861,861,861,861,861,861,861,861,861,861,861,861,861,861,861,861,
0,0,0,861,861,861,861,861,861,861,861,861,861,861,861,861,861,861,861,861,
0,0,0,0,0,0,0,0,0,0,0,0,0,0,0,0,0,0,0,0,
0,0,0,0,0,0,0,0,0,0,0,0,0,0,0,0,0,0,0,0,
0,0,0,0,0,0,0,0,0,0,0,0,0,0,0,0,0,0,0,0,
0,0,0,0,0,0,0,0,0,0,0,0,0,0,0,0,0,0,0,0,
0,0,0,0,0,0,0,0,0,0,0,0,0,0,0,0,0,0,0,0,
0,0,0,0,0,0,0,0,0,0,0,0,0,0,0,0,0,0,0,0,
0,0,0,0,0,0,0,0,0,0,0,0,0,0,0,0,0,0,0,0,
0,0,0,0,0,0,0,0,0,0,0,0,0,0,0,0,0,0,0,0,
0,0,0,0,0,0,0,0,0,0,0,0,0,0,0,0,0,0,0,0,
0,0,0,0,0,0,0,0,0,0,0,0,0,0,0,0,0,0,0,0,
0,0,0,0,0,0,0,0,0,0,0,0,0,0,0,0,0,0,0,0,
0,0,0,0,0,0,0,0,0,0,0,0,0,0,0,0,0,0,0,0,
0,0,0,0,0,0,0,0,0,0,0,0,0,0,0,0,0,0,0,0,
0,0,0,0,0,0,0,0,0,0,0,0,0,0,0,0,0,0,0,0,
0,0,0,0,0,0,0,0,0,0,0,0,0,0,0,0,0,0,0,0,
0,0,0,0,0,0,0,0,0,0,0,0,0,0,0,0,0,0,0,0,
0,0,0,0,0,0,0,0,0,0,0,0,0,0,0,0,0,0,0,0,
0,0,0,0,0,0,0,0,0,0,0,0,0,0,0,0,0,0,0,0
</data>
 </layer>
 <layer id="2" name="terrain" width="20" height="20">
  <data encoding="csv">
860,860,866,0,0,0,0,10,0,0,0,0,0,0,0,0,0,0,0,0,
860,860,863,0,0,866,0,81,0,865,0,866,0,0,0,0,0,0,0,0,
860,860,860,863,863,863,863,863,863,863,863,863,863,863,863,863,863,863,863,863,
860,860,860,860,860,860,860,860,860,860,860,860,860,860,860,860,860,860,860,860,
860,860,860,860,860,860,860,860,860,860,860,860,860,860,860,860,860,860,860,860,
860,860,860,860,860,860,860,860,860,860,860,860,860,860,860,860,860,860,860,860,
860,860,860,860,860,860,860,860,860,860,860,860,860,860,860,860,860,860,860,860,
860,860,860,860,860,860,860,860,860,860,860,860,860,860,860,860,860,860,860,860,
860,860,860,860,860,860,860,860,860,860,860,860,860,860,860,860,860,860,860,860,
860,860,860,860,860,860,860,860,860,860,860,860,860,860,860,860,860,860,860,860,
860,860,860,860,860,860,860,860,860,860,860,860,860,860,860,860,860,860,860,860,
860,860,860,860,860,860,860,860,860,860,860,860,860,860,860,860,860,860,860,860,
860,860,860,860,860,860,860,860,860,860,860,860,860,860,860,860,860,860,860,860,
860,860,860,860,860,860,860,860,860,860,860,860,860,860,860,860,860,860,860,860,
860,860,860,860,860,860,860,860,860,860,860,860,860,860,860,860,860,860,860,860,
860,860,860,860,860,860,860,860,860,860,860,860,860,860,860,860,860,860,860,860,
860,860,860,860,860,860,860,860,860,860,860,860,860,860,860,860,860,860,860,860,
860,860,860,860,860,860,860,860,860,860,860,860,860,860,860,860,860,860,860,860,
860,860,860,860,860,860,860,860,860,860,860,860,860,860,860,860,860,860,860,860,
860,860,860,860,860,860,860,860,860,860,860,860,860,860,860,860,860,860,860,860
</data>
 </layer>
 <objectgroup id="3" name="platform">
  <object id="1" type="platform" x="120.005" y="-1.66665" width="21.3333" height="72.333"/>
  <object id="2" type="platform" x="142.665" y="72.0334" width="68" height="69.3333"/>
  <object id="3" type="platform" x="210.665" y="141.333" width="1188.33" height="49.3333"/>
  <object id="4" type="platform" x="772.005" y="129.333" width="68" height="10.6667"/>
  <object id="5" type="platform" x="350.665" y="129.333" width="70.6667" height="8"/>
  <object id="6" type="platform" x="144.005" y="60.0334" width="63.3333" height="12"/>
 </objectgroup>
</map>
