<?xml version="1.0" encoding="UTF-8"?>
<map version="1.10" tiledversion="1.11.2" orientation="orthogonal" renderorder="right-down" width="20" height="20" tilewidth="70" tileheight="70" infinite="0" nextlayerid="5" nextobjectid="6">
 <tileset firstgid="1" name="tilesheet" tilewidth="70" tileheight="70" tilecount="1207" columns="71">
  <image source="../../../../../../../Tilesheet.png" trans="ffffff" width="5000" height="1220"/>
 </tileset>
 <layer id="1" name="background" width="20" height="20">
  <data encoding="csv">
15,16,16,15,15,15,17,15,15,15,15,17,15,16,15,15,15,15,16,15,
17,17,15,17,17,15,15,15,15,16,15,16,16,15,17,15,15,16,17,15,
16,16,15,16,15,16,15,15,16,15,15,15,15,15,16,15,15,15,15,15,
15,16,17,15,15,15,15,17,15,15,16,16,15,17,15,15,15,16,16,16,
15,15,17,17,17,15,16,17,16,16,15,17,17,15,16,15,16,15,15,15,
15,17,15,17,15,16,15,16,15,15,16,16,17,16,15,17,15,16,16,17,
15,15,15,17,17,15,17,15,16,15,15,15,15,16,15,17,15,16,16,15,
17,16,15,16,15,15,16,15,16,16,15,15,15,16,15,15,15,15,16,15,
16,15,16,15,16,15,15,17,16,16,17,15,15,15,17,17,15,15,15,15,
15,17,15,16,17,15,16,15,15,16,17,16,16,16,15,15,15,17,15,15,
15,15,15,17,16,16,15,16,15,15,15,17,16,15,15,15,17,17,17,15,
15,15,15,17,16,15,16,15,15,15,15,15,15,15,16,17,15,16,15,15,
15,15,15,16,16,15,17,15,15,17,15,17,16,15,15,16,16,16,17,15,
17,16,17,17,15,17,16,17,15,15,15,15,16,16,17,15,15,17,15,16,
15,17,17,17,15,17,17,15,15,15,15,15,16,16,15,15,16,15,15,17,
16,15,16,16,16,15,15,17,15,15,15,15,15,16,15,16,15,15,16,16,
16,15,16,15,15,15,15,16,15,16,16,16,15,16,16,15,17,15,15,16,
15,15,16,15,16,16,15,15,17,15,15,15,15,16,15,17,17,15,15,15,
15,17,16,15,17,16,15,17,17,16,15,15,15,16,15,16,15,15,15,15,
15,15,16,15,16,17,15,15,17,15,15,16,15,17,16,17,16,17,16,15
</data>
 </layer>
 <layer id="2" name="terrain" width="20" height="20">
  <data encoding="csv">
0,0,0,0,0,0,0,0,0,0,0,0,0,0,0,0,0,0,0,0,
0,0,0,0,0,0,0,0,0,0,0,0,0,0,0,0,0,0,0,0,
0,0,0,0,0,0,0,0,0,0,0,0,0,0,0,0,0,0,0,0,
0,0,0,0,0,0,0,0,0,0,0,0,0,0,0,0,0,0,0,0,
0,0,0,0,0,0,0,0,0,0,0,0,0,0,0,0,0,0,0,0,
0,0,0,0,0,0,0,0,0,0,0,0,0,0,0,0,0,0,0,0,
0,0,0,0,0,0,0,0,0,0,0,0,0,0,0,34,35,36,37,38,
0,0,0,0,0,0,0,0,0,0,0,0,0,0,0,105,106,107,108,109,
0,0,0,0,0,0,0,0,0,0,0,0,0,0,0,176,177,178,179,180,
0,0,0,0,0,0,0,0,0,0,0,0,0,0,0,247,248,249,250,251,
0,0,0,0,0,0,0,0,0,0,0,0,0,0,0,318,319,320,321,322,
0,0,0,0,0,0,0,0,0,0,0,0,0,0,0,389,390,391,392,393,
0,0,0,0,0,0,0,0,0,0,0,0,0,0,0,460,461,462,463,464,
0,0,0,0,0,0,0,0,0,0,0,0,0,0,0,0,0,0,0,535,
0,0,0,0,0,0,0,0,0,0,0,0,0,0,0,0,0,0,0,606,
0,0,0,0,0,0,0,0,0,0,0,0,0,0,0,673,674,0,0,677,
0,0,0,0,0,0,0,0,0,0,0,0,0,0,0,744,745,746,747,748,
0,0,0,0,0,0,0,0,0,0,0,0,0,0,0,0,0,0,0,0,
0,0,0,0,0,0,0,0,0,0,0,0,0,0,0,0,0,0,0,0,
0,0,0,0,0,0,0,0,0,0,0,0,0,0,0,0,0,0,0,0
</data>
 </layer>
 <objectgroup id="4" name="platform">
  <object id="1" type="platform" x="1049" y="698" width="316" height="46"/>
  <object id="2" type="platform" x="1327" y="778" width="74" height="68"/>
  <object id="3" type="platform" x="1263" y="746" width="68" height="30"/>
  <object id="4" type="platform" x="1261" y="426" width="70" height="70"/>
  <object id="5" type="platform" x="1331" y="446" width="70" height="50"/>
 </objectgroup>
</map>
