<?xml version="1.0" encoding="UTF-8"?>
<map version="1.10" tiledversion="1.11.2" orientation="orthogonal" renderorder="right-down" width="20" height="20" tilewidth="70" tileheight="70" infinite="0" nextlayerid="5" nextobjectid="71">
 <tileset firstgid="1" name="tilesheet" tilewidth="70" tileheight="70" tilecount="1207" columns="71">
  <image source="../../../../../../../Tilesheet.png" trans="ffffff" width="5000" height="1220"/>
 </tileset>
 <layer id="2" name="background" width="20" height="20">
  <data encoding="csv">
15,15,16,17,16,16,17,0,0,0,861,861,861,861,0,0,0,0,0,0,
17,15,17,15,15,15,15,0,0,0,861,861,861,0,0,0,0,0,0,0,
15,15,16,16,16,15,16,0,0,861,861,861,861,0,0,0,0,0,0,0,
17,16,15,15,17,15,16,0,861,861,861,861,861,0,0,0,0,0,0,0,
16,17,15,16,0,0,0,0,861,861,861,861,861,0,0,0,0,0,0,0,
15,17,17,16,0,0,0,0,861,861,861,861,861,0,0,0,0,0,0,0,
17,16,16,16,0,0,0,0,861,861,861,861,861,0,0,0,0,0,0,0,
16,16,16,15,0,0,0,0,861,861,861,861,861,0,0,0,0,0,0,0,
16,17,16,16,0,0,0,0,861,861,861,861,861,0,0,0,0,0,0,0,
16,17,16,15,0,0,0,0,861,861,861,861,861,0,0,0,0,0,0,0,
16,15,17,15,0,0,0,0,861,861,861,861,861,0,0,0,0,0,0,0,
17,17,15,16,0,0,0,0,861,861,861,861,861,0,0,0,0,0,0,0,
15,15,15,15,0,0,0,0,861,861,861,861,861,0,0,0,0,0,0,0,
16,17,15,16,0,0,0,0,861,861,861,861,861,0,0,0,0,0,0,0,
16,17,16,16,0,0,0,0,861,861,861,861,861,0,0,0,0,0,0,0,
15,16,17,17,0,0,0,0,861,861,861,861,861,0,0,0,0,0,0,0,
16,17,15,16,0,0,0,0,861,861,861,861,861,0,0,0,0,0,0,0,
17,17,17,15,0,0,0,0,861,861,861,861,861,0,0,0,0,0,0,0,
15,17,15,15,0,0,0,0,861,861,861,861,861,0,0,0,0,0,0,0,
0,0,0,0,0,0,0,0,861,861,861,861,861,0,0,0,0,0,0,0
</data>
 </layer>
 <layer id="1" name="terrain" width="20" height="20">
  <data encoding="csv">
0,0,0,0,0,863,860,860,860,860,0,0,0,863,860,860,860,860,860,860,
0,0,0,0,0,860,860,860,860,860,0,0,0,860,860,860,860,860,860,860,
0,0,0,0,863,860,860,860,860,0,0,0,0,860,860,860,860,860,860,860,
0,0,0,0,860,860,860,860,0,0,0,0,863,860,860,860,860,860,860,860,
0,0,0,863,860,860,860,860,0,0,0,0,860,860,860,860,860,860,860,860,
0,0,0,860,860,860,860,860,0,0,867,869,860,860,860,860,860,860,860,860,
0,863,860,860,860,860,860,860,0,0,0,0,860,860,860,860,860,860,860,860,
0,860,860,860,860,860,860,860,868,0,0,0,860,860,860,860,860,860,860,860,
863,860,860,860,860,860,860,860,0,0,0,867,860,860,860,860,860,860,860,860,
860,860,860,860,860,860,860,860,0,0,0,0,860,860,860,860,860,860,860,860,
860,860,860,860,860,860,860,860,0,0,0,867,860,860,860,860,860,860,860,860,
860,860,860,860,860,860,860,860,0,0,0,0,860,860,860,860,860,860,860,860,
860,860,860,860,860,860,860,860,0,0,0,867,860,860,860,860,860,860,860,860,
860,860,860,860,860,860,860,860,0,0,0,0,860,860,860,860,860,860,860,860,
860,860,860,860,860,860,860,860,0,0,0,0,860,860,860,860,860,860,860,860,
860,860,860,860,860,860,860,860,869,868,0,0,860,860,860,860,860,860,860,860,
860,860,860,860,860,860,860,860,0,0,0,0,860,860,860,860,860,860,860,860,
860,860,860,860,860,860,860,860,0,0,0,0,860,860,860,860,860,860,860,860,
860,860,860,860,860,860,860,860,0,0,867,869,860,860,860,860,860,860,860,860,
860,860,860,860,860,860,860,860,0,0,0,0,860,860,860,860,860,860,860,860
</data>
 </layer>
 <objectgroup id="3" name="platform">
  <object id="52" type="platform" x="489.348" y="210.181" width="70" height="1190"/>
  <object id="53" type="platform" x="559.348" y="140.181" width="70" height="70"/>
  <object id="54" type="platform" x="629.348" y="0.181364" width="70" height="140"/>
  <object id="55" type="platform" x="349.348" y="0.181364" width="140" height="70"/>
  <object id="56" type="platform" x="349.348" y="70.1814" width="70" height="70"/>
  <object id="57" type="platform" x="279.348" y="140.181" width="70" height="140"/>
  <object id="58" type="platform" x="209.348" y="280.181" width="70" height="140"/>
  <object id="59" type="platform" x="69.3485" y="420.181" width="140" height="70"/>
  <object id="60" type="platform" x="69.3485" y="490.181" width="70" height="70"/>
  <object id="61" type="platform" x="-0.651515" y="560.181" width="70" height="140"/>
  <object id="62" type="platform" x="702.348" y="1313.21" width="136.97" height="16.9697"/>
  <object id="63" type="platform" x="559.348" y="1104.12" width="140" height="16.0606"/>
  <object id="64" type="platform" x="762.948" y="892.001" width="76.3636" height="18.1818"/>
  <object id="65" type="platform" x="769.048" y="758.661" width="70.303" height="11.5152"/>
  <object id="66" type="platform" x="775.148" y="619.271" width="64.2424" height="10.9091"/>
  <object id="67" type="platform" x="705.448" y="410.181" width="133.939" height="10"/>
  <object id="68" type="platform" x="559.948" y="543.511" width="69.3939" height="16.6667"/>
  <object id="69" type="platform" x="839.348" y="210.181" width="70" height="1190.91"/>
  <object id="70" type="platform" x="909.348" y="0.181364" width="70" height="210"/>
 </objectgroup>
</map>
