<?xml version="1.0" encoding="UTF-8"?>
<map version="1.10" tiledversion="1.11.2" orientation="orthogonal" renderorder="right-down" width="20" height="20" tilewidth="70" tileheight="70" infinite="0" nextlayerid="4" nextobjectid="15">
 <tileset firstgid="1" name="tilesheet" tilewidth="70" tileheight="70" tilecount="1207" columns="71">
  <image source="../../../../../../../Tilesheet.png" trans="ffffff" width="5000" height="1220"/>
 </tileset>
 <layer id="1" name="background" width="20" height="20">
  <data encoding="csv">
80,80,80,80,80,80,0,0,0,0,0,0,861,861,861,861,0,0,0,0,
80,80,80,80,80,80,0,0,0,0,0,0,861,861,861,861,0,0,0,0,
80,80,80,80,80,80,0,0,0,0,0,0,861,861,861,861,0,0,0,0,
80,80,80,80,80,80,0,0,0,0,0,0,861,861,861,861,0,0,0,0,
80,80,80,80,80,80,0,0,0,0,0,0,861,861,861,861,0,0,0,0,
80,80,80,80,80,80,0,0,0,0,0,0,861,861,861,861,0,0,0,0,
80,80,80,80,80,80,0,0,0,0,0,0,861,861,861,861,0,0,0,0,
576,506,80,80,80,80,0,0,0,0,0,0,861,861,861,861,0,0,0,0,
647,577,648,80,80,80,0,0,0,0,0,0,861,861,861,861,0,0,0,0,
80,80,80,80,80,80,722,0,0,0,0,0,861,861,861,861,0,0,0,0,
80,80,80,80,80,80,722,0,0,0,0,0,861,861,861,861,0,0,0,0,
722,722,722,722,722,722,722,0,0,0,0,0,861,861,861,861,0,0,0,0,
722,722,722,722,722,722,722,0,0,0,0,0,861,861,861,861,0,0,0,0,
722,722,722,722,722,722,722,0,0,0,0,0,861,861,861,861,0,0,0,0,
722,722,722,722,722,722,722,0,0,0,0,0,861,861,861,861,0,0,0,0,
80,723,724,725,726,727,80,0,0,0,0,0,861,861,861,861,0,0,0,0,
80,794,795,796,797,798,80,722,0,0,0,0,861,861,861,861,0,0,0,0,
80,80,80,80,80,80,80,722,0,0,0,0,861,861,861,861,0,0,0,0,
80,80,80,80,80,80,80,722,722,722,722,722,861,861,861,861,0,0,0,0,
80,80,80,80,80,80,80,722,722,722,722,722,861,861,861,861,0,0,0,0
</data>
 </layer>
 <layer id="2" name="terrain" width="20" height="20">
  <data encoding="csv">
0,0,0,0,0,0,860,860,860,860,860,860,664,0,0,0,860,860,860,860,
0,0,0,0,0,0,860,860,860,860,860,860,0,0,0,0,860,860,860,860,
0,0,0,0,0,0,860,860,860,860,860,860,0,0,0,661,860,860,860,860,
0,0,0,0,0,0,860,860,860,860,860,860,0,0,0,0,860,860,860,860,
0,0,0,0,0,0,860,860,860,860,860,860,0,0,0,0,860,860,860,860,
0,0,0,0,0,0,860,860,860,860,860,860,0,0,0,661,860,860,860,860,
0,0,0,0,0,0,860,860,860,860,860,860,664,0,0,0,860,860,860,860,
0,0,0,0,0,0,860,860,860,860,860,860,0,0,0,0,860,860,860,860,
0,0,0,0,0,0,860,860,860,860,860,860,0,0,0,0,860,860,860,860,
0,0,0,0,0,0,0,860,860,860,860,860,664,0,0,0,860,860,860,860,
0,0,0,0,0,0,0,860,860,860,860,860,0,0,0,0,860,860,860,860,
0,0,0,0,0,0,0,860,860,860,860,860,0,0,0,0,860,860,860,860,
0,0,0,0,0,0,0,860,860,860,860,860,664,0,0,0,860,860,860,860,
0,0,0,0,0,0,0,860,860,860,860,860,0,0,0,0,860,860,860,860,
0,0,0,0,0,0,0,860,860,860,860,860,0,0,0,661,860,860,860,860,
0,0,0,0,0,0,0,860,860,860,860,860,0,0,0,0,860,860,860,860,
0,0,0,0,0,0,0,0,860,860,860,860,664,0,0,0,860,860,860,860,
0,0,0,0,0,0,0,0,860,860,860,860,0,0,0,0,860,860,860,860,
0,0,0,0,0,0,0,0,860,860,860,860,0,0,0,0,860,860,860,860,
0,0,0,0,0,0,0,0,0,860,860,860,664,0,0,0,860,860,860,860
</data>
 </layer>
 <objectgroup id="3" name="platform">
  <object id="1" type="platform" x="1327.67" y="0.615" width="70.6667" height="1398"/>
  <object id="2" type="platform" x="1119.67" y="2.015" width="18.6667" height="1396.67"/>
  <object id="3" type="platform" x="838.997" y="1329.31" width="72" height="30.6667"/>
  <object id="4" type="platform" x="838.997" y="1118.61" width="71.3333" height="35.3333"/>
  <object id="5" type="platform" x="1049.67" y="978.615" width="70" height="38"/>
  <object id="6" type="platform" x="839.667" y="839.315" width="69.3333" height="28.6667"/>
  <object id="7" type="platform" x="839.667" y="629.315" width="71.3333" height="32"/>
  <object id="8" type="platform" x="839.667" y="418.615" width="70.6667" height="32"/>
  <object id="9" type="platform" x="1049.67" y="348.615" width="70.6667" height="39.3333"/>
  <object id="10" type="platform" x="1049.67" y="138.615" width="69.3333" height="41.3333"/>
  <object id="11" type="platform" x="839.667" y="-1.985" width="70.6667" height="32.6667"/>
  <object id="12" type="platform" x="767.667" y="-0.685" width="70" height="1399.33"/>
  <object id="13" type="platform" x="417.667" y="-0.685" width="68" height="632"/>
  <object id="14" type="platform" x="489.667" y="631.315" width="72" height="490"/>
 </objectgroup>
</map>
