<?xml version="1.0" encoding="UTF-8"?>
<map version="1.10" tiledversion="1.11.2" orientation="orthogonal" renderorder="right-down" width="20" height="20" tilewidth="70" tileheight="70" infinite="0" nextlayerid="5" nextobjectid="52">
 <tileset firstgid="1" name="tilesheet" tilewidth="70" tileheight="70" tilecount="1207" columns="71">
  <image source="../../../../../../../Tilesheet.png" trans="ffffff" width="5000" height="1220"/>
 </tileset>
 <layer id="2" name="background" width="20" height="20">
  <data encoding="csv">
15,15,16,17,16,16,17,16,17,16,17,17,17,16,16,16,15,16,15,16,
15,15,15,16,16,17,16,15,16,17,15,17,16,15,16,16,17,15,17,15,
16,16,17,16,15,16,15,16,16,16,17,15,15,16,15,15,15,16,17,16,
15,17,15,15,17,16,16,15,16,17,15,17,16,15,16,16,17,15,16,16,
17,17,16,15,16,16,16,16,16,15,17,17,17,17,16,17,17,15,16,16,
17,16,15,16,15,16,17,15,17,16,16,17,17,16,15,15,16,17,17,15,
17,16,17,17,17,17,16,15,15,15,16,17,17,17,16,17,17,17,16,16,
15,15,17,17,16,16,15,17,17,15,17,17,15,15,15,16,16,15,17,15,
15,15,15,17,16,17,16,16,17,15,15,16,16,15,17,17,17,17,16,15,
16,16,17,17,17,15,15,15,16,17,17,15,16,15,15,17,17,16,15,17,
15,17,16,15,16,16,15,15,17,15,15,15,15,16,15,17,15,17,17,16,
17,17,15,16,17,17,15,15,17,17,17,16,17,16,15,17,16,17,15,17,
17,17,15,15,17,16,16,15,17,16,16,16,15,15,15,15,15,16,15,15,
16,16,17,15,17,15,16,17,15,16,17,16,15,16,15,16,15,17,15,17,
16,15,17,16,15,15,15,17,16,16,15,17,15,16,15,16,15,17,15,16,
16,17,15,17,17,17,16,16,16,16,17,16,15,17,16,15,16,15,17,16,
15,17,16,16,16,17,15,15,17,17,17,17,17,17,15,17,15,16,15,15,
17,17,15,15,15,15,16,17,15,16,16,16,16,17,17,16,17,17,16,16,
15,15,16,15,16,17,15,16,15,17,17,16,16,15,17,15,16,17,17,17,
17,15,16,16,17,17,15,17,15,15,15,16,15,16,16,16,16,17,16,16
</data>
 </layer>
 <layer id="1" name="terrain" width="20" height="20">
  <data encoding="csv">
0,0,0,0,0,0,0,0,0,0,0,0,0,0,0,0,0,0,0,0,
0,0,0,0,0,0,0,0,0,0,0,0,0,0,0,0,0,0,0,0,
0,0,0,0,0,0,0,0,0,0,0,0,0,0,0,0,0,0,0,0,
0,0,0,0,0,0,0,0,0,0,0,0,0,0,0,0,0,0,0,0,
0,0,0,0,0,0,0,0,0,0,0,0,0,0,0,0,0,0,0,0,
0,0,0,0,0,0,0,0,0,0,0,0,0,0,0,0,0,0,0,0,
0,0,0,0,0,0,0,0,0,0,0,0,0,0,0,0,0,0,0,0,
0,0,0,0,0,0,0,0,0,0,0,0,0,0,0,0,0,0,0,0,
0,0,0,0,0,0,0,0,0,0,0,0,0,0,0,0,0,0,0,0,
0,0,0,0,0,0,0,0,0,0,0,0,0,0,0,0,0,0,0,0,
0,0,0,0,0,0,0,0,0,0,0,0,0,0,0,0,0,0,0,863,
0,0,0,0,0,0,0,0,0,0,0,0,0,0,0,0,0,0,0,860,
0,0,0,0,0,0,0,0,0,0,0,0,0,0,0,0,0,0,863,860,
0,0,0,0,0,0,0,0,0,0,0,0,0,0,0,0,0,0,860,860,
0,0,0,0,0,0,0,0,0,0,0,0,0,0,0,0,0,863,860,860,
0,0,0,0,0,0,0,0,0,0,0,0,0,0,0,0,0,860,860,860,
0,0,0,0,0,0,0,0,0,0,0,0,0,0,0,0,0,860,860,860,
0,0,0,0,0,0,0,0,0,0,0,0,0,0,0,0,863,860,860,860,
0,0,0,0,0,0,0,0,0,0,0,0,0,0,0,867,860,860,860,860,
0,0,0,0,0,0,0,0,0,0,0,0,0,0,0,0,860,860,860,860
</data>
 </layer>
 <objectgroup id="3" name="platform">
  <object id="47" type="platform" x="1119.08" y="1190" width="70" height="210.667"/>
  <object id="48" type="platform" x="1329.08" y="700" width="70" height="140"/>
  <object id="49" type="platform" x="1259.08" y="840" width="70" height="140"/>
  <object id="50" type="platform" x="1189.08" y="980" width="70" height="210"/>
  <object id="51" type="platform" x="1047.58" y="1316.06" width="71.5152" height="13.9394"/>
 </objectgroup>
</map>
