<?xml version="1.0" encoding="UTF-8"?>
<map version="1.10" tiledversion="1.11.2" orientation="orthogonal" renderorder="right-down" width="20" height="20" tilewidth="70" tileheight="70" infinite="0" nextlayerid="4" nextobjectid="6">
 <tileset firstgid="1" name="tilesheet" tilewidth="70" tileheight="70" tilecount="1207" columns="71">
  <image source="../../../../../../../Tilesheet.png" trans="ffffff" width="5000" height="1220"/>
 </tileset>
 <layer id="1" name="background" width="20" height="20">
  <data encoding="csv">
15,15,15,15,15,15,15,16,17,16,15,16,15,15,16,16,16,16,17,17,
15,15,15,15,15,15,15,17,17,16,15,16,16,15,16,16,16,16,17,17,
15,15,15,15,15,15,15,17,17,15,16,16,16,16,16,16,16,17,17,17,
15,15,15,15,15,16,16,15,15,17,17,17,17,16,16,15,15,15,16,17,
15,15,15,15,15,15,15,15,15,16,16,15,16,17,17,17,17,17,17,15,
15,15,15,15,15,15,15,15,15,15,15,15,15,15,15,16,16,16,15,17,
0,0,0,0,0,0,0,0,0,0,0,0,0,0,0,0,0,0,0,0,
0,0,0,0,0,0,0,0,0,0,0,0,0,0,0,0,0,0,0,0,
0,0,0,0,0,0,0,0,0,0,0,0,0,0,0,0,0,0,0,0,
0,0,0,0,0,0,0,0,0,0,0,0,0,0,0,0,0,0,0,0,
0,0,0,0,0,0,0,0,0,0,0,0,0,0,0,0,0,0,0,0,
0,0,0,0,0,0,0,0,0,0,0,0,0,0,0,0,0,0,0,0,
0,0,0,0,0,0,0,0,0,0,0,0,0,0,0,0,0,0,0,0,
0,0,0,0,0,0,0,0,0,0,0,0,0,0,0,0,0,0,0,0,
0,0,0,0,0,0,0,0,0,0,0,0,0,0,0,0,0,0,0,0,
0,0,0,0,0,0,0,0,0,0,0,0,0,0,0,0,0,0,0,0,
0,0,0,0,0,0,0,0,0,0,0,0,0,0,0,0,0,0,0,0,
0,0,0,0,0,0,0,0,0,0,0,0,0,0,0,0,0,0,0,0,
0,0,0,0,0,0,0,0,0,0,0,0,0,0,0,0,0,0,0,0,
0,0,0,0,0,0,0,0,0,0,0,0,0,0,0,0,0,0,0,0
</data>
 </layer>
 <layer id="2" name="terrain" width="20" height="20">
  <data encoding="csv">
0,0,0,0,0,0,0,0,0,863,860,860,860,860,860,860,860,860,860,860,
0,0,0,0,0,0,0,0,863,860,860,860,860,860,860,860,860,860,860,860,
0,0,0,0,0,0,0,863,860,860,860,860,860,860,860,860,860,860,860,860,
0,0,0,0,0,0,863,860,860,860,860,860,860,860,860,860,860,860,860,860,
863,863,863,863,863,863,860,860,860,860,860,860,860,860,860,860,860,860,860,860,
860,860,860,860,860,860,860,860,860,860,860,860,860,860,860,860,860,860,860,860,
860,860,860,860,860,860,860,860,860,860,860,860,860,860,860,860,860,860,860,860,
860,860,860,860,860,860,860,860,860,860,860,860,860,860,860,860,860,860,860,860,
860,860,860,860,860,860,860,860,860,860,860,860,860,860,860,860,860,860,860,860,
860,860,860,860,860,860,860,860,860,860,860,860,860,860,860,860,860,860,860,860,
860,860,860,860,860,860,860,860,860,860,860,860,860,860,860,860,860,860,860,860,
860,860,860,860,860,860,860,860,860,860,860,860,860,860,860,860,860,860,860,860,
860,860,860,860,860,860,860,860,860,860,860,860,860,860,860,860,860,860,860,860,
860,860,860,860,860,860,860,860,860,860,860,860,860,860,860,860,860,860,860,860,
860,860,860,860,860,860,860,860,860,860,860,860,860,860,860,860,860,860,860,860,
860,860,860,860,860,860,860,860,860,860,860,860,860,860,860,860,860,860,860,860,
860,860,860,860,860,860,860,860,860,860,860,860,860,860,860,860,860,860,860,860,
860,860,860,860,860,860,860,860,860,860,860,860,860,860,860,860,860,860,860,860,
860,860,860,860,860,860,860,860,860,860,860,860,860,860,860,860,860,860,860,860,
860,860,860,860,860,860,860,860,860,860,860,860,860,860,860,860,860,860,860,860
</data>
 </layer>
 <objectgroup id="3" name="platform">
  <object id="1" type="platform" x="-1.99835" y="280" width="419" height="70"/>
  <object id="2" type="platform" x="421.002" y="211.3" width="72" height="69.3333"/>
  <object id="3" type="platform" x="491.672" y="140.7" width="70.6667" height="70.6667"/>
  <object id="4" type="platform" x="559.672" y="70" width="70.6667" height="73.3333"/>
  <object id="5" type="platform" x="630.332" y="-2" width="70.6667" height="73.3333"/>
 </objectgroup>
</map>
