<?xml version="1.0" encoding="UTF-8"?>
<map version="1.10" tiledversion="1.11.2" orientation="orthogonal" renderorder="right-down" width="20" height="20" tilewidth="70" tileheight="70" infinite="0" nextlayerid="5" nextobjectid="79">
 <tileset firstgid="1" name="tilesheet" tilewidth="70" tileheight="70" tilecount="1207" columns="71">
  <image source="../../../../../../../Tilesheet.png" trans="ffffff" width="5000" height="1220"/>
 </tileset>
 <layer id="2" name="background" width="20" height="20">
  <data encoding="csv">
15,15,16,15,17,16,15,15,16,15,15,15,17,16,15,16,17,17,15,17,
17,17,17,15,15,15,17,17,16,16,17,16,16,15,17,17,17,16,16,16,
15,17,16,16,15,16,17,16,17,17,17,17,15,15,16,17,17,15,15,16,
17,17,16,17,16,17,16,15,15,16,15,17,17,17,17,17,17,16,17,15,
15,17,16,16,15,15,16,17,15,17,17,16,16,17,17,17,16,16,15,16,
16,15,15,15,17,15,17,17,16,16,16,16,17,17,15,17,15,17,15,15,
15,17,17,16,15,17,17,16,16,15,17,15,16,16,17,17,17,17,15,17,
17,15,15,17,17,16,16,17,16,16,15,16,15,17,16,17,17,17,16,15,
15,15,16,16,17,16,16,15,16,16,16,15,16,16,15,16,15,16,17,17,
15,15,15,17,17,15,15,16,17,15,17,16,15,16,17,15,17,15,16,17,
16,15,15,17,17,17,15,16,15,15,16,15,16,17,15,17,15,15,15,17,
16,17,16,15,15,17,15,17,16,17,17,17,15,17,15,15,17,15,17,16,
16,15,15,16,15,15,15,17,17,17,15,17,17,17,17,17,16,16,15,15,
17,17,17,15,15,15,17,15,15,17,15,15,16,15,17,15,17,16,17,16,
16,17,15,17,16,16,16,17,17,17,17,16,17,15,15,17,0,0,0,0,
16,15,16,17,17,17,15,15,15,16,15,15,16,17,16,15,0,0,0,0,
16,16,17,16,15,17,15,15,16,17,17,15,17,17,15,16,0,0,0,0,
17,17,17,16,16,15,16,17,16,15,17,15,16,15,15,17,0,0,0,0,
17,17,17,16,15,15,16,15,15,15,15,17,17,16,17,15,0,0,0,0,
16,15,17,16,16,16,15,0,0,0,864,864,864,864,0,0,0,0,0,0
</data>
 </layer>
 <layer id="1" name="terrain" width="20" height="20">
  <data encoding="csv">
625,626,627,628,629,630,631,632,633,634,635,636,637,638,639,0,0,0,0,0,
696,697,698,699,700,701,702,703,704,705,706,707,708,709,710,0,0,0,0,0,
767,768,769,770,771,772,773,774,775,776,777,778,779,780,781,0,0,0,0,0,
838,839,840,841,842,843,844,845,846,847,848,849,850,851,852,0,0,0,0,863,
909,910,911,912,913,914,915,916,917,918,919,920,921,922,923,0,0,0,0,860,
0,0,0,0,0,0,0,0,0,0,0,0,0,0,0,0,0,0,0,860,
0,0,0,0,0,0,0,0,0,0,0,0,0,0,0,0,0,0,863,860,
0,0,0,0,0,0,0,0,0,0,0,0,0,0,0,0,0,0,860,860,
0,0,0,0,0,0,0,0,0,0,0,0,0,0,0,0,0,0,860,860,
0,0,0,0,0,0,0,0,0,0,0,0,0,0,0,0,0,863,860,860,
0,0,0,0,0,0,0,0,0,0,0,0,0,0,0,0,0,860,860,860,
0,0,0,0,0,0,0,0,0,0,0,0,0,0,0,0,0,860,860,860,
0,0,0,0,0,0,0,0,0,0,0,0,0,0,0,0,863,860,860,860,
0,0,0,0,0,0,0,0,0,0,0,0,0,0,0,0,860,860,860,860,
0,0,0,0,0,0,0,0,0,0,0,0,0,0,0,0,860,860,860,860,
0,0,0,0,0,0,0,0,0,0,0,0,0,0,0,863,860,860,860,860,
0,0,0,0,0,0,0,0,0,0,0,0,0,0,0,860,860,860,860,860,
0,0,0,0,0,0,0,0,0,0,0,0,0,0,0,860,860,860,860,860,
0,0,0,0,0,0,0,0,0,0,0,0,0,0,863,860,860,860,860,860,
0,0,0,0,0,0,0,863,863,863,0,0,0,0,860,860,860,860,860,860
</data>
 </layer>
 <objectgroup id="3" name="platform">
  <object id="71" type="platform" x="629.894" y="1329.09" width="70" height="70"/>
  <object id="72" type="platform" x="489.894" y="1329.09" width="140" height="70"/>
  <object id="73" type="platform" x="979.894" y="1259.09" width="70" height="140"/>
  <object id="74" type="platform" x="1049.89" y="1049.09" width="70" height="210"/>
  <object id="75" type="platform" x="1119.89" y="839.091" width="70" height="210"/>
  <object id="76" type="platform" x="1189.89" y="629.091" width="70" height="210"/>
  <object id="77" type="platform" x="1259.89" y="419.091" width="70" height="210"/>
  <object id="78" type="platform" x="1329.89" y="209.091" width="70" height="210"/>
 </objectgroup>
</map>
