<?xml version="1.0" encoding="UTF-8"?>
<map version="1.10" tiledversion="1.11.2" orientation="orthogonal" renderorder="right-down" width="20" height="20" tilewidth="70" tileheight="70" infinite="0" nextlayerid="4" nextobjectid="10">
 <tileset firstgid="1" name="tilesheet" tilewidth="70" tileheight="70" tilecount="1207" columns="71">
  <image source="../../../../../../../Tilesheet.png" trans="ffffff" width="5000" height="1220"/>
 </tileset>
 <layer id="1" name="background" width="20" height="20">
  <data encoding="csv">
0,0,0,0,0,0,0,0,0,0,0,0,0,0,0,0,0,0,0,0,
16,16,16,17,15,15,17,0,0,0,0,0,0,0,0,0,0,0,0,0,
16,16,16,17,15,15,17,0,0,0,0,0,0,0,0,0,0,0,0,0,
15,16,16,17,17,15,17,0,0,0,0,0,0,0,0,0,0,0,0,0,
16,15,17,17,15,15,17,0,0,0,0,0,0,0,0,0,0,0,0,0,
17,17,17,15,15,15,16,0,0,0,0,0,0,0,0,0,0,0,0,0,
17,17,17,15,16,15,16,0,0,0,0,0,0,0,0,0,0,0,0,0,
16,17,17,16,16,15,16,0,0,0,0,0,0,0,0,0,0,0,0,0,
15,17,15,17,17,861,861,861,861,861,861,861,861,861,861,861,861,861,861,861,
17,15,15,15,17,861,861,861,861,861,861,861,861,861,861,861,861,861,861,861,
17,15,15,15,15,17,15,0,0,0,0,0,0,0,0,0,0,0,0,0,
17,17,17,17,17,17,15,0,0,0,0,0,0,0,0,0,0,0,0,0,
864,0,0,0,0,0,0,0,0,0,0,0,0,0,0,0,0,0,0,0,
861,861,0,0,0,0,0,0,0,0,0,0,0,0,0,0,0,0,0,0,
861,861,0,0,0,0,0,0,0,0,0,0,0,0,0,0,0,0,0,0,
861,861,0,0,0,0,0,0,0,0,0,0,0,0,0,0,0,0,0,0,
861,861,0,0,0,0,0,0,0,0,0,0,0,0,0,0,0,0,0,0,
861,861,0,0,0,0,0,0,0,0,0,0,0,0,0,0,0,0,0,0,
861,861,0,0,0,0,0,0,0,0,0,0,0,0,0,0,0,0,0,0,
861,861,0,0,0,0,0,0,0,0,0,0,0,0,0,0,0,0,0,0
</data>
 </layer>
 <layer id="2" name="terrain" width="20" height="20">
  <data encoding="csv">
860,860,860,860,860,860,860,860,860,860,860,860,860,860,860,860,860,860,860,860,
860,860,860,860,860,860,860,860,860,860,860,860,860,860,860,860,860,860,860,860,
860,860,860,860,860,860,860,860,860,860,860,860,860,860,860,860,860,860,860,860,
860,860,860,860,860,860,860,860,860,860,860,860,860,860,860,860,860,860,860,860,
860,860,860,860,860,860,860,860,860,860,860,860,860,860,860,860,860,860,860,860,
860,860,860,860,860,860,860,860,860,860,860,860,860,860,860,860,860,860,860,860,
0,0,0,860,860,860,860,860,860,860,860,860,860,860,860,860,860,860,860,860,
0,0,0,0,860,860,860,860,860,860,860,860,860,860,860,860,860,860,860,860,
0,0,0,0,0,0,0,0,0,0,0,0,0,0,0,0,0,0,0,0,
103,104,0,0,0,0,0,0,0,0,0,0,0,0,0,0,0,0,0,0,
174,175,0,853,860,860,860,860,860,860,860,860,860,860,860,860,860,860,860,860,
245,246,860,860,860,860,860,860,860,860,860,860,860,860,860,860,860,860,860,860,
661,860,860,860,860,860,860,860,860,860,860,860,860,860,860,860,860,860,860,860,
0,860,860,860,860,860,860,860,860,860,860,860,860,860,860,860,860,860,860,860,
0,860,860,860,860,860,860,860,860,860,860,860,860,860,860,860,860,860,860,860,
867,860,860,860,860,860,860,860,860,860,860,860,860,860,860,860,860,860,860,860,
0,860,860,860,860,860,860,860,860,860,860,860,860,860,860,860,860,860,860,860,
0,860,860,860,860,860,860,860,860,860,860,860,860,860,860,860,860,860,860,860,
0,860,860,860,860,860,860,860,860,860,860,860,860,860,860,860,860,860,860,860,
867,860,860,860,860,860,860,860,860,860,860,860,860,860,860,860,860,860,860,860
</data>
 </layer>
 <objectgroup id="3" name="platform">
  <object id="1" type="platform" x="0.209091" y="1105.84" width="70.6667" height="16"/>
  <object id="2" type="platform" x="-2.45091" y="1389.84" width="70.6667" height="10.6667"/>
  <object id="3" type="platform" x="69.5491" y="841.835" width="69.3333" height="561.939"/>
  <object id="4" type="platform" x="-2.45091" y="839.135" width="73.3333" height="42.6667"/>
  <object id="5" type="platform" x="138.879" y="771.135" width="141" height="70"/>
  <object id="6" type="platform" x="279.879" y="701.135" width="1121" height="70"/>
  <object id="7" type="platform" x="-0.394242" y="351.135" width="209.272" height="70"/>
  <object id="8" type="platform" x="210.879" y="421.135" width="68" height="70"/>
  <object id="9" type="platform" x="278.212" y="491.135" width="1121.33" height="70"/>
 </objectgroup>
</map>
