<?xml version="1.0" encoding="UTF-8"?>
<map version="1.10" tiledversion="1.11.2" orientation="orthogonal" renderorder="right-down" width="20" height="20" tilewidth="70" tileheight="70" infinite="0" nextlayerid="5" nextobjectid="80">
 <tileset firstgid="1" name="tilesheet" tilewidth="70" tileheight="70" tilecount="1207" columns="71">
  <image source="../../../../../../../Tilesheet.png" trans="ffffff" width="5000" height="1220"/>
 </tileset>
 <layer id="2" name="background" width="20" height="20">
  <data encoding="csv">
15,17,17,17,17,15,15,16,16,16,17,16,15,15,17,15,15,15,17,16,
16,17,16,17,16,15,15,16,16,16,17,15,15,17,15,17,15,15,15,16,
15,17,16,15,15,15,16,15,17,15,16,17,17,17,16,15,15,15,17,17,
16,17,15,16,17,15,15,17,16,15,16,17,16,17,15,15,15,17,17,15,
15,15,15,15,16,17,16,17,17,16,15,17,15,17,15,16,15,17,15,15,
17,16,17,17,16,17,17,16,16,17,16,15,15,15,15,15,15,17,16,16,
17,16,17,17,17,17,17,16,16,15,15,17,15,16,17,17,17,17,17,17,
17,16,17,17,16,16,16,15,15,17,16,16,15,17,17,15,17,15,17,17,
15,16,15,17,17,16,15,15,16,15,15,17,16,16,16,17,17,16,17,15,
17,16,17,15,15,16,16,15,16,16,16,17,15,16,16,17,15,15,16,16,
16,17,16,15,15,17,16,17,17,15,16,16,17,17,15,15,17,17,16,16,
17,17,17,15,15,17,15,16,15,15,16,15,17,16,16,16,17,15,17,15,
17,15,15,16,17,17,15,15,15,15,15,15,16,15,17,17,15,17,16,16,
16,16,17,17,15,17,17,16,15,17,17,15,15,15,15,17,16,17,16,15,
15,17,15,16,16,16,16,17,17,15,16,17,17,16,16,16,17,16,16,16,
15,16,17,17,15,15,15,16,15,16,16,17,15,17,17,17,16,17,17,15,
15,16,15,16,16,15,17,16,15,17,16,17,17,16,16,16,16,15,17,15,
16,16,15,16,16,16,17,17,15,15,17,15,16,17,15,15,16,16,15,15,
15,16,16,15,15,16,16,16,16,16,16,17,17,16,16,16,15,16,17,15,
17,15,17,16,15,15,16,15,15,16,15,15,15,16,15,16,16,16,17,16
</data>
 </layer>
 <layer id="1" name="terrain" width="20" height="20">
  <data encoding="csv">
0,0,0,0,0,0,0,0,0,0,0,0,0,0,0,0,0,0,0,0,
0,0,0,0,0,0,0,0,0,0,0,0,0,0,0,0,0,0,0,0,
0,0,0,0,0,0,0,0,0,0,0,0,0,0,0,0,0,0,0,0,
0,0,0,0,0,0,0,0,0,0,0,0,0,0,0,0,0,0,0,0,
0,0,0,0,0,0,0,0,0,0,0,0,0,0,0,0,0,0,0,0,
0,0,0,0,0,0,0,0,0,0,0,0,0,0,0,0,0,0,0,0,
0,0,0,0,0,0,0,0,0,0,0,0,0,0,0,0,0,0,0,0,
0,0,0,0,0,0,0,0,0,0,0,0,0,0,0,0,0,0,0,0,
0,0,0,0,0,0,0,0,0,0,0,0,0,0,0,0,0,0,0,0,
0,0,0,0,0,0,0,0,0,0,0,0,0,0,0,0,0,0,0,0,
0,0,0,0,0,0,0,0,0,0,0,0,0,0,0,0,0,0,0,0,
0,0,0,0,0,0,0,0,0,0,0,0,0,0,0,0,0,0,0,0,
57,58,59,60,61,62,63,64,65,66,67,68,69,70,71,0,0,0,0,0,
128,129,130,131,132,133,134,135,136,137,138,139,140,141,142,0,0,0,0,0,
199,200,201,202,203,204,205,206,207,208,209,210,211,212,213,0,0,0,0,0,
270,271,272,273,274,275,276,277,278,279,280,281,282,283,284,0,0,0,0,0,
341,342,343,344,345,346,347,348,349,350,351,352,353,354,355,0,0,0,0,0,
412,413,414,415,416,417,418,419,420,421,422,423,424,425,426,0,0,0,0,0,
483,484,485,486,487,488,489,490,491,492,493,494,495,496,497,0,0,0,0,0,
554,555,556,557,558,559,560,561,562,563,564,565,566,567,568,0,0,0,0,0
</data>
 </layer>
 <objectgroup id="3" name="platform"/>
</map>
