<?xml version="1.0" encoding="UTF-8"?>
<map version="1.10" tiledversion="1.11.2" orientation="orthogonal" renderorder="right-down" width="20" height="20" tilewidth="70" tileheight="70" infinite="0" nextlayerid="4" nextobjectid="14">
 <tileset firstgid="1" name="tilesheet" tilewidth="70" tileheight="70" tilecount="1207" columns="71">
  <image source="../../../../../../../Tilesheet.png" trans="ffffff" width="5000" height="1220"/>
 </tileset>
 <layer id="1" name="background" width="20" height="20">
  <data encoding="csv">
15,15,16,16,15,15,15,15,16,16,15,15,15,16,15,15,15,0,861,861,
16,17,15,15,15,17,15,15,16,15,16,16,15,16,16,16,15,0,861,861,
15,17,16,16,15,16,17,16,15,15,15,15,16,16,16,16,16,0,861,861,
15,15,17,15,16,16,15,17,17,17,16,15,15,17,15,16,16,0,861,861,
15,16,16,15,15,15,17,16,15,15,15,15,17,17,17,16,16,0,861,861,
15,15,15,15,15,16,16,16,15,15,16,15,15,15,17,16,16,0,861,861,
16,15,15,15,15,16,16,17,17,17,15,15,16,15,17,15,16,0,861,861,
16,17,16,15,16,16,17,15,16,15,16,15,17,15,15,15,15,0,861,861,
16,15,16,16,15,15,16,15,17,15,15,17,15,15,15,15,17,15,861,861,
15,17,17,16,16,16,15,17,15,15,15,15,16,15,15,16,15,15,861,861,
15,17,17,16,16,16,15,15,16,15,16,16,17,17,15,17,16,15,861,861,
15,15,15,15,15,15,15,15,16,16,17,15,17,15,15,17,15,15,861,861,
17,16,17,15,15,15,16,16,15,15,15,15,15,16,17,15,16,0,0,0,
15,17,15,15,15,15,15,17,17,15,15,16,15,16,15,17,15,0,0,0,
15,15,15,15,15,16,15,15,15,16,15,15,15,17,17,15,17,0,0,0,
16,15,16,15,15,16,15,15,16,15,16,17,15,16,15,15,16,0,0,0,
16,17,15,15,15,16,17,15,15,17,16,15,15,15,15,15,15,0,0,0,
15,17,17,15,15,16,16,15,16,15,15,15,15,15,15,15,15,0,0,0,
16,15,15,16,16,15,15,15,17,15,15,16,16,15,15,15,17,0,0,0,
17,15,15,15,15,16,17,15,15,17,15,16,15,17,15,16,16,0,0,0
</data>
 </layer>
 <layer id="2" name="terrain" width="20" height="20">
  <data encoding="csv">
0,0,0,0,0,0,0,0,0,0,0,0,0,0,0,860,860,860,0,0,
0,0,0,0,0,0,0,0,0,0,0,0,0,0,0,860,860,860,868,0,
0,0,0,0,0,0,0,0,0,0,0,0,0,0,0,860,860,860,0,0,
0,0,0,0,0,0,0,0,0,0,0,0,0,0,0,860,860,860,0,0,
0,0,0,0,0,0,0,0,0,0,0,0,0,0,0,0,860,860,860,0,
0,0,0,0,0,0,0,0,0,0,0,0,0,0,0,0,860,860,860,0,
0,0,0,0,0,0,0,0,0,0,0,0,0,0,0,0,860,860,860,0,
0,0,0,0,0,0,0,0,0,0,0,0,0,0,0,0,0,860,860,860,
0,0,0,0,0,0,0,0,0,0,0,0,0,0,0,0,0,0,860,860,
0,0,0,0,0,0,0,0,0,0,0,0,0,0,0,0,0,0,0,0,
0,0,0,0,0,0,0,0,0,0,0,45,46,47,48,49,50,0,0,0,
0,0,0,0,0,0,0,0,0,0,0,116,117,118,119,120,121,0,0,0,
0,0,0,0,0,0,0,0,0,0,0,187,188,189,190,191,192,863,863,863,
0,0,0,0,0,0,0,0,0,0,0,258,259,260,261,262,263,860,860,860,
0,0,0,0,0,0,0,0,0,0,0,329,330,331,332,333,334,860,860,860,
0,0,0,0,0,0,0,0,0,0,0,400,401,402,403,404,405,860,860,860,
0,0,0,0,0,0,0,0,0,0,0,471,472,473,474,475,476,860,860,860,
0,0,0,0,0,0,0,0,0,0,0,542,543,544,545,546,547,860,860,860,
0,0,0,0,0,0,0,0,0,0,0,613,614,615,616,617,618,860,860,860,
0,0,0,0,0,0,0,0,863,863,863,684,685,686,687,688,689,860,860,860
</data>
 </layer>
 <objectgroup id="3" name="platform">
  <object id="1" type="platform" x="1189.21" y="839.606" width="211" height="70"/>
  <object id="2" type="platform" x="1189.21" y="909.606" width="70" height="490"/>
  <object id="3" type="platform" x="559.212" y="1329.61" width="210" height="70"/>
  <object id="4" type="platform" x="769.212" y="1081.61" width="70" height="248"/>
  <object id="5" type="platform" x="839.212" y="1055.61" width="238" height="64"/>
  <object id="6" type="platform" x="981.212" y="999.606" width="160" height="56"/>
  <object id="7" type="platform" x="1039.21" y="959.606" width="114" height="42"/>
  <object id="8" type="platform" x="1262.81" y="127.786" width="66.3636" height="11.8182"/>
  <object id="9" type="platform" x="1259.21" y="559.606" width="140" height="70"/>
  <object id="10" type="platform" x="1189.21" y="489.606" width="70" height="70"/>
  <object id="11" type="platform" x="1119.21" y="419.606" width="70" height="70"/>
  <object id="12" type="platform" x="1119.21" y="279.606" width="70" height="140"/>
  <object id="13" type="platform" x="1049.21" y="-0.393939" width="70" height="280"/>
 </objectgroup>
</map>
