<?xml version="1.0" encoding="UTF-8"?>
<map version="1.10" tiledversion="1.11.2" orientation="orthogonal" renderorder="right-down" width="20" height="20" tilewidth="70" tileheight="70" infinite="0" nextlayerid="4" nextobjectid="4">
 <tileset firstgid="1" name="tilesheet" tilewidth="70" tileheight="70" tilecount="1207" columns="71">
  <image source="../../../../../../../Tilesheet.png" trans="ffffff" width="5000" height="1220"/>
 </tileset>
 <layer id="1" name="background" width="20" height="20">
  <data encoding="csv">
80,80,80,80,80,80,80,80,80,80,80,80,80,80,80,80,80,80,80,80,
722,722,722,722,722,722,80,80,80,80,80,80,80,80,80,80,80,80,80,80,
80,80,80,80,80,80,80,80,80,80,80,505,292,293,80,80,80,80,80,80,
80,718,719,720,721,722,80,80,80,80,151,221,363,364,576,506,80,80,80,80,
80,789,790,791,792,793,80,80,80,80,150,222,434,435,647,577,648,80,80,80,
80,80,80,80,80,80,80,80,80,80,80,80,80,80,80,80,80,80,80,80,
80,80,80,80,80,80,80,80,80,80,80,80,80,80,80,80,80,80,80,80,
80,80,80,80,80,80,80,80,80,80,80,80,80,80,80,80,80,723,724,725,
80,80,80,80,80,80,80,80,80,80,80,80,80,80,80,80,80,794,795,796,
80,80,80,80,80,80,80,80,80,80,80,80,80,80,80,80,80,80,80,80,
80,80,80,80,80,80,80,80,80,80,80,80,80,80,80,80,80,80,80,80,
80,80,80,723,724,725,726,727,80,80,80,80,80,80,80,80,80,80,80,80,
80,80,80,794,795,796,797,798,80,80,80,80,505,292,293,80,80,80,80,80,
80,80,80,80,80,80,80,80,80,80,80,151,221,363,364,576,506,80,80,80,
362,362,362,362,722,80,80,80,80,80,80,150,222,434,435,647,577,648,80,80,
1,2,3,4,5,6,7,80,80,80,80,80,80,80,80,80,80,80,80,80,
72,73,74,75,76,77,78,80,80,80,80,80,80,80,80,80,80,80,80,718,
143,144,145,146,147,148,149,80,723,724,725,726,727,80,80,80,80,80,80,789,
214,215,216,217,218,219,220,80,794,795,796,797,798,80,80,80,80,80,80,80,
285,286,287,288,289,290,291,80,80,80,80,80,80,80,80,80,80,80,80,80
</data>
 </layer>
 <layer id="2" name="terrain" width="20" height="20">
  <data encoding="csv">
0,0,0,0,0,0,0,0,0,0,0,0,0,0,0,0,0,0,0,0,
0,0,0,0,0,0,0,0,0,0,0,0,0,0,0,0,0,0,0,0,
0,0,0,0,0,0,0,0,0,0,0,0,0,0,0,0,0,0,0,0,
0,0,0,0,0,0,0,0,0,0,0,0,0,0,0,0,0,0,0,0,
0,0,0,0,0,0,0,0,0,0,0,0,0,0,0,0,0,0,0,0,
0,0,0,0,0,0,0,0,0,0,0,0,0,0,0,0,0,0,0,0,
0,0,0,0,0,0,0,0,0,0,0,0,0,0,0,0,0,0,0,0,
0,0,0,0,0,0,0,0,0,0,0,0,0,0,0,0,0,0,0,0,
0,0,0,0,0,0,0,0,0,0,0,0,0,0,0,0,0,0,0,0,
0,0,0,0,0,0,0,0,0,0,0,0,0,0,0,0,0,0,0,0,
0,0,0,0,0,0,0,0,0,0,0,0,0,0,0,0,0,0,0,0,
0,0,0,0,0,0,0,0,0,0,0,0,0,0,0,0,0,0,0,0,
0,0,0,0,0,0,0,0,0,0,0,0,0,0,0,0,0,0,0,0,
0,0,0,0,0,0,0,0,0,0,0,0,0,0,0,0,0,0,0,0,
0,0,0,0,0,0,0,0,0,0,0,0,0,0,0,0,0,0,0,0,
0,0,427,428,429,430,431,432,0,0,0,0,0,0,0,0,0,0,0,0,
0,0,498,499,500,501,502,503,0,0,0,0,0,0,0,0,0,0,0,0,
0,0,569,570,571,572,573,574,0,0,0,0,0,0,0,0,0,0,0,0,
0,0,640,641,642,643,644,645,0,0,0,0,0,0,0,0,0,0,0,0,
0,0,711,712,713,714,715,716,0,0,0,0,0,0,0,0,0,0,0,0
</data>
 </layer>
 <objectgroup id="3" name="platform">
  <object id="2" type="platform" x="0" y="770" width="70" height="630"/>
 </objectgroup>
</map>
