<?xml version="1.0" encoding="UTF-8"?>
<map version="1.10" tiledversion="1.11.2" orientation="orthogonal" renderorder="right-down" width="20" height="20" tilewidth="70" tileheight="70" infinite="0" nextlayerid="4" nextobjectid="5">
 <tileset firstgid="1" name="tilesheet" tilewidth="70" tileheight="70" tilecount="1207" columns="71">
  <image source="../../../../../../../Tilesheet.png" trans="ffffff" width="5000" height="1220"/>
 </tileset>
 <layer id="1" name="background" width="20" height="20">
  <data encoding="csv">
80,80,150,222,434,435,647,577,648,80,80,80,80,80,80,80,80,80,80,80,
80,80,80,80,80,80,80,80,80,80,80,80,80,80,80,80,80,80,80,80,
80,80,80,80,80,80,80,80,80,80,723,724,725,726,727,80,80,80,80,80,
80,80,80,80,80,80,80,80,80,80,794,795,796,797,798,80,80,80,80,80,
80,80,80,80,80,80,80,80,80,80,80,80,80,80,80,80,80,80,80,80,
80,80,80,80,80,80,80,80,80,80,80,80,80,80,80,80,80,80,80,723,
80,80,80,80,80,80,80,80,80,80,80,80,80,80,80,80,80,80,80,794,
726,727,80,80,80,80,80,80,718,719,720,721,722,80,80,80,80,80,80,80,
797,798,80,80,80,80,80,80,789,790,791,792,793,80,80,80,80,80,80,80,
80,80,80,80,80,80,80,80,80,80,80,80,80,80,80,80,80,80,80,80,
80,80,80,80,80,80,80,80,80,80,80,80,80,80,80,80,80,80,80,80,
80,80,80,80,80,80,80,80,80,80,80,80,80,718,719,720,721,722,80,80,
80,80,80,723,724,725,726,727,80,80,80,80,80,789,790,791,792,793,80,80,
80,80,80,794,795,796,797,798,80,80,80,80,80,80,80,80,80,80,80,80,
80,80,80,80,80,80,80,80,80,80,505,292,293,80,80,80,80,80,80,80,
80,80,80,80,80,80,80,80,80,151,221,363,364,576,506,80,80,80,80,80,
719,720,721,722,80,80,80,80,80,150,222,434,435,647,577,648,80,80,80,80,
790,791,792,793,80,80,80,80,80,80,80,80,80,80,80,80,80,80,80,80,
80,80,80,80,80,80,80,80,80,80,80,80,80,80,80,80,80,80,80,80,
80,80,80,80,80,80,80,80,80,80,80,80,80,80,80,80,80,80,80,80
</data>
 </layer>
 <layer id="2" name="terrain" width="20" height="20">
  <data encoding="csv">
0,0,0,0,0,0,0,0,0,0,0,0,0,0,0,0,0,0,0,0,
0,0,0,0,0,0,0,0,0,0,0,0,0,0,0,0,0,0,0,0,
0,0,0,0,0,0,0,0,0,0,0,0,0,0,0,0,0,0,0,0,
0,0,0,0,0,0,0,0,0,0,0,0,0,0,0,0,0,0,0,0,
0,0,0,0,0,0,0,0,0,0,0,0,0,0,0,0,0,0,0,0,
0,0,0,0,0,0,0,0,0,0,0,0,0,0,0,0,0,0,0,0,
0,0,0,0,0,0,0,0,0,0,0,0,0,0,0,0,0,0,0,0,
0,0,0,0,0,0,0,0,0,0,0,0,0,0,0,0,0,0,0,0,
0,0,0,0,0,0,0,0,0,0,0,0,0,0,0,0,0,0,0,0,
0,0,0,0,0,0,0,0,0,0,0,0,0,0,0,0,0,0,0,0,
0,0,0,0,0,0,0,0,0,0,0,0,0,0,0,0,0,0,0,0,
0,0,0,0,0,0,0,0,0,0,0,0,0,0,0,0,0,0,0,0,
0,0,0,0,0,0,0,0,0,0,0,0,0,0,0,0,0,0,0,0,
0,0,0,0,0,0,0,0,0,0,0,0,0,0,0,0,0,0,0,0,
0,0,0,0,0,0,0,0,0,0,0,0,0,0,0,0,0,0,0,0,
0,0,0,0,0,0,0,0,0,0,0,0,0,0,0,0,18,19,20,21,
0,0,0,0,0,0,0,0,0,0,0,0,0,86,87,88,89,90,91,92,
0,0,0,0,0,0,0,0,0,153,154,155,156,157,158,159,160,161,162,163,
0,0,0,0,0,0,0,0,0,224,225,226,227,228,229,230,231,232,233,234,
0,0,0,0,0,0,0,0,294,295,296,297,298,299,300,301,302,303,304,305
</data>
 </layer>
 <objectgroup id="3" name="platform">
  <object id="1" type="platform" x="710.002" y="1334.65" width="74.6667" height="65.3333"/>
  <object id="2" type="platform" x="771.332" y="1241.35" width="74.6667" height="93.3333"/>
  <object id="3" type="platform" x="843.332" y="1193.35" width="65.3333" height="45.3333"/>
  <object id="4" type="platform" x="907.332" y="1133.35" width="493.334" height="57.3333"/>
 </objectgroup>
</map>
