<?xml version="1.0" encoding="UTF-8"?>
<map version="1.10" tiledversion="1.11.2" orientation="orthogonal" renderorder="right-down" width="20" height="20" tilewidth="70" tileheight="70" infinite="0" nextlayerid="4" nextobjectid="10">
 <tileset firstgid="1" name="tilesheet" tilewidth="70" tileheight="70" tilecount="1207" columns="71">
  <image source="../../../../../../../Tilesheet.png" trans="ffffff" width="5000" height="1220"/>
 </tileset>
 <layer id="1" name="background" width="20" height="20">
  <data encoding="csv">
16,16,17,16,15,16,15,0,0,0,0,0,0,0,0,0,0,0,0,0,
15,15,16,16,15,17,15,0,0,0,0,0,0,0,0,0,0,0,0,0,
15,17,15,15,15,16,15,0,0,0,0,0,0,0,0,0,0,0,0,0,
16,16,15,15,15,16,17,0,0,0,0,0,0,0,0,0,0,0,0,0,
16,17,15,17,15,15,15,0,0,0,0,0,0,0,0,0,0,0,0,0,
15,15,15,16,15,15,15,0,0,0,0,0,0,0,0,0,0,0,0,0,
15,16,16,15,15,15,17,0,0,0,0,0,0,0,0,0,0,0,0,0,
17,17,16,15,15,17,16,0,0,0,0,0,0,0,0,0,0,0,0,0,
15,15,15,15,15,15,17,0,0,0,0,0,0,0,0,0,0,0,0,0,
15,15,17,15,15,17,15,0,0,0,0,0,0,0,0,0,0,0,0,0,
15,15,15,15,16,17,15,0,0,0,0,0,0,0,0,0,0,0,0,0,
17,15,15,15,16,16,16,0,0,0,0,0,0,0,0,0,0,0,0,0,
15,15,16,16,15,15,16,0,0,0,0,0,0,0,0,0,0,0,0,0,
15,17,15,15,15,17,16,0,0,0,0,0,0,0,0,0,0,0,0,0,
15,17,15,15,16,17,15,0,0,0,0,0,0,0,0,0,0,0,0,0,
15,17,16,17,17,15,15,0,0,0,0,0,0,0,0,0,0,0,0,0,
15,17,15,15,16,15,15,0,0,0,0,0,0,0,0,0,0,0,0,0,
17,15,15,16,16,16,17,0,0,0,0,0,0,0,0,0,0,0,0,0,
15,16,15,15,15,16,15,0,0,0,0,0,0,0,0,0,0,0,0,0,
15,15,16,15,15,17,15,0,0,0,0,0,0,0,0,0,0,0,0,0
</data>
 </layer>
 <layer id="2" name="terrain" width="20" height="20">
  <data encoding="csv">
0,0,0,0,0,0,0,863,860,860,860,860,860,860,860,860,860,860,860,860,
0,0,0,0,0,0,863,860,860,860,860,860,860,860,860,860,860,860,860,860,
0,0,0,0,0,0,860,860,860,860,860,860,860,860,860,860,860,860,860,860,
0,0,0,0,0,0,860,860,860,860,860,860,860,860,860,860,860,860,860,860,
529,530,531,532,533,534,860,860,860,860,860,860,860,860,860,860,860,860,860,860,
600,601,602,603,604,605,860,860,860,860,860,860,860,860,860,860,860,860,860,860,
39,40,41,42,43,44,860,860,860,860,860,860,860,860,860,860,860,860,860,860,
110,111,112,113,114,115,860,860,860,860,860,860,860,860,860,860,860,860,860,860,
181,182,183,184,185,186,860,860,860,860,860,860,860,860,860,860,860,860,860,860,
252,253,254,255,256,257,860,860,860,860,860,860,860,860,860,860,860,860,860,860,
323,324,325,326,327,328,860,860,860,860,860,860,860,860,860,860,860,860,860,860,
394,395,396,397,398,399,860,860,860,860,860,860,860,860,860,860,860,860,860,860,
465,466,467,468,469,470,860,860,860,860,860,860,860,860,860,860,860,860,860,860,
0,537,538,539,540,541,860,860,860,860,860,860,860,860,860,860,860,860,860,860,
607,608,609,610,611,612,860,860,860,860,860,860,860,860,860,860,860,860,860,860,
678,679,680,681,682,683,860,860,860,860,860,860,860,860,860,860,860,860,860,860,
749,750,751,752,753,754,860,860,860,860,860,860,860,860,860,860,860,860,860,860,
0,0,0,0,0,863,860,860,860,860,860,860,860,860,860,860,860,860,860,860,
0,0,0,0,0,860,860,860,860,860,860,860,860,860,860,860,860,860,860,860,
0,0,0,0,0,860,860,860,860,860,860,860,860,860,860,860,860,860,860,860
</data>
 </layer>
 <objectgroup id="3" name="platform">
  <object id="1" type="platform" x="769.242" y="0.30303" width="420" height="70"/>
  <object id="2" type="platform" x="489.242" y="0.30303" width="70" height="70"/>
  <object id="3" type="platform" x="419.242" y="70.303" width="70" height="1120"/>
  <object id="4" type="platform" x="349.242" y="1190.3" width="70" height="210"/>
  <object id="5" type="platform" x="69.2424" y="910.303" width="210" height="210"/>
  <object id="6" type="platform" x="69.2424" y="350.303" width="350" height="70"/>
  <object id="7" type="platform" x="153.242" y="318.303" width="264" height="30"/>
  <object id="8" type="platform" x="253.242" y="268.303" width="168" height="46"/>
  <object id="9" type="platform" x="-0.757576" y="840.303" width="70" height="70"/>
 </objectgroup>
</map>
