<?xml version="1.0" encoding="UTF-8"?>
<map version="1.10" tiledversion="1.11.2" orientation="orthogonal" renderorder="right-down" width="20" height="20" tilewidth="70" tileheight="70" infinite="0" nextlayerid="4" nextobjectid="15">
 <tileset firstgid="1" name="tilesheet" tilewidth="70" tileheight="70" tilecount="1207" columns="71">
  <image source="../../../../../../../Tilesheet.png" trans="ffffff" width="5000" height="1220"/>
 </tileset>
 <layer id="1" name="background" width="20" height="20">
  <data encoding="csv">
16,16,16,17,15,15,17,15,15,15,15,15,15,15,15,15,15,15,15,15,
16,16,16,17,15,15,17,15,15,15,15,15,15,15,15,15,15,15,15,15,
15,16,16,17,17,15,17,15,15,15,15,15,15,15,15,15,15,15,15,15,
16,15,17,17,15,15,17,15,15,15,15,15,15,15,15,15,15,15,15,15,
17,17,17,15,15,15,16,15,15,15,15,15,15,15,15,722,0,0,0,0,
17,17,17,15,16,15,16,15,15,15,15,15,15,15,15,722,0,0,0,0,
16,17,17,16,16,15,16,15,15,15,15,15,15,15,15,722,0,0,0,0,
15,17,15,17,17,15,15,15,15,15,15,15,15,15,15,0,0,0,0,0,
17,15,15,15,17,15,17,0,0,0,0,0,0,0,0,0,0,0,0,0,
17,15,15,15,15,17,15,0,0,0,0,0,0,0,0,0,0,0,0,0,
17,17,17,17,17,17,15,0,0,0,0,0,0,0,0,0,0,0,0,0,
722,722,722,722,722,722,0,0,0,0,0,0,861,861,861,0,0,0,0,0,
722,722,722,722,722,722,0,0,0,0,0,0,861,861,861,861,0,0,0,0,
722,722,722,722,722,722,0,0,0,0,0,0,861,861,861,861,861,0,0,0,
722,722,722,722,722,722,0,0,0,0,0,0,861,861,861,861,861,861,861,861,
722,722,722,722,722,722,0,0,0,0,0,0,861,861,861,861,861,861,861,861,
723,724,725,726,727,80,0,0,0,0,0,0,861,861,861,861,861,861,861,861,
794,795,796,797,798,80,0,0,0,0,0,0,861,861,861,861,0,0,0,0,
80,80,80,80,80,80,0,0,0,0,0,0,861,861,861,861,0,0,0,0,
80,80,80,80,80,80,0,0,0,0,0,0,861,861,861,861,0,0,0,0
</data>
 </layer>
 <layer id="2" name="terrain" width="20" height="20">
  <data encoding="csv">
0,0,0,0,0,0,0,0,0,0,0,0,0,0,0,0,0,0,0,0,
0,0,0,0,0,0,0,0,0,0,0,0,0,0,0,0,0,0,0,0,
0,0,0,0,0,0,0,0,0,0,0,0,0,0,0,0,0,0,0,0,
0,0,0,0,0,0,0,0,0,0,0,0,0,0,0,0,0,0,0,0,
0,0,0,0,0,0,0,0,0,0,0,0,0,0,0,863,863,863,863,863,
0,0,0,0,0,0,0,0,0,863,863,863,863,863,863,860,860,860,860,860,
0,0,0,0,0,0,0,863,863,860,860,860,860,860,860,860,860,860,860,860,
0,0,0,0,0,0,863,860,860,860,860,860,860,860,860,860,860,860,860,860,
0,0,0,0,0,0,860,860,860,860,860,860,860,860,860,860,860,860,860,860,
0,0,0,0,0,0,860,860,860,860,860,860,860,860,860,860,860,860,860,860,
0,0,0,0,0,0,860,860,860,860,860,860,860,860,860,860,860,860,860,860,
0,0,0,0,0,0,860,860,860,860,860,860,651,651,655,860,860,860,860,860,
0,0,0,0,0,0,860,860,860,860,860,860,0,0,659,655,860,860,860,860,
0,0,0,0,0,0,860,860,860,860,860,860,0,0,0,659,655,860,860,860,
0,0,0,0,0,0,860,860,860,860,860,860,664,0,0,0,659,651,651,651,
0,0,0,0,0,0,860,860,860,860,860,860,0,0,0,0,0,10,0,0,
0,0,0,0,0,0,860,860,860,860,860,860,0,0,0,0,0,81,0,0,
0,0,0,0,0,0,860,860,860,860,860,860,664,0,0,0,860,860,860,860,
0,0,0,0,0,0,860,860,860,860,860,860,0,0,0,0,860,860,860,860,
0,0,0,0,0,0,860,860,860,860,860,860,0,0,0,0,860,860,860,860
</data>
 </layer>
 <objectgroup id="3" name="platform">
  <object id="1" type="platform" x="1329.55" y="1190.5" width="70.6667" height="208.003"/>
  <object id="2" type="platform" x="1121.55" y="1187.9" width="18.6667" height="213.697"/>
  <object id="3" type="platform" x="1140.22" y="1186.5" width="260" height="30.6667"/>
  <object id="4" type="platform" x="840.215" y="1189.2" width="71.3333" height="29.3333"/>
  <object id="5" type="platform" x="840.875" y="978.495" width="69.3333" height="29.3333"/>
  <object id="6" type="platform" x="769.545" y="765.195" width="70" height="636.364"/>
  <object id="7" type="platform" x="419.545" y="487.195" width="68" height="910.667"/>
  <object id="8" type="platform" x="491.545" y="417.195" width="138" height="68"/>
  <object id="9" type="platform" x="629.545" y="347.195" width="420" height="72"/>
  <object id="10" type="platform" x="1051.55" y="277.195" width="350" height="70"/>
  <object id="11" type="platform" x="840.545" y="759.195" width="209" height="10"/>
  <object id="12" type="platform" x="1051.55" y="760.195" width="68" height="80"/>
  <object id="13" type="platform" x="1118.55" y="838.195" width="78" height="71"/>
  <object id="14" type="platform" x="1189.55" y="909.195" width="211" height="70"/>
 </objectgroup>
</map>
