<?xml version="1.0" encoding="UTF-8"?>
<map version="1.10" tiledversion="1.11.2" orientation="orthogonal" renderorder="right-down" width="20" height="20" tilewidth="70" tileheight="70" infinite="0" nextlayerid="4" nextobjectid="9">
 <tileset firstgid="1" name="tilesheet" tilewidth="70" tileheight="70" tilecount="1207" columns="71">
  <image source="../../../../../../../Tilesheet.png" trans="ffffff" width="5000" height="1220"/>
 </tileset>
 <layer id="1" name="background" width="20" height="20">
  <data encoding="csv">
0,0,0,0,0,0,0,0,0,0,861,861,861,0,0,0,0,0,0,0,
0,0,0,0,0,0,0,0,0,0,861,861,861,0,0,0,0,0,0,0,
0,0,0,0,0,0,0,0,0,0,861,861,861,0,0,0,0,0,0,0,
0,0,0,0,0,0,0,0,0,0,861,861,861,0,0,0,0,0,0,0,
0,0,0,0,0,0,0,0,0,0,861,861,861,0,0,0,0,0,0,0,
0,0,0,0,0,0,0,0,0,861,861,861,861,0,0,0,0,0,0,0,
0,0,0,0,0,0,0,0,861,861,861,861,861,0,0,0,0,0,0,0,
0,0,0,0,0,0,0,861,861,861,861,861,861,0,0,0,0,0,0,0,
861,861,861,861,861,861,861,861,861,861,861,861,861,0,0,0,0,0,0,0,
861,861,861,861,861,861,861,861,861,861,861,861,861,0,0,0,0,0,0,0,
0,0,0,0,0,0,0,0,0,0,0,0,0,0,0,0,0,0,0,0,
0,0,0,0,0,0,0,0,0,0,0,0,0,0,0,0,0,0,0,0,
0,0,0,0,0,0,0,0,0,0,0,0,0,0,0,0,0,0,0,0,
0,0,0,0,0,0,0,0,0,0,0,0,0,0,0,0,0,0,0,0,
0,0,0,0,0,0,0,0,0,0,0,0,0,0,0,0,0,0,0,0,
0,0,0,0,0,0,0,0,0,0,0,0,0,0,0,0,0,0,0,0,
0,0,0,0,0,0,0,0,0,0,0,0,0,0,0,0,0,0,0,0,
0,0,0,0,0,0,0,0,0,0,0,0,0,0,0,0,0,0,0,0,
0,0,0,0,0,0,0,0,0,0,0,0,0,0,0,0,0,0,0,0,
0,0,0,0,0,0,0,0,0,0,0,0,0,0,0,0,0,0,0,0
</data>
 </layer>
 <layer id="2" name="terrain" width="20" height="20">
  <data encoding="csv">
860,860,860,860,860,860,860,860,860,860,0,0,0,860,860,860,860,860,860,860,
860,860,860,860,860,860,860,860,860,860,0,0,0,860,860,860,860,860,860,860,
860,860,860,860,860,860,860,860,860,860,0,0,0,860,860,860,860,860,860,860,
860,860,860,860,860,860,860,860,860,860,0,0,0,860,860,860,860,860,860,860,
860,860,860,860,860,860,860,860,860,860,0,0,0,860,860,860,860,860,860,860,
860,860,860,860,860,860,860,860,860,0,0,0,0,860,860,860,860,860,860,860,
860,860,860,860,860,860,860,860,0,0,0,0,0,860,860,860,860,860,860,860,
860,860,860,860,860,860,860,0,0,0,0,0,0,860,860,860,860,860,860,860,
0,0,0,0,0,0,0,152,0,0,0,0,853,860,860,860,860,860,860,860,
0,0,0,0,0,0,0,223,0,0,0,0,863,860,860,860,860,860,860,860,
860,860,860,860,860,860,863,863,863,863,863,863,860,860,860,860,860,860,860,860,
860,860,860,860,860,860,860,860,860,860,860,860,860,860,860,860,860,860,860,860,
860,860,860,860,860,860,860,860,860,860,860,860,860,860,860,860,860,860,860,860,
860,860,860,860,860,860,860,860,860,860,860,860,860,860,860,860,860,860,860,860,
860,860,860,860,860,860,860,860,860,860,860,860,860,860,860,860,860,860,860,860,
860,860,860,860,860,860,860,860,860,860,860,860,860,860,860,860,860,860,860,860,
860,860,860,860,860,860,860,860,860,860,860,860,860,860,860,860,860,860,860,860,
860,860,860,860,860,860,860,860,860,860,860,860,860,860,860,860,860,860,860,860,
860,860,860,860,860,860,860,860,860,860,860,860,860,860,860,860,860,860,860,860,
860,860,860,860,860,860,860,860,860,860,860,860,860,860,860,860,860,860,860,860
</data>
 </layer>
 <objectgroup id="3" name="platform">
  <object id="1" type="platform" x="0.05" y="700.667" width="840.333" height="70"/>
  <object id="2" type="platform" x="-0.35" y="490.667" width="490.667" height="70"/>
  <object id="3" type="platform" x="492.35" y="420.667" width="68" height="68"/>
  <object id="4" type="platform" x="558.35" y="350.667" width="72" height="70"/>
  <object id="5" type="platform" x="630.35" y="0.363636" width="70" height="350.303"/>
  <object id="6" type="platform" x="910.35" y="0.969697" width="70" height="629.697"/>
  <object id="7" type="platform" x="840.35" y="630.667" width="70" height="70"/>
  <object id="8" type="platform" x="842.75" y="589.467" width="69.697" height="39.3939"/>
 </objectgroup>
</map>
