<?xml version="1.0" encoding="UTF-8"?>
<map version="1.10" tiledversion="1.11.2" orientation="orthogonal" renderorder="right-down" width="20" height="20" tilewidth="70" tileheight="70" infinite="0" nextlayerid="4" nextobjectid="17">
 <tileset firstgid="1" name="tilesheet" tilewidth="70" tileheight="70" tilecount="1207" columns="71">
  <image source="../../../../../../../Tilesheet.png" trans="ffffff" width="5000" height="1220"/>
 </tileset>
 <layer id="1" name="background" width="20" height="20">
  <data encoding="csv">
80,505,292,293,80,80,80,80,0,0,861,861,861,861,861,861,729,861,861,861,
151,221,363,364,576,506,80,80,80,0,0,861,861,861,861,861,729,861,861,861,
150,222,434,435,647,577,648,80,80,80,0,861,861,861,861,861,861,861,861,861,
80,80,80,80,80,80,80,80,80,80,722,861,861,861,861,861,861,861,861,861,
80,80,80,80,80,80,80,80,80,722,722,861,861,861,861,861,861,861,861,861,
724,725,726,727,80,80,80,80,80,80,722,861,861,861,861,861,861,861,861,861,
795,796,797,798,80,80,80,80,80,80,722,861,861,861,861,861,861,861,861,861,
80,80,80,80,80,80,80,80,80,80,722,861,861,861,861,861,861,861,861,0,
80,80,80,80,80,80,80,80,80,80,722,861,861,861,861,861,861,861,0,0,
80,80,80,80,80,80,80,80,80,80,80,80,80,0,0,0,0,0,0,0,
80,80,80,80,80,80,80,80,80,80,80,80,80,0,0,0,0,0,0,0,
80,80,80,80,80,80,80,80,80,80,80,80,80,0,0,0,0,0,0,0,
80,80,80,80,80,80,80,80,80,80,80,80,80,0,0,0,0,0,0,0,
80,80,80,80,80,80,80,80,80,80,80,80,80,0,0,0,0,0,0,0,
80,80,80,80,80,80,80,80,80,80,80,80,80,0,0,0,0,0,0,0,
80,80,80,80,80,80,80,80,80,80,80,80,80,0,0,0,0,0,0,0,
80,80,860,860,860,860,80,80,80,80,80,0,0,0,0,0,0,0,0,0,
80,80,860,860,860,860,80,80,0,0,0,0,0,0,0,0,0,0,0,0,
80,860,860,860,860,860,80,80,0,0,0,0,0,0,0,0,0,0,0,0,
80,860,860,860,860,860,80,80,0,0,0,0,0,0,0,0,0,0,0,0
</data>
 </layer>
 <layer id="2" name="terrain" width="20" height="20">
  <data encoding="csv">
0,0,0,0,0,0,0,0,860,860,665,666,0,0,0,0,0,0,0,657,
0,0,0,0,0,0,0,0,0,860,860,658,0,0,0,0,0,0,0,657,
0,0,0,0,0,0,0,0,0,0,860,662,663,664,0,0,862,0,0,657,
0,0,0,0,0,0,0,0,0,0,0,0,0,0,0,0,0,0,0,657,
0,0,0,0,0,0,0,0,0,0,0,0,0,0,0,0,0,0,0,661,
0,0,0,0,0,0,0,0,0,0,0,0,0,0,0,0,0,0,0,657,
0,0,0,0,0,0,0,0,0,0,0,0,0,0,0,0,0,0,653,652,
0,0,0,0,0,0,0,0,0,0,0,0,717,0,0,0,0,653,652,860,
0,0,0,0,0,0,0,0,0,0,649,650,650,650,650,650,650,652,860,860,
0,0,0,0,0,0,0,0,0,0,860,860,860,860,860,860,860,860,860,860,
0,0,0,0,0,0,0,0,0,0,860,860,860,860,860,860,860,860,860,860,
0,0,0,0,0,0,0,0,0,0,860,860,860,860,860,860,860,860,860,860,
0,0,0,0,0,0,0,0,0,860,860,860,860,860,860,860,860,860,860,860,
0,0,0,0,0,0,0,860,860,860,860,860,860,860,860,860,860,860,860,860,
0,0,0,0,0,860,860,860,860,860,860,860,860,860,860,860,860,860,860,860,
22,23,24,25,860,860,860,860,860,860,860,860,860,860,860,860,860,860,860,860,
93,94,95,96,97,860,860,860,860,860,860,860,860,860,860,860,860,860,860,860,
164,165,166,167,168,169,860,860,860,860,860,860,860,860,860,860,860,860,860,860,
235,236,237,238,239,240,860,860,860,860,860,860,860,860,860,860,860,860,860,860,
306,307,308,309,310,860,860,860,860,860,860,860,860,860,860,860,860,860,860,860
</data>
 </layer>
 <objectgroup id="3" name="platform">
  <object id="1" type="platform" x="3.08835" y="1133.33" width="75.8185" height="57.3333"/>
  <object id="2" type="platform" x="78.9083" y="1090.63" width="114.667" height="40"/>
  <object id="3" type="platform" x="190.908" y="1118.63" width="93.3333" height="37.3333"/>
  <object id="4" type="platform" x="282.908" y="1050.63" width="74.6667" height="72"/>
  <object id="5" type="platform" x="352.238" y="979.933" width="140" height="78.6667"/>
  <object id="6" type="platform" x="490.908" y="909.333" width="142.667" height="74.6667"/>
  <object id="7" type="platform" x="630.908" y="839.933" width="74.6667" height="77.3333"/>
  <object id="8" type="platform" x="701.578" y="629.333" width="18.6667" height="214.667"/>
  <object id="9" type="platform" x="700.238" y="627.933" width="560" height="45.3333"/>
  <object id="10" type="platform" x="1129.58" y="162.633" width="62.6667" height="49.3333"/>
  <object id="11" type="platform" x="1332.24" y="278.633" width="66.6667" height="41.3333"/>
  <object id="12" type="platform" x="1333.58" y="487.933" width="68" height="74.6667"/>
  <object id="13" type="platform" x="1261.58" y="559.933" width="73.3333" height="78.6667"/>
  <object id="14" type="platform" x="772.238" y="137.333" width="209.333" height="70.6667"/>
  <object id="15" type="platform" x="702.908" y="66.6334" width="68" height="70.6667"/>
  <object id="16" type="platform" x="632.238" y="-2.66665" width="70.6667" height="73.3333"/>
 </objectgroup>
</map>
