<?xml version="1.0" encoding="UTF-8"?>
<map version="1.10" tiledversion="1.11.2" orientation="orthogonal" renderorder="right-down" width="20" height="20" tilewidth="70" tileheight="70" infinite="0" nextlayerid="4" nextobjectid="24">
 <tileset firstgid="1" name="tilesheet" tilewidth="70" tileheight="70" tilecount="1207" columns="71">
  <image source="../../../../../../../Tilesheet.png" trans="ffffff" width="5000" height="1220"/>
 </tileset>
 <layer id="1" name="background" width="20" height="20">
  <data encoding="csv">
861,861,861,861,0,0,0,861,861,861,861,0,0,0,0,0,0,0,0,0,
861,861,861,861,0,0,0,861,861,861,861,0,0,0,0,0,0,0,0,0,
861,861,861,861,0,0,0,861,861,861,861,0,0,0,0,0,0,0,0,0,
861,861,861,861,0,0,0,861,861,861,861,0,0,0,0,0,0,0,0,0,
861,861,861,861,0,0,0,861,861,861,861,0,0,0,0,0,0,0,0,0,
861,861,861,861,0,0,0,861,861,861,861,0,0,0,0,0,0,0,0,0,
861,861,861,861,0,0,0,861,861,861,861,0,0,0,0,0,0,0,0,0,
861,861,861,861,0,0,0,861,861,861,861,0,0,0,0,0,0,0,0,0,
861,861,861,861,0,0,0,861,861,861,861,0,0,0,0,0,0,0,0,0,
861,861,861,861,0,0,0,861,861,861,861,0,0,0,0,0,0,0,0,0,
861,861,861,861,0,0,0,861,861,861,861,0,0,0,0,0,0,0,0,0,
861,861,861,861,0,0,0,861,861,861,861,0,0,0,0,0,0,0,0,0,
861,861,861,861,0,0,0,861,861,861,861,0,0,0,0,0,0,0,0,0,
861,861,861,861,0,0,0,861,861,861,861,0,0,0,0,0,0,0,0,0,
861,861,861,861,0,0,0,861,861,861,861,0,0,0,0,0,0,0,0,0,
861,861,861,861,0,0,0,861,861,861,861,0,0,0,0,0,0,0,0,0,
861,861,861,861,0,0,0,861,861,861,861,0,0,0,0,0,0,0,0,0,
861,861,861,861,0,0,0,861,861,861,861,0,0,0,0,0,0,0,0,0,
861,861,861,861,0,0,0,861,861,861,861,0,0,0,0,0,0,0,0,0,
861,861,861,861,861,861,861,861,861,861,861,0,0,0,0,0,0,0,0,0
</data>
 </layer>
 <layer id="2" name="terrain" width="20" height="20">
  <data encoding="csv">
664,0,0,657,860,860,860,664,0,0,0,860,860,860,860,860,860,860,860,860,
0,0,0,657,860,860,860,0,0,0,0,860,860,860,860,860,860,860,860,860,
0,0,0,657,860,860,860,0,0,0,0,860,860,860,860,860,860,860,860,860,
664,0,0,657,860,860,860,664,0,0,0,860,860,860,860,860,860,860,860,860,
0,0,0,657,860,860,860,0,0,0,661,860,860,860,860,860,860,860,860,860,
0,0,0,657,860,860,860,0,0,0,0,860,860,860,860,860,860,860,860,860,
664,0,0,657,860,860,860,0,0,0,0,860,860,860,860,860,860,860,860,860,
0,0,0,657,860,860,860,0,0,0,661,860,860,860,860,860,860,860,860,860,
0,0,0,657,860,860,860,0,0,0,0,860,860,860,860,860,860,860,860,860,
0,0,0,657,860,860,860,664,0,0,0,860,860,860,860,860,860,860,860,860,
0,0,0,657,860,860,860,0,0,0,0,860,860,860,860,860,860,860,860,860,
0,0,0,657,860,860,860,0,0,0,0,860,860,860,860,860,860,860,860,860,
664,0,0,657,860,860,860,664,0,0,0,860,860,860,860,860,860,860,860,860,
0,0,0,657,860,860,860,0,0,0,860,860,860,860,860,860,860,860,860,860,
0,0,0,657,860,860,860,0,0,860,860,860,860,860,860,860,860,860,860,860,
664,0,0,657,860,860,860,0,0,0,860,860,860,860,860,860,860,860,860,860,
0,0,0,657,860,860,860,0,0,0,0,860,860,860,860,860,860,860,860,860,
0,0,0,657,860,860,860,860,860,0,0,860,860,860,860,860,860,860,860,860,
664,0,0,657,860,860,860,860,0,0,0,860,860,860,860,860,860,860,860,860,
0,0,0,659,655,860,860,0,0,0,860,860,860,860,860,860,860,860,860,860
</data>
 </layer>
 <objectgroup id="3" name="platform">
  <object id="1" type="platform" x="277.21" y="-1.72729" width="74.6667" height="1338"/>
  <object id="2" type="platform" x="351.88" y="1332.27" width="137.333" height="69.3333"/>
  <object id="3" type="platform" x="489.21" y="1261.57" width="73.3333" height="69.3333"/>
  <object id="4" type="platform" x="490.54" y="1192.27" width="140" height="68"/>
  <object id="5" type="platform" x="1.21047" y="1.57271" width="70" height="32"/>
  <object id="6" type="platform" x="-0.119529" y="212.273" width="72" height="29.3333"/>
  <object id="7" type="platform" x="0.540471" y="422.273" width="72" height="30.6667"/>
  <object id="8" type="platform" x="-0.119529" y="841.573" width="70.6667" height="31.3333"/>
  <object id="9" type="platform" x="0.540471" y="1051.57" width="70.6667" height="29.3333"/>
  <object id="10" type="platform" x="-0.119529" y="1260.97" width="70.6667" height="34.6667"/>
  <object id="11" type="platform" x="700.54" y="1332.27" width="71.3333" height="70.6667"/>
  <object id="12" type="platform" x="770.54" y="1120.97" width="11.3333" height="209.333"/>
  <object id="13" type="platform" x="700.54" y="1052.97" width="69.3333" height="68.6667"/>
  <object id="14" type="platform" x="630.54" y="982.273" width="70.6667" height="70.6667"/>
  <object id="15" type="platform" x="700.54" y="912.273" width="72" height="69.3333"/>
  <object id="16" type="platform" x="771.21" y="0.272711" width="15.3333" height="910.67"/>
  <object id="17" type="platform" x="700.54" y="491.573" width="70" height="38.6667"/>
  <object id="18" type="platform" x="701.21" y="282.273" width="70" height="38.6667"/>
  <object id="19" type="platform" x="491.21" y="212.273" width="70" height="29.3333"/>
  <object id="20" type="platform" x="491.21" y="632.973" width="72" height="29.3333"/>
  <object id="21" type="platform" x="491.21" y="0.272711" width="71" height="37"/>
  <object id="22" type="platform" x="490.21" y="841.273" width="71" height="31"/>
  <object id="23" type="platform" x="463.21" y="0.939377" width="27" height="1190.33"/>
 </objectgroup>
</map>
