<?xml version="1.0" encoding="UTF-8"?>
<map version="1.10" tiledversion="1.11.2" orientation="orthogonal" renderorder="right-down" width="20" height="20" tilewidth="70" tileheight="70" infinite="0" nextlayerid="5" nextobjectid="47">
 <tileset firstgid="1" name="tilesheet" tilewidth="70" tileheight="70" tilecount="1207" columns="71">
  <image source="../../../../../../../Tilesheet.png" trans="ffffff" width="5000" height="1220"/>
 </tileset>
 <layer id="2" name="background" width="20" height="20">
  <data encoding="csv">
0,0,0,0,0,0,0,0,861,861,861,861,861,0,0,0,0,0,0,0,
861,861,861,861,861,861,861,861,861,861,861,861,861,0,0,0,0,0,0,0,
861,861,861,861,861,861,861,861,861,861,861,861,861,0,0,0,0,0,0,0,
861,861,861,861,861,861,861,861,861,861,861,861,861,0,0,0,0,0,0,0,
861,861,861,861,861,861,861,861,861,861,861,861,861,861,861,0,0,0,0,0,
0,861,861,861,861,861,861,861,861,861,861,861,861,861,861,0,0,0,0,0,
0,861,861,861,861,861,861,861,861,861,861,861,861,861,861,0,0,0,0,0,
861,861,861,861,861,861,861,861,861,861,861,861,861,861,861,0,0,0,0,0,
861,861,861,861,861,861,861,861,861,861,861,861,861,861,861,0,0,0,0,0,
861,861,861,861,861,861,861,861,861,861,861,861,861,861,861,0,0,0,0,0,
861,861,861,861,861,861,861,861,861,861,861,861,861,861,861,0,0,0,0,0,
861,861,861,861,861,861,861,861,861,861,861,861,861,861,861,0,0,0,0,0,
861,861,861,861,861,861,863,863,863,861,861,861,861,861,861,0,0,0,0,0,
861,861,861,861,861,861,861,861,861,861,861,861,861,861,861,0,0,0,0,0,
861,861,861,861,861,861,861,861,861,861,861,861,861,861,861,0,0,0,0,0,
861,861,861,861,861,861,861,861,861,861,861,861,861,861,861,0,0,0,0,0,
861,861,861,861,861,861,861,861,861,861,861,861,861,861,861,0,0,0,0,0,
861,861,861,861,861,861,861,861,861,861,861,861,861,861,861,0,0,0,0,0,
861,861,861,861,861,861,861,861,861,861,861,861,861,861,861,0,0,0,0,0,
861,861,861,861,861,861,861,861,861,861,861,861,861,861,861,0,0,0,0,0
</data>
 </layer>
 <layer id="1" name="terrain" width="20" height="20">
  <data encoding="csv">
860,860,860,860,860,860,860,860,860,860,860,860,860,860,860,860,860,860,860,863,
860,860,860,860,860,860,860,860,860,860,860,860,860,860,860,860,860,860,860,860,
860,860,860,860,860,860,860,860,860,860,860,860,860,860,860,860,860,860,860,860,
860,860,860,860,860,860,860,860,860,860,860,860,860,860,860,860,860,860,860,860,
860,860,860,860,860,860,860,860,860,860,860,860,860,860,860,860,860,860,860,860,
860,860,860,860,860,860,860,860,860,860,860,860,860,860,860,860,860,860,860,860,
860,860,860,860,860,860,860,860,860,860,860,860,860,860,860,860,860,860,860,860,
860,860,860,860,860,860,860,860,860,860,860,860,860,860,860,860,860,860,860,860,
860,860,860,860,860,860,860,860,860,860,860,860,860,860,860,860,860,860,860,860,
860,860,860,860,860,860,860,860,860,860,860,860,860,860,860,860,860,860,860,860,
860,860,860,860,860,860,860,860,860,860,860,860,860,860,860,860,860,860,860,860,
860,860,860,860,860,860,860,860,860,860,860,860,860,860,860,860,860,860,860,860,
860,860,860,860,860,860,860,860,860,860,860,860,860,860,860,860,860,860,860,860,
860,860,860,860,860,860,860,860,860,860,860,860,860,860,860,860,860,860,860,860,
860,860,860,860,860,860,860,860,860,860,860,860,860,860,860,860,860,860,860,860,
860,860,860,860,860,860,860,860,860,860,860,860,860,860,860,860,860,860,860,860,
860,860,860,860,860,860,860,860,860,860,860,860,860,860,860,860,860,860,860,860,
860,860,860,860,860,860,860,860,860,860,860,860,860,860,860,860,860,860,860,860,
860,860,860,860,860,860,860,860,860,860,860,860,860,860,860,860,860,860,860,860,
860,860,860,860,860,860,860,860,860,860,860,860,860,860,860,860,860,860,860,860
</data>
 </layer>
 <objectgroup id="3" name="platform"/>
</map>
