<?xml version="1.0" encoding="UTF-8"?>
<map version="1.10" tiledversion="1.11.2" orientation="orthogonal" renderorder="right-down" width="20" height="20" tilewidth="70" tileheight="70" infinite="0" nextlayerid="4" nextobjectid="4">
 <tileset firstgid="1" name="tilesheet" tilewidth="70" tileheight="70" tilecount="1207" columns="71">
  <image source="../../../../../../../Tilesheet.png" trans="ffffff" width="5000" height="1220"/>
 </tileset>
 <layer id="1" name="background" width="20" height="20">
  <data encoding="csv">
16,17,16,15,15,15,15,16,16,15,15,15,15,16,16,17,15,16,16,17,
15,17,15,16,16,15,17,15,15,16,16,16,16,16,16,17,15,15,15,15,
16,17,15,16,16,15,15,15,16,15,17,16,15,16,15,16,15,16,15,17,
15,15,17,15,15,16,15,15,15,15,15,15,16,15,15,16,16,16,15,15,
16,16,15,15,16,16,15,15,15,15,16,15,15,15,16,15,15,15,16,17,
17,15,15,15,15,15,15,16,16,17,17,15,15,16,16,16,15,15,15,16,
15,16,17,17,15,16,15,15,15,16,15,16,17,15,16,15,17,16,16,15,
16,15,15,15,15,15,17,15,15,16,17,15,15,16,15,16,15,15,15,15,
15,15,15,16,15,16,15,17,16,16,15,17,17,16,15,15,17,16,17,15,
15,15,17,15,15,15,16,15,16,16,16,17,17,17,17,17,15,17,15,15,
17,15,17,15,15,16,16,15,16,17,17,16,15,17,17,15,15,17,15,17,
15,15,17,15,15,16,16,16,17,17,15,16,15,15,17,15,16,15,16,15,
15,15,16,15,15,16,15,17,16,16,15,16,16,15,16,16,17,16,17,15,
16,15,16,15,15,16,17,16,15,16,15,15,16,16,16,17,15,15,15,15,
16,15,16,15,15,17,17,16,15,16,16,15,16,16,16,15,15,16,15,17,
17,15,15,15,15,17,17,15,16,16,16,16,16,16,16,15,17,16,15,15,
17,15,17,16,16,15,15,17,17,17,17,16,16,15,15,17,17,15,15,17,
15,17,15,15,15,15,15,16,16,15,16,17,17,17,17,17,15,15,15,16,
17,17,15,15,15,15,15,15,15,15,15,15,15,16,16,16,15,15,17,15,
17,17,15,17,15,15,17,17,15,16,15,16,15,17,17,15,15,15,15,15
</data>
 </layer>
 <layer id="2" name="terrain" width="20" height="20">
  <data encoding="csv">
0,0,0,0,0,0,0,0,0,0,0,0,0,0,0,0,0,0,0,0,
0,0,0,0,0,0,0,0,0,0,0,0,0,0,0,0,0,0,0,0,
0,0,0,0,0,0,0,0,0,0,0,0,0,0,0,0,0,0,0,0,
0,0,0,0,0,0,0,0,0,0,0,0,0,0,0,0,0,0,0,0,
0,0,0,0,0,0,0,0,0,0,0,0,0,0,0,0,0,0,0,0,
0,0,0,0,0,0,0,0,0,0,0,0,0,0,0,0,0,0,0,0,
0,0,0,0,0,0,0,0,0,0,0,0,0,0,0,0,0,0,0,0,
0,0,0,0,0,0,0,0,0,0,0,0,0,0,0,0,0,0,0,0,
0,0,0,0,0,0,0,0,0,0,0,0,0,0,0,0,0,0,0,0,
0,0,0,0,0,0,0,0,0,0,0,0,0,0,0,0,0,0,0,0,
0,0,0,0,0,0,0,0,0,0,0,0,0,0,0,0,0,0,0,0,
0,0,0,0,0,0,0,0,0,0,0,0,0,0,0,0,0,0,0,0,
0,0,0,0,0,0,0,0,0,0,0,0,0,0,0,0,0,0,0,0,
0,0,0,0,0,0,0,0,0,0,0,0,0,0,0,0,0,0,0,0,
0,0,0,0,0,0,0,0,0,0,0,0,0,0,0,0,0,0,0,0,
0,0,0,0,0,0,0,0,0,0,0,0,0,0,0,0,0,0,0,863,
0,0,0,0,0,0,0,0,0,0,0,0,0,0,0,0,0,0,0,860,
0,0,0,0,0,0,0,0,0,0,0,0,0,0,0,0,0,0,0,860,
0,0,0,0,0,0,0,0,0,0,0,0,0,0,0,0,0,0,863,860,
0,0,0,0,0,0,0,0,0,0,0,0,0,0,0,0,863,863,860,860
</data>
 </layer>
 <objectgroup id="3" name="platform">
  <object id="1" type="platform" x="1329" y="1049" width="70" height="210"/>
  <object id="2" type="platform" x="1259" y="1259" width="70" height="70"/>
  <object id="3" type="platform" x="1119" y="1329" width="140" height="70"/>
 </objectgroup>
</map>
