<?xml version="1.0" encoding="UTF-8"?>
<map version="1.10" tiledversion="1.11.2" orientation="orthogonal" renderorder="right-down" width="20" height="20" tilewidth="70" tileheight="70" infinite="0" nextlayerid="4" nextobjectid="9">
 <tileset firstgid="1" name="tilesheet" tilewidth="70" tileheight="70" tilecount="1207" columns="71">
  <image source="../../../../../../../Tilesheet.png" trans="ffffff" width="5000" height="1220"/>
 </tileset>
 <layer id="1" name="background" width="20" height="20">
  <data encoding="csv">
17,16,15,16,15,15,16,16,16,16,17,17,17,17,17,17,15,16,15,16,
17,16,15,16,16,15,16,16,16,16,17,17,15,16,17,17,16,16,15,16,
17,15,16,16,16,16,16,16,16,17,17,17,15,15,17,15,17,17,15,15,
16,16,16,15,16,15,17,16,16,16,16,16,16,16,17,15,15,17,15,17,
16,16,16,17,17,17,17,15,15,15,16,16,16,16,17,15,15,17,17,15,
16,17,17,16,15,17,17,17,15,15,16,15,16,16,17,17,15,17,17,15,
17,17,15,16,15,15,17,17,15,16,15,16,15,17,17,15,15,17,0,0,
16,16,15,16,16,15,16,17,16,16,16,17,17,17,15,15,15,16,0,0,
15,16,15,15,16,16,16,16,17,17,17,17,17,17,15,16,15,16,0,0,
15,16,16,15,16,16,16,16,17,17,15,16,17,17,16,16,15,16,0,0,
16,16,16,16,16,16,16,17,17,17,15,15,17,15,17,17,15,15,0,0,
17,17,17,16,16,15,15,15,16,17,17,17,15,15,15,17,15,17,0,0,
15,15,15,16,15,16,16,16,15,16,15,17,16,16,16,16,16,16,16,17,
15,15,15,16,15,16,16,16,17,17,17,17,15,15,15,16,16,16,16,17,
15,15,16,16,15,16,17,17,16,15,17,17,17,15,15,16,15,16,16,17,
15,15,15,15,15,15,15,15,16,15,16,16,16,15,16,15,17,16,16,16,
15,15,15,15,15,15,15,15,16,15,16,16,16,17,17,17,17,15,15,15,
15,15,15,15,15,15,15,16,16,15,16,17,17,16,15,17,17,17,15,15,
15,15,15,15,15,15,15,16,16,16,17,17,15,16,15,15,17,17,15,16,
15,15,15,15,15,15,15,16,15,17,16,16,15,16,16,15,16,17,16,16
</data>
 </layer>
 <layer id="2" name="terrain" width="20" height="20">
  <data encoding="csv">
0,0,0,0,0,0,0,0,0,0,0,0,0,0,0,0,0,860,860,860,
0,0,0,0,0,0,0,0,0,0,0,0,0,0,0,0,0,860,860,860,
0,0,0,0,0,0,0,0,0,0,0,0,0,0,0,0,863,860,860,860,
0,0,0,0,0,0,0,0,0,0,0,0,0,0,0,0,860,860,860,860,
0,0,0,0,0,0,0,0,0,0,0,0,0,0,0,0,860,860,860,860,
0,0,0,0,0,0,0,0,0,0,0,0,0,0,0,863,860,860,860,860,
0,0,0,0,0,0,0,0,0,0,0,0,0,0,0,860,860,860,860,860,
0,0,0,0,0,0,0,0,0,0,0,0,0,0,0,860,860,860,860,860,
0,0,0,0,0,0,0,0,0,0,0,0,0,0,863,860,860,860,860,860,
0,0,0,0,0,0,0,0,0,0,0,0,0,0,860,860,860,860,860,860,
0,0,0,0,0,0,0,0,0,0,0,0,0,0,860,860,860,860,860,860,
0,0,0,0,0,0,0,0,0,0,0,0,0,863,860,860,860,860,860,860,
0,0,0,0,0,0,0,0,0,0,0,0,0,860,860,860,860,860,860,860,
0,0,0,0,0,0,0,0,0,0,0,0,0,860,860,860,860,860,860,860,
0,0,0,0,0,0,0,0,0,0,0,0,863,860,860,860,860,860,860,860,
0,0,0,0,0,0,0,0,0,0,0,0,860,860,860,860,860,860,860,860,
0,0,0,0,0,0,0,0,0,0,0,0,860,860,860,860,860,860,860,860,
0,0,0,0,0,0,0,0,0,0,0,863,860,860,860,860,860,860,860,860,
0,0,0,0,0,0,0,0,0,0,0,860,860,860,860,860,860,860,860,860,
0,0,0,0,0,0,0,0,0,0,863,860,860,860,860,860,860,860,860,860
</data>
 </layer>
 <objectgroup id="3" name="platform">
  <object id="1" type="platform" x="699.758" y="1329.02" width="71.1667" height="70.6667"/>
  <object id="2" type="platform" x="770.418" y="1189.02" width="74.6667" height="145.333"/>
  <object id="3" type="platform" x="839.758" y="979.617" width="66.6667" height="217.333"/>
  <object id="4" type="platform" x="910.418" y="770.317" width="120" height="280"/>
  <object id="5" type="platform" x="979.758" y="561.017" width="72" height="213.333"/>
  <object id="6" type="platform" x="1050.42" y="350.317" width="69.3333" height="212"/>
  <object id="7" type="platform" x="1121.09" y="141.017" width="68" height="224"/>
  <object id="8" type="platform" x="1191.76" y="0.316667" width="68" height="143.333"/>
 </objectgroup>
</map>
