<?xml version="1.0" encoding="UTF-8"?>
<map version="1.10" tiledversion="1.11.2" orientation="orthogonal" renderorder="right-down" width="20" height="20" tilewidth="70" tileheight="70" infinite="0" nextlayerid="5" nextobjectid="80">
 <tileset firstgid="1" name="tilesheet" tilewidth="70" tileheight="70" tilecount="1207" columns="71">
  <image source="../../../../../../../Tilesheet.png" trans="ffffff" width="5000" height="1220"/>
 </tileset>
 <layer id="2" name="background" width="20" height="20">
  <data encoding="csv">
16,15,15,16,17,15,16,16,17,17,17,17,17,17,17,15,17,16,15,17,
16,17,15,17,16,16,17,17,17,15,17,15,15,16,17,16,16,16,16,17,
16,15,17,16,17,16,16,17,17,15,16,16,15,15,17,15,15,15,16,17,
15,17,16,17,16,17,16,15,17,15,16,17,15,15,17,16,15,17,15,17,
16,15,16,16,15,16,17,16,16,16,16,17,15,16,16,17,15,15,17,15,
15,17,15,16,15,17,17,15,15,17,15,17,17,17,16,16,15,15,17,17,
17,15,17,15,17,17,16,15,16,16,16,17,15,16,15,15,15,15,17,16,
16,17,17,15,16,17,16,15,17,16,16,15,17,16,17,16,15,17,15,17,
17,16,17,15,15,15,15,15,17,16,17,16,17,17,16,16,17,15,17,15,
15,17,16,15,15,15,15,15,16,17,16,15,15,16,16,17,17,15,17,17,
16,17,16,17,15,17,15,16,16,15,15,17,16,15,17,16,17,17,16,15,
15,16,17,17,17,16,17,16,17,16,17,16,15,17,16,17,15,16,17,15,
16,16,15,17,15,16,17,17,15,17,16,16,16,17,15,16,16,16,15,15,
16,16,17,17,16,15,15,15,17,16,16,17,15,16,16,15,15,16,16,17,
17,17,16,16,16,16,15,16,15,17,16,17,16,17,16,16,16,15,15,16,
15,17,17,17,16,17,16,15,17,17,16,16,15,16,15,15,16,15,16,16,
17,16,17,15,17,17,16,15,16,16,16,15,17,16,16,15,17,15,15,17,
17,16,16,15,17,15,16,17,16,17,15,15,16,16,16,17,15,17,17,15,
17,16,17,16,16,15,17,15,17,17,15,15,16,15,17,17,16,16,17,15,
17,15,15,17,17,16,15,17,16,16,16,15,16,15,17,17,15,15,15,15
</data>
 </layer>
 <layer id="1" name="terrain" width="20" height="20">
  <data encoding="csv">
0,0,0,0,0,0,0,0,0,0,0,0,0,0,0,0,0,0,0,0,
0,0,0,0,0,0,0,0,0,0,0,0,0,0,0,0,0,0,0,0,
0,0,0,0,0,0,0,0,0,0,0,0,0,0,0,0,0,0,0,0,
0,0,0,0,0,0,0,0,0,0,0,0,0,0,0,0,0,0,0,0,
0,0,0,0,0,0,0,0,0,0,0,0,0,0,0,0,0,0,0,0,
0,0,0,0,0,0,0,0,0,0,0,0,0,0,0,0,0,0,0,0,
0,0,0,0,0,0,0,0,0,0,0,0,0,0,0,0,0,0,0,0,
0,0,0,0,0,0,0,0,0,0,0,0,0,0,0,0,0,0,0,0,
0,0,0,0,0,0,0,0,0,0,0,0,0,0,0,0,0,0,0,0,
0,0,0,0,0,0,0,0,0,0,0,0,0,0,0,0,0,0,0,0,
0,0,0,0,0,0,0,0,0,0,0,0,0,0,0,0,0,0,0,0,
0,0,0,0,0,0,0,0,0,0,0,0,0,0,0,0,0,0,0,0,
0,0,0,0,0,0,0,0,0,0,0,0,0,0,0,52,53,54,55,56,
0,0,0,0,0,0,0,0,0,0,0,0,0,0,0,123,124,125,126,127,
0,0,0,0,0,0,0,0,0,0,0,0,0,0,0,194,195,196,197,198,
0,0,0,0,0,0,0,0,0,0,0,0,0,0,0,265,266,267,268,269,
0,0,0,0,0,0,0,0,0,0,0,0,0,0,0,336,337,338,339,340,
0,0,0,0,0,0,0,0,0,0,0,0,0,0,0,407,408,409,410,411,
0,0,0,0,0,0,0,0,0,0,0,0,0,0,0,478,479,480,481,482,
0,0,0,0,0,0,0,0,0,0,0,0,0,0,0,549,550,551,552,553
</data>
 </layer>
 <objectgroup id="3" name="platform"/>
</map>
