<?xml version="1.0" encoding="UTF-8"?>
<map version="1.10" tiledversion="1.11.2" orientation="orthogonal" renderorder="right-down" width="20" height="20" tilewidth="70" tileheight="70" infinite="0" nextlayerid="4" nextobjectid="15">
 <tileset firstgid="1" name="tilesheet" tilewidth="70" tileheight="70" tilecount="1207" columns="71">
  <image source="../../../../../../../Tilesheet.png" trans="ffffff" width="5000" height="1220"/>
 </tileset>
 <layer id="1" name="background" width="20" height="20">
  <data encoding="csv">
861,861,861,861,861,861,861,861,861,861,861,861,861,861,861,0,0,0,0,0,
861,861,861,861,861,861,861,861,861,861,861,861,861,861,861,0,0,0,0,0,
861,861,861,861,861,861,861,861,861,861,861,861,861,861,861,0,0,0,0,0,
861,861,861,861,861,861,861,861,861,861,861,861,861,861,861,0,0,0,0,0,
861,861,861,861,861,861,861,861,861,861,861,861,861,861,861,0,0,0,0,0,
861,861,861,861,861,861,861,861,861,861,861,861,861,861,861,0,0,0,0,0,
861,861,861,861,861,861,861,861,861,861,861,861,861,861,861,0,0,0,0,0,
861,861,861,861,861,861,861,861,861,861,861,861,861,861,861,0,0,0,0,0,
861,861,861,861,861,861,861,861,861,861,861,861,861,861,861,0,0,0,0,0,
861,861,861,861,861,861,861,861,861,861,861,861,861,861,861,0,0,0,0,0,
861,861,861,861,861,861,861,861,861,861,861,861,861,861,861,0,0,0,0,0,
861,861,861,861,861,861,861,861,861,861,861,861,861,861,861,0,0,0,0,0,
0,0,860,0,0,0,0,0,0,0,861,861,861,0,0,0,0,0,0,0,
0,0,0,0,0,0,0,0,0,0,861,861,861,0,0,0,0,0,0,0,
0,0,0,0,0,0,0,0,0,0,861,861,861,0,0,0,0,0,0,0,
0,0,0,0,0,0,0,0,0,0,861,861,861,0,0,0,0,0,0,0,
0,0,0,0,0,0,0,0,0,0,861,861,861,0,0,0,0,0,0,0,
0,0,0,0,0,0,0,0,0,0,861,861,861,0,0,0,0,0,0,0,
0,0,0,0,0,0,0,0,0,0,861,861,861,0,0,0,0,0,0,0,
0,0,0,0,0,0,0,0,0,0,861,861,861,0,0,0,0,0,0,0
</data>
 </layer>
 <layer id="2" name="terrain" width="20" height="20">
  <data encoding="csv">
0,0,0,0,0,0,860,860,860,0,0,0,0,0,0,860,860,860,860,860,
0,0,0,0,0,0,860,860,860,0,0,0,0,0,0,860,860,860,860,860,
0,0,0,0,0,0,0,0,0,0,0,0,0,0,0,860,860,860,860,860,
0,0,0,0,0,0,0,0,0,0,0,0,0,0,0,860,860,860,860,860,
0,0,0,0,0,0,152,0,0,0,0,0,0,0,0,860,860,860,860,860,
0,0,0,0,0,0,223,860,0,0,0,0,0,0,0,860,860,860,860,860,
0,0,0,0,0,860,860,860,0,0,0,0,0,0,0,860,860,860,860,860,
0,0,0,0,0,860,860,860,863,0,0,0,0,0,0,860,860,860,860,860,
860,860,0,0,0,860,860,860,860,0,0,0,0,0,863,860,860,860,860,860,
0,0,0,0,860,860,860,860,860,863,0,0,0,0,860,860,860,860,860,860,
0,0,0,0,860,860,860,860,860,860,0,0,0,0,860,860,860,860,860,860,
0,0,865,870,860,860,860,860,860,860,0,0,0,863,860,860,860,860,860,860,
863,863,863,863,860,860,860,860,860,860,0,0,0,860,860,860,860,860,860,860,
860,860,860,860,860,860,860,860,860,860,0,0,0,860,860,860,860,860,860,860,
860,860,860,860,860,860,860,860,860,860,0,0,0,860,860,860,860,860,860,860,
860,860,860,860,860,860,860,860,860,860,0,0,0,860,860,860,860,860,860,860,
860,860,860,860,860,860,860,860,860,860,0,0,0,860,860,860,860,860,860,860,
860,860,860,860,860,860,860,860,860,860,0,0,0,860,860,860,860,860,860,860,
860,860,860,860,860,860,860,860,860,860,0,0,0,860,860,860,860,860,860,860,
860,860,860,860,860,860,860,860,860,860,0,0,0,860,860,860,860,860,860,860
</data>
 </layer>
 <objectgroup id="3" name="platform">
  <object id="1" type="platform" x="628.136" y="629.755" width="70" height="771.52"/>
  <object id="2" type="platform" x="558.136" y="489.755" width="70" height="140"/>
  <object id="3" type="platform" x="488.136" y="349.755" width="70" height="140"/>
  <object id="4" type="platform" x="348.136" y="419.755" width="140" height="70"/>
  <object id="5" type="platform" x="348.136" y="489.755" width="70" height="140"/>
  <object id="6" type="platform" x="278.136" y="629.755" width="70" height="210"/>
  <object id="7" type="platform" x="0.136364" y="839.755" width="278" height="70"/>
  <object id="8" type="platform" x="908.136" y="769.755" width="70" height="629.7"/>
  <object id="9" type="platform" x="978.136" y="559.755" width="70" height="210"/>
  <object id="10" type="platform" x="1048.14" y="-2.24485" width="70" height="562"/>
  <object id="11" type="platform" x="418.136" y="-0.244848" width="70" height="140"/>
  <object id="12" type="platform" x="488.136" y="69.7552" width="140" height="70"/>
  <object id="13" type="platform" x="558.136" y="1.75515" width="70" height="68"/>
  <object id="14" type="platform" x="-1.86364" y="559.755" width="140" height="70"/>
 </objectgroup>
</map>
