<?xml version="1.0" encoding="UTF-8"?>
<map version="1.10" tiledversion="1.11.2" orientation="orthogonal" renderorder="right-down" width="20" height="20" tilewidth="70" tileheight="70" infinite="0" nextlayerid="4" nextobjectid="44">
 <tileset firstgid="1" name="tilesheet" tilewidth="70" tileheight="70" tilecount="1207" columns="71">
  <image source="../../../../../../../Tilesheet.png" trans="ffffff" width="5000" height="1220"/>
 </tileset>
 <layer id="1" name="background" width="20" height="20">
  <data encoding="csv">
15,15,15,17,17,15,16,16,16,16,16,16,16,17,17,15,15,15,15,15,
15,16,16,15,15,17,17,17,17,16,16,15,15,15,16,15,15,15,15,15,
15,15,15,15,15,16,16,15,16,17,17,17,17,17,17,15,15,15,15,15,
15,15,15,15,15,15,15,15,15,15,15,16,16,16,15,17,17,17,17,17,
0,0,0,0,0,0,0,861,861,861,861,0,0,0,0,0,0,0,0,0,
0,0,0,0,0,0,0,861,861,861,861,0,0,0,0,0,0,0,0,0,
0,0,0,0,0,0,0,861,861,861,861,0,0,0,0,0,0,0,0,0,
0,0,0,0,0,0,0,861,861,861,861,0,0,0,0,0,0,0,0,0,
0,0,0,0,0,0,0,861,861,861,861,0,0,0,0,0,0,0,0,0,
0,0,0,0,0,0,0,861,861,861,861,0,0,0,0,0,0,0,0,0,
0,0,0,0,0,0,0,861,861,861,861,0,0,0,0,0,0,0,0,0,
0,0,0,0,0,0,0,861,861,861,861,0,0,0,0,0,0,0,0,0,
0,0,0,0,0,0,0,861,861,861,861,0,0,0,0,0,0,0,0,0,
0,0,0,0,0,0,0,861,861,861,861,0,0,0,0,0,0,0,0,0,
861,861,861,861,0,0,0,861,861,861,861,0,0,0,0,0,0,0,0,0,
861,861,861,861,0,0,0,861,861,861,861,0,0,0,0,0,0,0,0,0,
861,861,861,861,0,0,0,861,861,861,861,0,0,0,0,0,0,0,0,0,
861,861,861,861,0,0,0,861,861,861,861,0,0,0,0,0,0,0,0,0,
861,861,861,861,0,0,0,861,861,861,861,0,0,0,0,0,0,0,0,0,
861,861,861,861,0,0,0,861,861,861,861,0,0,0,0,0,0,0,0,0
</data>
 </layer>
 <layer id="2" name="terrain" width="20" height="20">
  <data encoding="csv">
0,0,0,0,0,0,0,0,0,0,0,0,0,0,0,0,0,0,0,0,
0,0,0,0,0,0,0,0,0,0,0,0,0,0,99,100,101,102,103,104,
0,0,0,0,0,0,0,0,0,0,0,0,0,0,170,171,172,173,174,175,
0,0,0,0,0,0,0,0,0,0,0,0,0,0,241,242,243,244,245,246,
863,863,863,863,863,863,863,0,0,0,863,863,863,863,863,863,863,863,863,863,
860,860,860,860,860,860,860,0,0,860,860,860,860,860,860,860,860,860,860,860,
860,860,860,860,860,860,860,0,0,0,860,860,860,860,860,860,860,860,860,860,
860,860,860,860,860,860,860,0,0,0,0,860,860,860,860,860,860,860,860,860,
860,860,860,860,860,860,860,860,860,0,0,860,860,860,860,860,860,860,860,860,
860,860,860,860,860,860,860,0,0,0,0,860,860,860,860,860,860,860,860,860,
860,860,860,860,860,860,860,0,0,0,860,860,860,860,860,860,860,860,860,860,
860,860,860,860,860,860,860,0,0,0,0,860,860,860,860,860,860,860,860,860,
860,860,860,860,860,860,860,860,860,0,0,860,860,860,860,860,860,860,860,860,
860,860,860,860,860,860,860,860,0,0,0,860,860,860,860,860,860,860,860,860,
651,651,651,655,860,860,860,0,0,0,0,860,860,860,860,860,860,860,860,860,
0,0,0,657,860,860,860,0,0,860,860,860,860,860,860,860,860,860,860,860,
0,0,0,657,860,860,860,0,0,0,860,860,860,860,860,860,860,860,860,860,
664,0,0,657,860,860,860,664,0,0,0,860,860,860,860,860,860,860,860,860,
0,0,0,657,860,860,860,0,0,0,0,860,860,860,860,860,860,860,860,860,
0,0,0,657,860,860,860,0,0,0,0,860,860,860,860,860,860,860,860,860
</data>
 </layer>
 <objectgroup id="3" name="platform">
  <object id="22" type="platform" x="278" y="981.44" width="74.6667" height="420.667"/>
  <object id="23" type="platform" x="0.67" y="1188.74" width="72" height="30.6667"/>
  <object id="24" type="platform" x="0" y="279.44" width="490" height="70"/>
  <object id="25" type="platform" x="700" y="281.44" width="696" height="70"/>
  <object id="26" type="platform" x="1020" y="202.739" width="322" height="80"/>
  <object id="27" type="platform" x="1072.67" y="79.4395" width="260" height="122.667"/>
  <object id="28" type="platform" x="-2" y="911.44" width="283" height="70"/>
  <object id="29" type="platform" x="772" y="1191.44" width="15.3333" height="209.579"/>
  <object id="30" type="platform" x="464" y="981.44" width="27" height="421.121"/>
  <object id="31" type="platform" x="702" y="1121.44" width="69" height="69"/>
  <object id="32" type="platform" x="632" y="1050.44" width="138" height="72"/>
  <object id="33" type="platform" x="492" y="911.44" width="71" height="71"/>
  <object id="34" type="platform" x="492" y="841.44" width="139" height="70"/>
  <object id="35" type="platform" x="461" y="631.44" width="31" height="211"/>
  <object id="36" type="platform" x="702" y="700.44" width="70" height="72"/>
  <object id="37" type="platform" x="493" y="563.44" width="141" height="65"/>
  <object id="38" type="platform" x="631" y="351.44" width="70" height="70"/>
  <object id="39" type="platform" x="701" y="421.44" width="72" height="70"/>
  <object id="40" type="platform" x="446" y="350.44" width="43" height="212"/>
  <object id="41" type="platform" x="771" y="492.44" width="68" height="208"/>
  <object id="42" type="platform" x="773" y="771.44" width="22" height="279"/>
  <object id="43" type="platform" x="488" y="1190" width="72" height="30.6667"/>
 </objectgroup>
</map>
