<?xml version="1.0" encoding="UTF-8"?>
<map version="1.10" tiledversion="1.11.2" orientation="orthogonal" renderorder="right-down" width="20" height="20" tilewidth="70" tileheight="70" infinite="0" nextlayerid="5" nextobjectid="84">
 <tileset firstgid="1" name="tilesheet" tilewidth="70" tileheight="70" tilecount="1207" columns="71">
  <image source="../../../../../../../Tilesheet.png" trans="ffffff" width="5000" height="1220"/>
 </tileset>
 <layer id="2" name="background" width="20" height="20">
  <data encoding="csv">
17,16,16,16,16,15,17,15,15,17,15,17,16,15,17,15,15,15,16,16,
16,15,17,17,16,16,16,15,17,17,15,17,17,15,17,15,17,17,17,15,
16,15,15,16,17,15,16,17,17,16,15,16,15,17,16,16,16,16,17,16,
17,15,17,17,15,16,15,16,17,16,17,15,16,15,16,17,16,16,17,15,
17,16,15,15,17,17,17,17,16,15,16,15,15,15,16,15,17,17,17,16,
15,17,15,15,16,16,16,15,16,16,15,16,15,17,15,17,17,16,15,17,
15,15,15,17,15,17,16,17,16,15,17,15,16,15,16,16,17,16,15,17,
15,16,15,16,17,15,15,15,16,15,17,17,15,16,16,16,17,17,17,16,
15,16,15,16,17,16,17,15,15,16,15,17,15,16,16,17,17,15,17,16,
15,16,15,17,15,15,16,15,16,15,16,17,16,16,17,15,16,15,17,16,
17,15,17,15,16,15,16,15,16,17,15,17,16,17,17,17,17,17,15,17,
16,17,15,15,17,15,16,15,17,15,15,16,15,15,16,17,17,16,17,17,
16,16,17,15,15,16,17,15,17,15,16,17,17,17,15,17,16,17,17,17,
16,17,15,15,17,16,16,16,17,17,15,17,15,15,15,16,17,15,15,16,
17,16,16,16,16,15,16,16,15,16,16,17,16,15,16,16,17,16,17,15,
16,15,16,16,17,15,15,15,17,16,15,16,15,16,15,17,15,17,15,16,
15,15,15,15,15,16,17,17,17,15,15,16,15,17,16,17,16,15,16,17,
16,17,17,17,17,16,17,15,17,16,17,17,15,17,16,15,17,17,17,16,
15,16,17,17,16,15,15,16,17,16,16,15,15,16,17,16,16,17,15,17,
17,16,17,17,15,17,17,17,15,17,15,15,16,15,15,17,15,15,16,15
</data>
 </layer>
 <layer id="1" name="terrain" width="20" height="20">
  <data encoding="csv">
0,0,0,0,0,0,0,0,0,0,0,0,0,0,0,0,0,0,0,0,
0,0,0,0,0,0,0,0,0,0,0,0,0,0,0,0,0,0,0,0,
0,0,0,0,0,0,0,0,0,0,0,0,0,0,0,0,0,0,0,0,
0,0,0,0,0,0,0,0,0,0,0,0,0,0,0,0,0,0,0,0,
0,0,0,0,0,0,0,0,0,0,0,0,0,0,0,0,0,0,0,0,
0,0,0,0,0,0,0,0,0,0,0,0,0,0,0,0,0,0,0,0,
0,0,0,0,56,57,58,59,60,61,62,63,64,65,66,67,68,69,70,0,
0,0,0,0,127,128,129,130,131,132,133,134,135,136,137,138,139,140,141,0,
0,0,0,0,198,199,200,201,202,203,204,205,206,207,208,209,210,211,212,0,
0,0,0,0,269,270,271,272,273,274,275,276,277,278,279,280,281,282,283,0,
0,0,0,0,340,341,342,343,344,345,346,347,348,349,350,351,352,353,354,0,
0,0,0,0,411,412,413,414,415,416,417,418,419,420,421,422,423,424,425,0,
0,0,0,0,482,483,484,485,486,487,488,489,490,491,492,493,494,495,496,0,
0,0,0,0,553,554,555,556,557,558,559,560,561,562,563,564,565,566,567,0,
0,0,0,0,624,625,626,627,628,629,630,631,632,633,634,635,636,637,638,0,
0,0,0,0,695,696,697,698,699,700,701,702,703,704,705,706,707,708,709,0,
0,0,0,0,766,767,768,769,770,771,772,773,774,775,776,777,778,779,780,0,
863,863,863,863,837,838,839,840,841,842,843,844,845,846,847,848,849,850,851,0,
860,860,860,860,908,909,910,911,912,913,914,915,916,917,918,919,920,921,922,0,
860,860,860,860,863,0,0,0,0,0,0,0,0,0,0,0,0,0,0,0
</data>
 </layer>
 <objectgroup id="3" name="platform">
  <object id="80" type="platform" x="0" y="1191" width="70" height="210"/>
  <object id="81" type="platform" x="70" y="1191" width="210" height="70"/>
  <object id="82" type="platform" x="280" y="1" width="70" height="1190"/>
 </objectgroup>
</map>
