<?xml version="1.0" encoding="UTF-8"?>
<map version="1.10" tiledversion="1.11.2" orientation="orthogonal" renderorder="right-down" width="20" height="20" tilewidth="70" tileheight="70" infinite="0" nextlayerid="5" nextobjectid="27">
 <tileset firstgid="1" name="tilesheet" tilewidth="70" tileheight="70" tilecount="1207" columns="71">
  <image source="../../../../../../../Tilesheet.png" trans="ffffff" width="5000" height="1220"/>
 </tileset>
 <layer id="2" name="background" width="20" height="20">
  <data encoding="csv">
16,16,16,16,15,17,15,17,17,16,17,16,17,17,17,15,16,16,16,16,
16,15,17,17,16,15,15,15,17,17,17,16,15,16,15,17,861,861,861,861,
16,15,15,16,17,16,16,17,15,16,15,16,15,16,15,15,861,861,861,861,
17,16,16,15,15,15,15,15,17,16,15,17,15,15,15,16,861,861,861,861,
15,16,16,16,15,17,17,16,16,17,17,15,16,16,16,16,861,861,861,861,
15,17,16,16,16,17,16,17,17,15,15,16,17,16,15,16,16,861,17,16,
17,15,15,17,15,15,16,16,15,16,15,16,15,16,15,15,17,861,16,15,
15,17,17,15,17,16,17,15,15,17,17,15,17,16,17,15,17,861,861,861,
16,17,15,17,15,15,16,17,15,15,15,15,17,17,16,17,17,861,861,861,
16,17,15,16,16,17,17,17,17,17,17,16,16,15,15,15,17,861,861,861,
17,16,17,15,16,15,15,16,16,16,16,17,17,17,861,861,861,861,861,861,
16,15,17,16,17,16,17,17,16,15,17,15,15,16,861,861,861,861,861,861,
16,15,15,16,15,15,15,16,15,15,15,16,16,15,15,15,16,861,861,861,
16,15,15,15,17,16,15,15,17,16,15,15,16,15,16,15,16,15,861,861,
15,17,17,15,16,15,17,15,17,15,16,15,15,15,16,15,15,17,861,861,
15,15,15,15,15,17,17,16,16,17,16,15,15,16,15,17,15,17,861,861,
15,17,16,15,15,16,16,15,16,15,17,17,15,15,15,16,15,17,861,861,
16,17,17,15,16,16,16,15,15,16,15,17,15,16,15,16,17,15,861,861,
15,15,16,16,15,17,16,15,15,15,16,17,15,16,17,17,15,15,861,861,
15,15,17,16,15,15,16,17,15,16,16,16,17,16,16,15,17,15,861,861
</data>
 </layer>
 <layer id="1" name="terrain" width="20" height="20">
  <data encoding="csv">
16,16,16,16,15,17,15,17,17,16,17,16,17,17,17,15,860,860,860,860,
16,15,17,17,16,15,15,15,17,17,17,16,15,16,15,17,861,861,861,861,
16,15,15,16,17,16,16,17,15,16,15,16,15,16,15,15,861,861,861,861,
17,16,16,15,15,15,15,15,17,16,15,17,15,15,863,863,863,863,860,860,
15,16,16,16,15,17,17,16,16,17,17,15,16,16,860,860,860,860,860,860,
15,17,16,16,16,17,16,17,17,15,15,16,17,867,860,860,860,860,860,860,
17,15,15,17,15,15,16,16,15,16,15,16,15,16,860,860,860,860,860,860,
15,17,17,15,17,16,17,15,15,17,17,15,17,16,860,860,860,860,860,861,
16,17,15,17,15,15,16,17,15,15,15,15,17,867,860,860,860,860,861,861,
16,17,15,16,16,17,17,17,17,17,17,16,16,15,860,860,860,861,861,861,
17,16,17,15,16,15,15,16,16,16,16,17,17,17,861,861,861,861,861,861,
16,15,17,16,17,16,17,17,16,15,17,15,15,16,861,861,861,861,861,861,
16,15,15,16,15,15,15,16,15,15,15,16,16,661,863,863,860,860,869,869,
16,15,15,15,17,16,15,15,17,16,15,15,16,15,860,860,860,860,861,861,
15,17,17,15,16,15,17,15,17,15,16,15,15,15,860,860,860,860,861,861,
15,15,15,15,15,17,17,16,16,17,16,15,15,16,860,860,860,860,861,861,
15,17,16,15,15,16,16,15,16,15,17,17,15,15,860,860,860,860,861,861,
16,17,17,15,16,16,16,15,15,16,15,17,15,16,860,860,860,860,869,869,
15,15,16,16,15,17,16,15,15,15,16,17,15,16,17,860,860,860,861,861,
15,15,17,16,15,15,16,17,15,16,16,16,17,16,16,860,860,860,869,868
</data>
 </layer>
 <objectgroup id="3" name="platform">
  <object id="10" type="platform" x="979.95" y="209.998" width="419" height="70"/>
  <object id="11" type="platform" x="979.95" y="279.998" width="70" height="420"/>
  <object id="12" type="platform" x="1049.95" y="629.998" width="140" height="70"/>
  <object id="13" type="platform" x="1189.95" y="559.998" width="70" height="70"/>
  <object id="14" type="platform" x="1259.95" y="489.998" width="70" height="70"/>
  <object id="15" type="platform" x="1329.95" y="419.998" width="71" height="70"/>
  <object id="16" type="platform" x="1260.55" y="1246.36" width="139.864" height="13.6364"/>
  <object id="17" type="platform" x="1260.55" y="1379.2" width="139.864" height="20.303"/>
  <object id="18" type="platform" x="1049.95" y="1260" width="70" height="140"/>
  <object id="19" type="platform" x="979.95" y="839.998" width="70" height="420"/>
  <object id="20" type="platform" x="1049.95" y="839.998" width="210" height="70"/>
  <object id="21" type="platform" x="1261.15" y="891.818" width="138.333" height="18.1818"/>
  <object id="22" type="platform" x="906.05" y="840.298" width="72.7273" height="36.3636"/>
  <object id="23" type="platform" x="912.05" y="613.028" width="67.8788" height="16.9697"/>
  <object id="24" type="platform" x="906.05" y="403.938" width="73.9394" height="16.0606"/>
  <object id="25" type="platform" x="1119.95" y="0.9985" width="70" height="69"/>
  <object id="26" type="platform" x="1189.95" y="-0.0015" width="211" height="70"/>
 </objectgroup>
</map>
