<?xml version="1.0" encoding="UTF-8"?>
<map version="1.10" tiledversion="1.11.2" orientation="orthogonal" renderorder="right-down" width="20" height="20" tilewidth="70" tileheight="70" infinite="0" nextlayerid="4" nextobjectid="8">
 <tileset firstgid="1" name="tilesheet" tilewidth="70" tileheight="70" tilecount="1207" columns="71">
  <image source="../../../../../../../Tilesheet.png" trans="ffffff" width="5000" height="1220"/>
 </tileset>
 <layer id="1" name="background" width="20" height="20">
  <data encoding="csv">
861,861,861,861,861,861,861,861,861,861,861,0,0,0,0,0,0,0,0,0,
861,861,861,861,861,861,861,861,861,861,861,0,0,0,0,0,0,0,0,0,
861,861,861,861,861,861,861,861,861,861,861,0,0,0,0,0,0,0,0,0,
861,861,861,861,861,861,861,0,861,0,0,0,0,0,0,0,0,0,0,0,
861,861,861,861,0,0,0,0,862,0,0,0,0,0,0,0,0,0,0,0,
861,861,861,861,0,0,0,0,0,0,0,0,0,0,0,0,0,0,0,0,
861,861,861,861,0,0,0,0,0,0,0,0,0,0,0,0,0,0,0,0,
861,861,861,861,0,0,0,0,0,0,0,0,0,0,0,0,0,0,0,0,
861,861,861,861,0,0,0,0,0,0,0,0,0,0,0,0,0,0,0,0,
0,0,0,0,0,0,0,0,0,0,0,0,0,0,0,0,0,0,0,0,
0,0,0,0,0,0,0,0,0,0,0,0,0,0,0,0,0,0,0,0,
0,0,0,0,0,0,0,0,0,0,0,0,0,0,0,0,0,0,0,0,
0,0,0,0,0,0,0,0,0,0,0,0,0,0,0,0,0,0,0,0,
0,0,0,0,0,0,0,0,0,0,0,0,0,0,0,0,0,0,0,0,
0,0,0,0,0,0,0,0,0,0,0,0,0,0,0,0,0,0,0,0,
0,0,0,0,0,0,0,0,0,0,0,0,0,0,0,0,0,0,0,0,
0,0,0,0,0,0,0,0,0,0,0,0,0,0,0,0,0,0,0,0,
0,0,0,0,0,0,0,0,0,0,0,0,0,0,0,0,0,0,0,0,
0,0,0,0,0,0,0,0,0,0,0,0,0,0,0,0,0,0,0,0,
0,0,0,0,0,0,0,0,0,0,0,0,0,0,0,0,0,0,0,0
</data>
 </layer>
 <layer id="2" name="terrain" width="20" height="20">
  <data encoding="csv">
0,0,0,0,659,651,651,0,0,0,860,860,860,860,860,860,860,860,860,860,
664,0,0,0,0,0,0,0,0,860,860,860,860,860,860,860,860,860,860,860,
0,0,0,0,0,0,0,0,0,860,860,860,860,860,860,860,860,860,860,860,
0,0,0,649,650,650,860,860,651,860,860,860,860,860,860,860,860,860,860,860,
0,0,0,0,860,860,860,860,0,860,860,860,860,860,860,860,860,860,860,860,
0,0,0,0,860,860,860,860,860,860,860,860,860,860,860,860,860,860,860,860,
0,0,0,0,860,860,860,860,860,860,860,860,860,860,860,860,860,860,860,860,
0,0,0,152,860,860,860,860,860,860,860,860,860,860,860,860,860,860,860,860,
0,0,0,223,860,860,860,860,860,860,860,860,860,860,860,860,860,860,860,860,
860,860,860,860,860,860,860,860,860,860,860,860,860,860,860,860,860,860,860,860,
860,860,860,860,860,860,860,860,860,860,860,860,860,860,860,860,860,860,860,860,
860,860,860,860,860,860,860,860,860,860,860,860,860,860,860,860,860,860,860,860,
860,860,860,860,860,860,860,860,860,860,860,860,860,860,860,860,860,860,860,860,
860,860,860,860,860,860,860,860,860,860,860,860,860,860,860,860,860,860,860,860,
860,860,860,860,860,860,860,860,860,860,860,860,860,860,860,860,860,860,860,860,
860,860,860,860,860,860,860,860,860,860,860,860,860,860,860,860,860,860,860,860,
860,860,860,860,860,860,860,860,860,860,860,860,860,860,860,860,860,860,860,860,
860,860,860,860,860,860,860,860,860,860,860,860,860,860,860,860,860,860,860,860,
860,860,860,860,860,860,860,860,860,860,860,860,860,860,860,860,860,860,860,860,
860,860,860,860,860,860,860,860,860,860,860,860,860,860,860,860,860,860,860,860
</data>
 </layer>
 <objectgroup id="3" name="platform">
  <object id="1" type="platform" x="-2.83165" y="629.5" width="284" height="70"/>
  <object id="2" type="platform" x="280.168" y="280.5" width="13" height="351"/>
  <object id="3" type="platform" x="286.168" y="277.5" width="134" height="44"/>
  <object id="4" type="platform" x="420.168" y="210.5" width="211" height="70"/>
  <object id="5" type="platform" x="0.16835" y="69.2" width="70" height="35.3333"/>
  <object id="6" type="platform" x="630.168" y="70.5" width="69.3333" height="139.333"/>
  <object id="7" type="platform" x="699.498" y="-0.166667" width="71.3333" height="70.6667"/>
 </objectgroup>
</map>
