<?xml version="1.0" encoding="UTF-8"?>
<map version="1.10" tiledversion="1.11.2" orientation="orthogonal" renderorder="right-down" width="20" height="20" tilewidth="70" tileheight="70" infinite="0" nextlayerid="5" nextobjectid="47">
 <tileset firstgid="1" name="tilesheet" tilewidth="70" tileheight="70" tilecount="1207" columns="71">
  <image source="../../../../../../../Tilesheet.png" trans="ffffff" width="5000" height="1220"/>
 </tileset>
 <layer id="2" name="background" width="20" height="20">
  <data encoding="csv">
0,0,0,0,0,0,0,0,861,861,861,861,861,0,0,0,0,0,0,0,
861,861,861,861,861,861,861,861,861,861,861,861,861,0,0,0,0,0,0,0,
861,861,861,861,861,861,861,861,861,861,861,861,861,0,0,0,0,0,0,0,
861,861,861,861,861,861,861,861,861,861,861,861,861,0,0,0,0,0,0,0,
861,861,861,861,861,861,861,861,861,861,861,861,861,861,861,0,0,0,0,0,
0,861,861,861,861,861,861,861,861,861,861,861,861,861,861,0,0,0,0,0,
0,861,861,861,861,861,861,861,861,861,861,861,861,861,861,0,0,0,0,0,
861,861,861,861,861,861,861,861,861,861,861,861,861,861,861,0,0,0,0,0,
861,861,861,861,861,861,861,861,861,861,861,861,861,861,861,0,0,0,0,0,
861,861,861,861,861,861,861,861,861,861,861,861,861,861,861,0,0,0,0,0,
861,861,861,861,861,861,861,861,861,861,861,861,861,861,861,0,0,0,0,0,
861,861,861,861,861,861,861,861,861,861,861,861,861,861,861,0,0,0,0,0,
861,861,861,861,861,861,863,863,863,861,861,861,861,861,861,0,0,0,0,0,
861,861,861,861,861,861,861,861,861,861,861,861,861,861,861,0,0,0,0,0,
861,861,861,861,861,861,861,861,861,861,861,861,861,861,861,0,0,0,0,0,
861,861,861,861,861,861,861,861,861,861,861,861,861,861,861,0,0,0,0,0,
861,861,861,861,861,861,861,861,861,861,861,861,861,861,861,0,0,0,0,0,
861,861,861,861,861,861,861,861,861,861,861,861,861,861,861,0,0,0,0,0,
861,861,861,861,861,861,861,861,861,861,861,861,861,861,861,0,0,0,0,0,
861,861,861,861,861,861,861,861,861,861,861,861,861,861,861,0,0,0,0,0
</data>
 </layer>
 <layer id="1" name="terrain" width="20" height="20">
  <data encoding="csv">
860,860,860,860,860,860,860,860,868,0,0,0,860,860,860,860,860,860,860,860,
0,0,0,0,0,0,0,0,0,0,0,0,860,860,860,860,860,860,860,860,
0,0,0,0,0,0,0,0,0,0,0,0,860,860,860,860,860,860,860,860,
860,860,860,860,860,860,860,860,0,0,0,0,860,860,860,860,860,860,860,860,
860,860,860,860,860,860,860,860,0,0,0,0,860,860,860,860,860,860,860,860,
860,860,860,0,0,0,0,0,0,0,0,0,0,860,860,860,860,860,860,860,
860,0,0,0,0,0,0,0,0,0,0,0,0,860,860,860,860,860,860,860,
0,0,0,0,0,0,0,0,0,0,0,0,0,860,860,860,860,860,860,860,
0,0,0,0,0,0,0,0,0,0,0,0,0,0,860,860,860,860,860,860,
0,0,0,0,0,0,0,0,0,0,0,0,0,0,860,860,860,860,860,860,
0,0,0,0,0,0,0,0,0,0,0,0,0,0,860,860,860,860,860,860,
0,0,0,0,0,0,0,0,0,0,0,0,0,0,860,860,860,860,860,860,
869,869,868,0,0,661,651,651,651,664,0,0,0,661,860,860,860,860,860,860,
0,0,0,0,0,0,860,860,860,0,0,0,0,0,0,860,860,860,860,860,
0,0,0,0,0,0,860,860,860,0,0,0,0,0,0,860,860,860,860,860,
0,0,867,869,869,869,860,860,860,0,0,0,0,0,0,860,860,860,860,860,
0,0,0,0,0,0,860,860,860,0,0,0,0,0,0,860,860,860,860,860,
868,0,0,0,0,0,860,860,860,0,0,0,0,0,0,860,860,860,860,860,
0,0,0,0,0,0,860,860,860,0,0,0,0,0,0,860,860,860,860,860,
0,0,0,0,0,0,860,860,860,0,0,0,0,0,0,860,860,860,860,860
</data>
 </layer>
 <objectgroup id="3" name="platform">
  <object id="27" type="platform" x="1054.14" y="909.424" width="70" height="490"/>
  <object id="28" type="platform" x="984.139" y="559.424" width="70" height="350"/>
  <object id="29" type="platform" x="914.139" y="349.424" width="70" height="210"/>
  <object id="30" type="platform" x="844.139" y="209.424" width="70" height="140"/>
  <object id="31" type="platform" x="0.139394" y="209.424" width="564" height="70"/>
  <object id="32" type="platform" x="2.13939" y="419.424" width="72" height="70"/>
  <object id="33" type="platform" x="74.1394" y="349.424" width="140" height="70"/>
  <object id="34" type="platform" x="214.139" y="279.424" width="350" height="70"/>
  <object id="35" type="platform" x="354.139" y="839.424" width="71.2121" height="45.7576"/>
  <object id="36" type="platform" x="634.139" y="839.424" width="73.0303" height="36.6667"/>
  <object id="37" type="platform" x="424.139" y="839.424" width="210" height="70"/>
  <object id="38" type="platform" x="424.139" y="909.424" width="70" height="494"/>
  <object id="39" type="platform" x="564.139" y="909.424" width="70" height="492"/>
  <object id="40" type="platform" x="146.139" y="1103.36" width="275.152" height="16.0606"/>
  <object id="41" type="platform" x="-0.260606" y="1245.78" width="74.364" height="13.6364"/>
  <object id="42" type="platform" x="2.83939" y="891.244" width="211.333" height="18.1818"/>
  <object id="43" type="platform" x="910.239" y="839.724" width="72.7273" height="45.4545"/>
  <object id="44" type="platform" x="2.13939" y="-0.575758" width="562" height="70"/>
  <object id="45" type="platform" x="564.139" y="60.9442" width="70.303" height="8.48485"/>
  <object id="46" type="platform" x="844.139" y="1.42424" width="70" height="208"/>
 </objectgroup>
</map>
