<?xml version="1.0" encoding="UTF-8"?>
<map version="1.10" tiledversion="1.11.2" orientation="orthogonal" renderorder="right-down" width="20" height="20" tilewidth="70" tileheight="70" infinite="0" nextlayerid="4" nextobjectid="24">
 <tileset firstgid="1" name="tilesheet" tilewidth="70" tileheight="70" tilecount="1207" columns="71">
  <image source="../../../../../../../Tilesheet.png" trans="ffffff" width="5000" height="1220"/>
 </tileset>
 <layer id="1" name="background" width="20" height="20">
  <data encoding="csv">
17,15,15,17,16,15,16,17,16,16,16,17,17,17,15,15,15,16,0,0,
15,15,15,15,15,15,15,16,15,16,16,16,15,16,15,17,16,16,16,16,
15,15,15,15,15,15,15,16,15,16,16,16,17,17,17,17,15,15,15,16,
15,15,15,15,15,15,16,16,15,16,17,17,16,15,17,17,17,15,15,16,
15,15,15,15,15,15,16,16,16,17,17,15,16,15,15,17,17,15,16,15,
15,15,15,15,15,15,16,15,17,16,16,15,16,16,15,16,17,16,16,16,
15,15,15,15,15,15,16,17,16,15,16,15,15,16,16,16,16,17,17,17,
15,15,15,15,15,15,17,17,16,15,16,16,15,16,16,16,16,17,17,15,
15,15,15,15,15,15,17,17,15,16,16,16,16,16,16,16,17,17,17,15,
15,15,15,15,16,16,15,15,17,17,17,17,16,16,15,15,15,16,17,17,
15,15,15,15,15,15,15,15,16,16,15,16,17,17,17,17,17,17,15,17,
15,15,15,15,15,15,15,15,15,15,15,15,15,15,16,16,16,15,17,17,
17,17,17,17,15,864,0,0,0,0,0,0,0,0,0,0,0,0,864,864,
15,17,15,0,864,861,0,0,0,0,0,0,0,0,0,0,0,0,861,861,
17,17,15,0,861,861,0,0,0,0,0,0,0,0,0,0,0,0,861,861,
0,0,0,0,861,861,0,0,0,0,0,0,0,0,0,0,0,0,861,861,
0,0,0,0,861,861,0,0,0,0,0,0,0,0,0,0,0,861,861,861,
0,0,861,861,861,861,861,861,861,861,861,861,861,861,861,861,861,861,861,861,
0,0,861,861,861,861,861,861,861,861,861,861,861,861,861,861,861,861,861,861,
0,0,861,861,861,861,861,861,861,861,861,861,861,861,861,861,861,861,861,861
</data>
 </layer>
 <layer id="2" name="terrain" width="20" height="20">
  <data encoding="csv">
0,0,0,0,0,0,0,0,0,0,0,0,0,0,0,863,860,860,860,860,
0,0,0,0,0,0,0,0,0,0,0,0,0,0,867,860,860,860,860,860,
0,0,0,0,0,0,0,0,0,0,0,0,0,0,0,860,860,860,860,860,
0,0,0,0,0,0,0,0,0,0,0,0,0,0,0,860,860,860,860,860,
0,0,0,0,0,0,0,0,0,0,0,0,0,0,867,869,860,860,860,860,
0,0,0,0,0,0,0,0,0,0,0,0,0,0,0,0,0,860,860,860,
0,0,0,0,0,0,0,0,0,0,0,0,0,0,0,0,0,0,0,0,
0,0,0,0,0,0,0,0,0,0,0,0,0,0,0,854,855,856,0,0,
0,0,0,0,0,0,0,0,0,0,0,0,0,0,924,925,926,927,0,0,
0,0,0,0,0,0,0,0,0,0,0,0,0,0,995,996,997,100,101,102,
0,0,0,0,0,0,0,382,0,0,0,0,0,0,1066,1067,1068,171,172,173,
0,0,0,0,0,0,0,453,0,0,0,0,0,853,1137,1138,241,242,243,244,
0,0,0,0,0,661,863,863,863,863,863,863,863,863,863,863,863,863,664,0,
0,0,0,863,0,0,860,860,860,860,860,860,860,860,860,860,860,860,868,0,
0,863,863,860,0,0,860,860,860,860,860,860,860,860,860,860,860,860,0,0,
863,860,860,860,0,0,860,860,860,860,860,860,860,860,860,860,860,860,0,0,
860,860,860,860,0,0,860,860,860,860,860,860,860,860,860,860,860,860,0,0,
860,860,860,0,0,0,0,860,860,860,860,860,860,860,860,860,860,869,868,0,
860,860,869,869,868,0,0,0,0,0,0,0,0,0,0,0,0,0,0,0,
860,860,0,0,0,0,0,0,0,0,0,0,0,0,0,0,0,0,0,0
</data>
 </layer>
 <objectgroup id="3" name="platform">
  <object id="1" type="platform" x="1.29333" y="1051.68" width="70.75" height="73.3333"/>
  <object id="2" type="platform" x="70.7033" y="979.684" width="141.333" height="70.6667"/>
  <object id="3" type="platform" x="209.373" y="911.684" width="70.6667" height="281.333"/>
  <object id="4" type="platform" x="349.373" y="840.984" width="72" height="44"/>
  <object id="5" type="platform" x="420.043" y="839.684" width="70.6667" height="352"/>
  <object id="6" type="platform" x="492.043" y="1191.68" width="697.333" height="69.3333"/>
  <object id="7" type="platform" x="1189.37" y="1247.68" width="131.333" height="14.6667"/>
  <object id="8" type="platform" x="141.373" y="1318.38" width="202.667" height="14.6667"/>
  <object id="9" type="platform" x="140.043" y="1191.68" width="72" height="66.6667"/>
  <object id="10" type="platform" x="120.043" y="1260.98" width="21.3333" height="142.666"/>
  <object id="11" type="platform" x="1258.7" y="839.684" width="72" height="34.6667"/>
  <object id="12" type="platform" x="1260.04" y="967.684" width="69.3333" height="16"/>
  <object id="13" type="platform" x="493.373" y="838.384" width="766.667" height="60"/>
  <object id="14" type="platform" x="1189.37" y="898.384" width="70.6667" height="292"/>
  <object id="15" type="platform" x="1121.37" y="641.684" width="70" height="60"/>
  <object id="16" type="platform" x="1049.37" y="559.684" width="142" height="72"/>
  <object id="17" type="platform" x="1075.37" y="515.684" width="54" height="44"/>
  <object id="18" type="platform" x="971.373" y="583.684" width="78" height="56"/>
  <object id="19" type="platform" x="983.373" y="337.684" width="138" height="14"/>
  <object id="20" type="platform" x="985.373" y="127.684" width="66" height="14"/>
  <object id="21" type="platform" x="1047.37" y="3.68367" width="74" height="278"/>
  <object id="22" type="platform" x="1121.37" y="281.684" width="70" height="70"/>
  <object id="23" type="platform" x="1191.37" y="351.684" width="207.5" height="68"/>
 </objectgroup>
</map>
