<?xml version="1.0" encoding="UTF-8"?>
<map version="1.10" tiledversion="1.11.2" orientation="orthogonal" renderorder="right-down" width="20" height="20" tilewidth="70" tileheight="70" infinite="0" nextlayerid="4" nextobjectid="29">
 <tileset firstgid="1" name="tilesheet" tilewidth="70" tileheight="70" tilecount="1207" columns="71">
  <image source="../../../../../../../Tilesheet.png" trans="ffffff" width="5000" height="1220"/>
 </tileset>
 <layer id="1" name="background" width="20" height="20">
  <data encoding="csv">
80,505,292,293,80,80,80,80,80,80,80,80,80,150,222,434,435,647,577,648,
151,221,363,364,576,506,80,80,80,80,80,80,80,80,80,80,80,80,80,80,
150,222,434,435,647,577,648,80,80,80,80,80,80,80,80,80,80,80,80,80,
80,80,80,80,80,80,80,80,80,80,80,80,80,80,80,80,80,80,80,80,
80,80,80,80,80,80,80,80,723,724,725,726,727,80,80,80,80,80,80,80,
80,80,80,80,80,80,80,80,794,795,796,797,798,80,80,80,80,80,505,292,
80,80,80,80,80,80,80,80,80,80,80,80,80,80,80,80,80,151,221,363,
723,724,725,726,727,80,80,80,80,80,80,80,80,80,80,80,80,150,222,434,
794,795,796,797,798,80,80,80,80,80,80,80,80,80,80,80,80,80,80,80,
80,80,80,80,80,80,80,80,80,80,80,80,80,80,80,80,80,80,80,80,
80,80,80,80,80,80,80,80,80,80,80,80,80,80,80,80,80,722,722,722,
80,718,719,720,721,722,80,80,80,80,80,80,80,0,0,0,728,0,0,0,
80,789,790,791,792,793,80,80,80,80,80,80,80,0,0,0,728,0,0,0,
80,80,80,80,80,80,80,80,80,80,80,80,80,0,0,0,728,0,0,0,
80,80,80,80,80,80,80,80,80,80,80,80,80,0,0,0,728,0,0,0,
648,80,80,80,80,80,80,80,861,861,861,80,80,0,0,0,728,0,0,0,
80,80,80,80,80,80,80,80,861,861,861,861,0,0,0,0,728,0,0,0,
80,80,80,80,80,80,80,80,861,861,861,861,861,861,861,861,729,861,0,0,
80,80,80,80,80,80,80,80,861,861,861,861,861,861,861,861,729,861,861,0,
80,80,80,80,80,80,80,80,0,861,861,861,861,861,861,861,729,861,861,861
</data>
 </layer>
 <layer id="2" name="terrain" width="20" height="20">
  <data encoding="csv">
0,0,0,0,0,0,0,0,0,0,0,0,0,0,0,0,0,0,0,0,
0,0,0,0,0,0,0,0,0,0,0,0,0,0,0,0,0,0,0,0,
0,0,0,0,0,0,0,0,0,0,0,0,0,0,0,0,0,0,0,0,
0,0,0,0,0,0,0,0,0,0,0,0,0,0,0,0,0,0,0,0,
0,0,0,0,0,0,0,0,0,0,0,0,0,0,0,0,0,0,0,0,
0,0,0,0,0,0,0,0,0,0,0,0,0,0,0,0,0,0,0,0,
0,0,0,0,0,0,0,0,0,0,0,0,0,0,312,313,314,315,316,0,
0,0,0,0,0,0,0,0,0,0,0,0,0,0,383,384,385,386,387,0,
0,0,0,0,0,0,0,0,0,0,0,0,0,0,454,455,456,457,458,0,
0,0,0,0,0,0,0,0,0,0,0,0,0,0,0,526,527,528,529,0,
0,0,0,0,0,0,0,0,0,0,0,0,0,0,0,597,598,599,0,0,
0,0,0,0,0,0,0,0,0,0,0,860,860,860,860,860,658,860,860,860,
0,0,0,0,0,0,0,0,0,860,860,860,860,860,860,860,658,860,860,860,
0,0,0,0,0,0,0,0,860,860,860,860,860,860,860,860,658,860,860,860,
0,0,0,0,0,0,0,0,860,860,860,860,860,860,860,860,658,860,860,860,
0,0,0,0,0,0,0,0,860,860,860,860,860,860,860,860,658,860,860,860,
0,0,0,0,0,0,0,661,651,651,651,655,860,860,860,860,658,860,860,860,
0,0,0,0,0,0,0,0,0,0,0,659,651,651,651,651,656,655,860,860,
0,0,0,0,0,0,0,649,650,666,0,0,0,0,0,0,0,659,655,860,
0,0,0,0,0,0,0,0,860,665,666,0,0,0,0,0,0,0,659,655
</data>
 </layer>
 <objectgroup id="3" name="platform">
  <object id="15" type="platform" x="1330.18" y="1259.29" width="70" height="71.5"/>
  <object id="16" type="platform" x="1258.18" y="1189.29" width="73.3333" height="69.5"/>
  <object id="17" type="platform" x="1188.85" y="766.786" width="74.6667" height="423.333"/>
  <object id="18" type="platform" x="559.522" y="1326.79" width="70.6667" height="72"/>
  <object id="19" type="platform" x="490.182" y="1120.19" width="69.3333" height="37.3333"/>
  <object id="20" type="platform" x="559.522" y="1093.49" width="281.333" height="25.3333"/>
  <object id="21" type="platform" x="839.522" y="1117.49" width="282.667" height="72"/>
  <object id="22" type="platform" x="1106.18" y="768.186" width="14.6667" height="356"/>
  <object id="23" type="platform" x="560.852" y="909.486" width="68" height="184"/>
  <object id="24" type="platform" x="628.852" y="838.786" width="141.333" height="72"/>
  <object id="25" type="platform" x="770.182" y="770.786" width="333.333" height="68"/>
  <object id="26" type="platform" x="1053.85" y="668.486" width="67.5" height="102"/>
  <object id="27" type="platform" x="1189.85" y="664.486" width="54" height="102.5"/>
  <object id="28" type="platform" x="1263.52" y="768.186" width="137.333" height="41.3333"/>
 </objectgroup>
</map>
