<?xml version="1.0" encoding="UTF-8"?>
<map version="1.10" tiledversion="1.11.2" orientation="orthogonal" renderorder="right-down" width="20" height="20" tilewidth="70" tileheight="70" infinite="0" nextlayerid="4" nextobjectid="6">
 <tileset firstgid="1" name="tilesheet" tilewidth="70" tileheight="70" tilecount="1207" columns="71">
  <image source="../../../../../../../Tilesheet.png" trans="ffffff" width="5000" height="1220"/>
 </tileset>
 <layer id="1" name="background" width="20" height="20">
  <data encoding="csv">
15,15,15,17,15,15,16,0,0,0,0,0,0,0,0,0,0,0,0,0,
15,15,16,17,15,15,16,0,0,0,0,0,0,0,0,0,0,0,0,0,
17,17,16,15,17,16,15,0,0,0,0,0,0,0,0,0,0,0,0,0,
15,17,15,15,15,15,15,0,0,0,0,0,0,0,0,0,0,0,0,0,
15,17,16,16,16,16,15,0,0,0,0,0,0,0,0,0,0,0,0,0,
17,15,17,17,16,16,17,0,0,0,0,0,0,0,0,0,0,0,0,0,
16,15,15,15,15,17,15,0,0,0,0,0,0,0,0,0,0,0,0,0,
17,15,16,15,15,17,16,0,0,0,0,0,0,0,0,0,0,0,0,0,
17,17,16,15,17,15,15,0,0,0,0,0,0,0,0,0,0,0,0,0,
17,17,16,17,0,0,0,0,0,0,0,0,0,0,0,0,0,0,0,0,
15,17,16,16,0,0,0,0,0,0,0,0,0,0,0,0,0,0,0,0,
16,15,17,15,0,0,0,0,0,0,0,0,0,0,0,0,0,0,0,0,
17,17,15,15,0,0,0,0,0,0,0,0,0,0,0,0,0,0,0,0,
15,15,15,16,0,0,0,0,0,0,0,0,0,0,0,0,0,0,0,0,
15,16,16,15,0,0,0,0,0,0,0,0,0,0,0,0,0,0,0,0,
15,15,17,15,0,0,0,0,0,0,0,0,0,0,0,0,0,0,0,0,
17,17,15,16,0,0,0,0,0,0,0,0,0,0,0,0,0,0,0,0,
16,17,15,15,0,0,0,0,0,0,0,0,0,0,0,0,0,0,0,0,
15,17,16,15,0,0,0,0,0,0,0,0,0,0,0,0,0,0,0,0,
17,17,16,15,0,0,0,0,0,0,0,0,0,0,0,0,0,0,0,0
</data>
 </layer>
 <layer id="2" name="terrain" width="20" height="20">
  <data encoding="csv">
0,0,0,0,863,860,860,860,860,860,860,860,860,860,860,860,860,860,860,860,
0,0,0,0,860,860,860,860,860,860,860,860,860,860,860,860,860,860,860,860,
0,0,0,0,860,860,860,860,860,860,860,860,860,860,860,860,860,860,860,860,
0,0,0,863,860,860,860,860,860,860,860,860,860,860,860,860,860,860,860,860,
0,0,0,860,860,860,860,860,860,860,860,860,860,860,860,860,860,860,860,860,
0,0,0,860,860,860,860,860,860,860,860,860,860,860,860,860,860,860,860,860,
0,0,863,860,860,860,860,860,860,860,860,860,860,860,860,860,860,860,860,860,
0,0,860,860,860,860,860,860,860,860,860,860,860,860,860,860,860,860,860,860,
0,0,860,860,860,860,860,860,860,860,860,860,860,860,860,860,860,860,860,860,
0,863,860,860,860,860,860,860,860,860,860,860,860,860,860,860,860,860,860,860,
0,860,860,860,860,860,860,860,860,860,860,860,860,860,860,860,860,860,860,860,
0,860,860,860,860,860,860,860,860,860,860,860,860,860,860,860,860,860,860,860,
863,860,860,860,860,860,860,860,860,860,860,860,860,860,860,860,860,860,860,860,
860,860,860,860,860,860,860,860,860,860,860,860,860,860,860,860,860,860,860,860,
860,860,860,860,860,860,860,860,860,860,860,860,860,860,860,860,860,860,860,860,
860,860,860,860,860,860,860,860,860,860,860,860,860,860,860,860,860,860,860,860,
860,860,860,860,860,860,860,860,860,860,860,860,860,860,860,860,860,860,860,860,
860,860,860,860,860,860,860,860,860,860,860,860,860,860,860,860,860,860,860,860,
860,860,860,860,860,860,860,860,860,860,860,860,860,860,860,860,860,860,860,860,
860,860,860,860,860,860,860,860,860,860,860,860,860,860,860,860,860,860,860,860
</data>
 </layer>
 <objectgroup id="3" name="platform">
  <object id="1" type="platform" x="278.333" y="1" width="70" height="210"/>
  <object id="2" type="platform" x="208.333" y="211" width="70" height="210"/>
  <object id="3" type="platform" x="138.333" y="421" width="70" height="210"/>
  <object id="4" type="platform" x="68.3333" y="631" width="70" height="210"/>
  <object id="5" type="platform" x="-1.66667" y="841" width="70" height="210"/>
 </objectgroup>
</map>
