<?xml version="1.0" encoding="UTF-8"?>
<map version="1.10" tiledversion="1.11.2" orientation="orthogonal" renderorder="right-down" width="271" height="287" tilewidth="70" tileheight="70" infinite="0" nextlayerid="12" nextobjectid="362">
 <tileset firstgid="1" name="tilesheet" tilewidth="70" tileheight="70" tilecount="1207" columns="71">
  <image source="Tilesheet.png" trans="ffffff" width="5000" height="1220"/>
 </tileset>
 <objectgroup id="11" name="platform">
  <object id="52" type="platform" x="0" y="18759" width="490" height="72"/>
  <object id="54" type="platform" x="489" y="18829" width="71" height="71"/>
  <object id="55" type="platform" x="560" y="18900" width="69" height="71"/>
  <object id="56" type="platform" x="629.333" y="18970.7" width="1469.33" height="60"/>
  <object id="58" type="platform" x="2030.67" y="18826.7" width="60" height="144"/>
  <object id="59" type="platform" x="1958.67" y="18756" width="73.3333" height="70.6667"/>
  <object id="60" type="platform" x="2001.33" y="18689.3" width="110.667" height="65.3333"/>
  <object id="61" type="platform" x="2112" y="18624" width="74.6667" height="65.3333"/>
  <object id="62" type="platform" x="2173.33" y="18530.7" width="74.6667" height="93.3333"/>
  <object id="63" type="platform" x="2245.33" y="18482.7" width="65.3333" height="45.3333"/>
  <object id="64" type="platform" x="2309.33" y="18422.7" width="566.667" height="57.3333"/>
  <object id="65" type="platform" x="2876" y="18380" width="114.667" height="40"/>
  <object id="66" type="platform" x="2988" y="18408" width="93.3333" height="37.3333"/>
  <object id="67" type="platform" x="3080" y="18340" width="74.6667" height="72"/>
  <object id="68" type="platform" x="3149.33" y="18269.3" width="140" height="78.6667"/>
  <object id="69" type="platform" x="3288" y="18198.7" width="142.667" height="74.6667"/>
  <object id="70" type="platform" x="3428" y="18129.3" width="74.6667" height="77.3333"/>
  <object id="71" type="platform" x="3498.67" y="17918.7" width="18.6667" height="214.667"/>
  <object id="72" type="platform" x="3497.33" y="17917.3" width="560" height="45.3333"/>
  <object id="73" type="platform" x="3926.67" y="17452" width="62.6667" height="49.3333"/>
  <object id="74" type="platform" x="4129.33" y="17568" width="72" height="41.3333"/>
  <object id="75" type="platform" x="4200" y="17608" width="26.6667" height="174.667"/>
  <object id="76" type="platform" x="4130.67" y="17777.3" width="81.3333" height="74.6667"/>
  <object id="77" type="platform" x="4058.67" y="17849.3" width="73.3333" height="78.6667"/>
  <object id="78" type="platform" x="4197.33" y="17221.3" width="98.6667" height="344"/>
  <object id="79" type="platform" x="4129.33" y="17141.3" width="80" height="80"/>
  <object id="80" type="platform" x="4057.33" y="17073.3" width="73.3333" height="76"/>
  <object id="81" type="platform" x="3988" y="16657.3" width="74.6667" height="421.333"/>
  <object id="82" type="platform" x="3569.33" y="17426.7" width="209.333" height="70.6667"/>
  <object id="83" type="platform" x="3500" y="17356" width="68" height="70.6667"/>
  <object id="84" type="platform" x="3429.33" y="17286.7" width="70.6667" height="73.3333"/>
  <object id="85" type="platform" x="3358.67" y="17217.3" width="70.6667" height="72"/>
  <object id="86" type="platform" x="3289.33" y="17010.7" width="69.3333" height="37.3333"/>
  <object id="87" type="platform" x="3358.67" y="16984" width="281.333" height="25.3333"/>
  <object id="88" type="platform" x="3638.67" y="17008" width="282.667" height="72"/>
  <object id="89" type="platform" x="3905.33" y="16658.7" width="14.6667" height="356"/>
  <object id="90" type="platform" x="3360" y="16800" width="68" height="184"/>
  <object id="91" type="platform" x="3428" y="16729.3" width="141.333" height="72"/>
  <object id="92" type="platform" x="3569.33" y="16661.3" width="333.333" height="68"/>
  <object id="93" type="platform" x="3853" y="16559" width="67.5" height="102"/>
  <object id="94" type="platform" x="3989" y="16555" width="54" height="102.5"/>
  <object id="95" type="platform" x="4062.67" y="16658.7" width="488" height="41.3333"/>
  <object id="96" type="platform" x="4549.33" y="16589.3" width="560" height="70.6667"/>
  <object id="99" type="platform" x="5109" y="16519" width="772" height="70"/>
  <object id="100" type="platform" x="5880" y="16170" width="13" height="351"/>
  <object id="101" type="platform" x="5886" y="16167" width="134" height="44"/>
  <object id="104" type="platform" x="6020" y="16100" width="211" height="70"/>
  <object id="105" type="platform" x="5876" y="14070" width="74.6667" height="1754"/>
  <object id="106" type="platform" x="5950.67" y="15820" width="137.333" height="69.3333"/>
  <object id="107" type="platform" x="6088" y="15749.3" width="73.3333" height="69.3333"/>
  <object id="108" type="platform" x="6089.33" y="15680" width="140" height="68"/>
  <object id="109" type="platform" x="5320" y="16310.7" width="144" height="70.6667"/>
  <object id="110" type="platform" x="5460" y="16240" width="69.3333" height="68"/>
  <object id="111" type="platform" x="5528" y="14281.3" width="70.6667" height="1958.67"/>
  <object id="112" type="platform" x="5320" y="14278.7" width="18.6667" height="2032"/>
  <object id="113" type="platform" x="5338.67" y="14277.3" width="332" height="30.6667"/>
  <object id="114" type="platform" x="5600" y="14489.3" width="70" height="32"/>
  <object id="115" type="platform" x="5598.67" y="14700" width="72" height="29.3333"/>
  <object id="116" type="platform" x="5599.33" y="14910" width="72" height="30.6667"/>
  <object id="117" type="platform" x="5598.67" y="15329.3" width="70.6667" height="31.3333"/>
  <object id="118" type="platform" x="5599.33" y="15539.3" width="70.6667" height="29.3333"/>
  <object id="119" type="platform" x="5598.67" y="15748.7" width="70.6667" height="34.6667"/>
  <object id="120" type="platform" x="5600" y="15958.7" width="70" height="35.3333"/>
  <object id="121" type="platform" x="5249.33" y="15890" width="70" height="37.3333"/>
  <object id="122" type="platform" x="5250" y="16099.3" width="68.6667" height="42.6667"/>
  <object id="123" type="platform" x="5039.33" y="15820" width="72" height="30.6667"/>
  <object id="124" type="platform" x="5039.33" y="15609.3" width="71.3333" height="35.3333"/>
  <object id="125" type="platform" x="5250" y="15469.3" width="70" height="38"/>
  <object id="126" type="platform" x="5040" y="15330" width="69.3333" height="28.6667"/>
  <object id="127" type="platform" x="5040" y="15120" width="71.3333" height="32"/>
  <object id="128" type="platform" x="5040" y="14909.3" width="70.6667" height="32"/>
  <object id="129" type="platform" x="5250" y="14839.3" width="70.6667" height="39.3333"/>
  <object id="130" type="platform" x="5250" y="14629.3" width="69.3333" height="41.3333"/>
  <object id="131" type="platform" x="5040" y="14488.7" width="70.6667" height="32.6667"/>
  <object id="132" type="platform" x="5038.67" y="14280" width="71.3333" height="29.3333"/>
  <object id="133" type="platform" x="5039.33" y="14069.3" width="69.3333" height="29.3333"/>
  <object id="134" type="platform" x="4968" y="13856" width="70" height="2316"/>
  <object id="136" type="platform" x="4618" y="13578" width="68" height="1544"/>
  <object id="137" type="platform" x="4682" y="15122" width="80" height="490"/>
  <object id="138" type="platform" x="4690" y="13508" width="138" height="68"/>
  <object id="139" type="platform" x="4828" y="13438" width="420" height="72"/>
  <object id="140" type="platform" x="5250" y="13368" width="838" height="70"/>
  <object id="141" type="platform" x="6298" y="13370" width="1118" height="70"/>
  <object id="142" type="platform" x="6618" y="13291.3" width="322" height="80"/>
  <object id="143" type="platform" x="6670.67" y="13168" width="260" height="122.667"/>
  <object id="144" type="platform" x="5039" y="13850" width="209" height="10"/>
  <object id="145" type="platform" x="5250" y="13851" width="68" height="80"/>
  <object id="146" type="platform" x="5317" y="13929" width="78" height="71"/>
  <object id="147" type="platform" x="5388" y="14000" width="491" height="70"/>
  <object id="148" type="platform" x="6230" y="15960" width="69.3333" height="139.333"/>
  <object id="149" type="platform" x="6299.33" y="15820" width="71.3333" height="140"/>
  <object id="150" type="platform" x="6369.33" y="15608.7" width="11.3333" height="209.333"/>
  <object id="151" type="platform" x="6299.33" y="15540.7" width="69.3333" height="68.6667"/>
  <object id="152" type="platform" x="6229.33" y="15470" width="70.6667" height="70.6667"/>
  <object id="153" type="platform" x="6299.33" y="15400" width="72" height="69.3333"/>
  <object id="154" type="platform" x="6370" y="14280" width="15.3333" height="1118.67"/>
  <object id="155" type="platform" x="6299.33" y="14979.3" width="70" height="38.6667"/>
  <object id="156" type="platform" x="6300" y="14770" width="70" height="38.6667"/>
  <object id="157" type="platform" x="6090" y="14700" width="70" height="29.3333"/>
  <object id="158" type="platform" x="6090" y="15120.7" width="72" height="29.3333"/>
  <object id="159" type="platform" x="6090" y="14488" width="71" height="37"/>
  <object id="160" type="platform" x="6089" y="15329" width="71" height="31"/>
  <object id="161" type="platform" x="6062" y="14070" width="27" height="1609"/>
  <object id="162" type="platform" x="6300" y="14210" width="69" height="69"/>
  <object id="163" type="platform" x="6230" y="14139" width="138" height="72"/>
  <object id="166" type="platform" x="6090" y="14000" width="71" height="71"/>
  <object id="167" type="platform" x="6090" y="13930" width="139" height="70"/>
  <object id="168" type="platform" x="6059" y="13720" width="31" height="211"/>
  <object id="169" type="platform" x="6300" y="13789" width="70" height="72"/>
  <object id="170" type="platform" x="6091" y="13652" width="141" height="65"/>
  <object id="171" type="platform" x="6229" y="13440" width="70" height="70"/>
  <object id="172" type="platform" x="6299" y="13510" width="72" height="70"/>
  <object id="173" type="platform" x="6044" y="13439" width="43" height="212"/>
  <object id="174" type="platform" x="6369" y="13581" width="68" height="208"/>
  <object id="175" type="platform" x="6371" y="13860" width="22" height="279"/>
  <object id="176" type="platform" x="7420" y="13301.3" width="72" height="69.3333"/>
  <object id="177" type="platform" x="7490.67" y="13230.7" width="70.6667" height="70.6667"/>
  <object id="178" type="platform" x="7558.67" y="13160" width="70.6667" height="73.3333"/>
  <object id="179" type="platform" x="7629.33" y="13088" width="70.6667" height="73.3333"/>
  <object id="180" type="platform" x="7698.67" y="13018.7" width="82.6667" height="84"/>
  <object id="181" type="platform" x="7769.33" y="12878.7" width="74.6667" height="145.333"/>
  <object id="182" type="platform" x="7838.67" y="12669.3" width="66.6667" height="217.333"/>
  <object id="183" type="platform" x="7909.33" y="12460" width="120" height="280"/>
  <object id="184" type="platform" x="7978.67" y="12250.7" width="72" height="213.333"/>
  <object id="185" type="platform" x="8049.33" y="12040" width="69.3333" height="212"/>
  <object id="186" type="platform" x="8120" y="11830.7" width="68" height="224"/>
  <object id="187" type="platform" x="8190.67" y="11620" width="68" height="213.333"/>
  <object id="188" type="platform" x="8258.67" y="11410.7" width="70.6667" height="248"/>
  <object id="189" type="platform" x="8330.67" y="11340" width="140" height="73.3333"/>
  <object id="190" type="platform" x="8469.33" y="11268" width="141.333" height="70.6667"/>
  <object id="193" type="platform" x="8608" y="11200" width="70.6667" height="281.333"/>
  <object id="194" type="platform" x="8748" y="11129.3" width="72" height="44"/>
  <object id="195" type="platform" x="8818.67" y="11128" width="70.6667" height="352"/>
  <object id="196" type="platform" x="8890.67" y="11480" width="697.333" height="69.3333"/>
  <object id="197" type="platform" x="9588" y="11536" width="140" height="14.6667"/>
  <object id="198" type="platform" x="9801.33" y="11394.7" width="70.6667" height="16"/>
  <object id="199" type="platform" x="9798.67" y="11678.7" width="70.6667" height="10.6667"/>
  <object id="200" type="platform" x="8540" y="11606.7" width="208" height="14.6667"/>
  <object id="201" type="platform" x="8538.67" y="11480" width="72" height="66.6667"/>
  <object id="202" type="platform" x="8518.67" y="11549.3" width="21.3333" height="209.333"/>
  <object id="203" type="platform" x="8541.33" y="11760" width="68" height="69.3333"/>
  <object id="204" type="platform" x="8609.33" y="11829.3" width="1261.33" height="49.3333"/>
  <object id="205" type="platform" x="9870.67" y="11130.7" width="69.3333" height="701.333"/>
  <object id="206" type="platform" x="9798.67" y="11128" width="73.3333" height="42.6667"/>
  <object id="207" type="platform" x="9657.33" y="11128" width="72" height="34.6667"/>
  <object id="208" type="platform" x="9658.67" y="11256" width="69.3333" height="16"/>
  <object id="209" type="platform" x="8892" y="11126.7" width="766.667" height="60"/>
  <object id="210" type="platform" x="9588" y="11186.7" width="70.6667" height="292"/>
  <object id="211" type="platform" x="9170.67" y="11817.3" width="68" height="10.6667"/>
  <object id="212" type="platform" x="8749.33" y="11817.3" width="70.6667" height="8"/>
  <object id="213" type="platform" x="8542.67" y="11748" width="69.3333" height="12"/>
  <object id="214" type="platform" x="9940" y="11060" width="141" height="70"/>
  <object id="215" type="platform" x="10081" y="10990" width="1959" height="70"/>
  <object id="216" type="platform" x="9520" y="10930" width="70" height="60"/>
  <object id="217" type="platform" x="9448" y="10848" width="142" height="72"/>
  <object id="218" type="platform" x="9474" y="10804" width="54" height="44"/>
  <object id="219" type="platform" x="9370" y="10872" width="78" height="56"/>
  <object id="220" type="platform" x="9382" y="10626" width="138" height="14"/>
  <object id="221" type="platform" x="9384" y="10416" width="66" height="14"/>
  <object id="222" type="platform" x="9446" y="10292" width="74" height="278"/>
  <object id="223" type="platform" x="9520" y="10570" width="70" height="70"/>
  <object id="224" type="platform" x="9590" y="10640" width="420" height="70"/>
  <object id="225" type="platform" x="10006" y="10710" width="74" height="70"/>
  <object id="228" type="platform" x="10078" y="10780" width="1612" height="70"/>
  <object id="229" type="platform" x="11692" y="10710" width="68" height="68"/>
  <object id="230" type="platform" x="11758" y="10640" width="72" height="70"/>
  <object id="233" type="platform" x="11830" y="6720" width="70" height="3920"/>
  <object id="234" type="platform" x="11760" y="6580" width="70" height="140"/>
  <object id="235" type="platform" x="11690" y="6440" width="70" height="140"/>
  <object id="236" type="platform" x="11550" y="6510" width="140" height="70"/>
  <object id="237" type="platform" x="11550" y="6580" width="70" height="140"/>
  <object id="238" type="platform" x="11480" y="6720" width="70" height="210"/>
  <object id="239" type="platform" x="10990" y="6930" width="490" height="70"/>
  <object id="240" type="platform" x="10990" y="7000" width="70" height="490"/>
  <object id="241" type="platform" x="10570" y="7490" width="420" height="70"/>
  <object id="242" type="platform" x="10360" y="7420" width="210" height="70"/>
  <object id="243" type="platform" x="10290" y="7490" width="70" height="70"/>
  <object id="245" type="platform" x="10220" y="7560" width="70" height="1120"/>
  <object id="246" type="platform" x="10150" y="8680" width="70" height="210"/>
  <object id="247" type="platform" x="10080" y="8890" width="70" height="210"/>
  <object id="248" type="platform" x="10010" y="9100" width="70" height="210"/>
  <object id="249" type="platform" x="9940" y="9310" width="70" height="210"/>
  <object id="251" type="platform" x="9870" y="9520" width="70" height="210"/>
  <object id="252" type="platform" x="9800" y="9730" width="70" height="210"/>
  <object id="253" type="platform" x="9730" y="9940" width="70" height="210"/>
  <object id="254" type="platform" x="9660" y="10150" width="70" height="70"/>
  <object id="255" type="platform" x="9520" y="10220" width="140" height="70"/>
  <object id="259" type="platform" x="9870" y="8400" width="210" height="210"/>
  <object id="262" type="platform" x="9870" y="7840" width="350" height="70"/>
  <object id="264" type="platform" x="9954" y="7808" width="264" height="30"/>
  <object id="265" type="platform" x="10054" y="7758" width="168" height="46"/>
  <object id="266" type="platform" x="9448" y="8182" width="316" height="46"/>
  <object id="267" type="platform" x="9726" y="8262" width="74" height="68"/>
  <object id="268" type="platform" x="9662" y="8230" width="68" height="30"/>
  <object id="269" type="platform" x="9800" y="8330" width="70" height="70"/>
  <object id="272" type="platform" x="9660" y="7910" width="70" height="70"/>
  <object id="273" type="platform" x="9730" y="7930" width="70" height="50"/>
  <object id="275" type="platform" x="10570" y="7172" width="70" height="248"/>
  <object id="276" type="platform" x="10640" y="7146" width="238" height="64"/>
  <object id="277" type="platform" x="10782" y="7090" width="160" height="56"/>
  <object id="278" type="platform" x="10840" y="7050" width="114" height="42"/>
  <object id="279" type="platform" x="12110" y="6860" width="70" height="4060"/>
  <object id="280" type="platform" x="12040" y="10920" width="70" height="70"/>
  <object id="281" type="platform" x="12042.4" y="10878.8" width="69.697" height="39.3939"/>
  <object id="282" type="platform" x="12180" y="6650" width="70" height="210"/>
  <object id="283" type="platform" x="12250" y="5600" width="70" height="1050"/>
  <object id="284" type="platform" x="12180" y="5250" width="70" height="350"/>
  <object id="285" type="platform" x="12110" y="5040" width="70" height="210"/>
  <object id="286" type="platform" x="12040" y="4900" width="70" height="140"/>
  <object id="287" type="platform" x="10780" y="4900" width="980" height="70"/>
  <object id="288" type="platform" x="10780" y="4970" width="70" height="420"/>
  <object id="289" type="platform" x="10850" y="5320" width="140" height="70"/>
  <object id="290" type="platform" x="10990" y="5250" width="70" height="70"/>
  <object id="291" type="platform" x="11060" y="5180" width="70" height="70"/>
  <object id="292" type="platform" x="11130" y="5110" width="140" height="70"/>
  <object id="293" type="platform" x="11270" y="5040" width="140" height="70"/>
  <object id="294" type="platform" x="11410" y="4970" width="350" height="70"/>
  <object id="295" type="platform" x="11550" y="5530" width="71.2121" height="45.7576"/>
  <object id="296" type="platform" x="11830" y="5530" width="73.0303" height="36.6667"/>
  <object id="297" type="platform" x="11620" y="5530" width="210" height="70"/>
  <object id="298" type="platform" x="11620" y="5600" width="70" height="630"/>
  <object id="299" type="platform" x="11690" y="6160" width="140" height="70"/>
  <object id="300" type="platform" x="11760" y="5600" width="70" height="560"/>
  <object id="301" type="platform" x="11340" y="5793.94" width="275.152" height="16.0606"/>
  <object id="302" type="platform" x="11063.6" y="5936.36" width="206.364" height="13.6364"/>
  <object id="303" type="platform" x="11063.6" y="6069.7" width="136.364" height="20.303"/>
  <object id="304" type="platform" x="11063.6" y="6218.18" width="66.3636" height="11.8182"/>
  <object id="305" type="platform" x="11200" y="6650" width="140" height="70"/>
  <object id="306" type="platform" x="11060" y="6650" width="140" height="70"/>
  <object id="307" type="platform" x="10990" y="6580" width="70" height="70"/>
  <object id="308" type="platform" x="10920" y="6510" width="70" height="70"/>
  <object id="309" type="platform" x="10920" y="6370" width="70" height="140"/>
  <object id="310" type="platform" x="10850" y="5950" width="70" height="420"/>
  <object id="311" type="platform" x="10780" y="5530" width="70" height="420"/>
  <object id="312" type="platform" x="10850" y="5530" width="210" height="70"/>
  <object id="313" type="platform" x="11066.7" y="5581.82" width="343.333" height="18.1818"/>
  <object id="314" type="platform" x="10706.1" y="5530.3" width="72.7273" height="36.3636"/>
  <object id="315" type="platform" x="10712.1" y="5303.03" width="67.8788" height="16.9697"/>
  <object id="316" type="platform" x="10706.1" y="5093.94" width="73.9394" height="16.0606"/>
  <object id="317" type="platform" x="12106.1" y="5530.3" width="72.7273" height="45.4545"/>
  <object id="318" type="platform" x="10920" y="4480" width="70" height="280"/>
  <object id="319" type="platform" x="10990" y="4690" width="770" height="70"/>
  <object id="320" type="platform" x="11690" y="3500" width="70" height="1190"/>
  <object id="321" type="platform" x="11760" y="3430" width="70" height="70"/>
  <object id="322" type="platform" x="11830" y="3220" width="70" height="210"/>
  <object id="323" type="platform" x="11690" y="3220" width="140" height="70"/>
  <object id="324" type="platform" x="11550" y="3290" width="140" height="70"/>
  <object id="325" type="platform" x="11550" y="3360" width="70" height="70"/>
  <object id="326" type="platform" x="11480" y="3430" width="70" height="140"/>
  <object id="327" type="platform" x="11410" y="3570" width="70" height="140"/>
  <object id="329" type="platform" x="11270" y="3710" width="140" height="70"/>
  <object id="330" type="platform" x="11270" y="3780" width="70" height="70"/>
  <object id="331" type="platform" x="11200" y="3850" width="70" height="140"/>
  <object id="332" type="platform" x="11130" y="3990" width="70" height="140"/>
  <object id="333" type="platform" x="11060" y="4130" width="70" height="140"/>
  <object id="334" type="platform" x="10990" y="4270" width="70" height="210"/>
  <object id="335" type="platform" x="10848.5" y="4606.06" width="71.5152" height="13.9394"/>
  <object id="336" type="platform" x="11903" y="4603.03" width="136.97" height="16.9697"/>
  <object id="338" type="platform" x="11760" y="4751.52" width="70.303" height="8.48485"/>
  <object id="339" type="platform" x="11760" y="4393.94" width="140" height="16.0606"/>
  <object id="340" type="platform" x="11963.6" y="4181.82" width="76.3636" height="18.1818"/>
  <object id="341" type="platform" x="11969.7" y="4048.48" width="70.303" height="11.5152"/>
  <object id="342" type="platform" x="11975.8" y="3909.09" width="64.2424" height="10.9091"/>
  <object id="343" type="platform" x="11906.1" y="3700" width="133.939" height="10"/>
  <object id="344" type="platform" x="11760.6" y="3833.33" width="69.3939" height="16.6667"/>
  <object id="345" type="platform" x="12040" y="3500" width="70" height="1400"/>
  <object id="346" type="platform" x="12110" y="3290" width="70" height="210"/>
  <object id="347" type="platform" x="12180" y="3150" width="70" height="140"/>
  <object id="348" type="platform" x="12250" y="2940" width="70" height="210"/>
  <object id="349" type="platform" x="12320" y="2730" width="70" height="210"/>
  <object id="350" type="platform" x="12390" y="2520" width="70" height="210"/>
  <object id="351" type="platform" x="12460" y="2310" width="70" height="210"/>
  <object id="353" type="platform" x="12530" y="2100" width="70" height="210"/>
  <object id="355" type="platform" x="12600" y="1890" width="70" height="210"/>
  <object id="356" type="platform" x="12670" y="1680" width="70" height="210"/>
  <object id="357" type="platform" x="12740" y="1680" width="210" height="70"/>
  <object id="360" type="platform" x="12950" y="840" width="70" height="840"/>
  <object id="361" type="platform" x="3080" y="17220" width="140" height="140"/>
 </objectgroup>
</map>
